(1001)
(T1  D=6.35 CR=0 - ZMIN=-22.462 - flat end mill)
G90 G94
G17
G21
G28 G91 Z0
G90

(2D Contour3)
T1
S18000 M3
G54
G0 X31.911 Y-170.374
Z15.604
Z5
G1 Z2 F1000
Z-0.365
X31.91 Y-170.366 Z-0.464 F700
X31.906 Y-170.343 Z-0.561
X31.899 Y-170.306 Z-0.653
X31.89 Y-170.254 Z-0.738
X31.879 Y-170.191 Z-0.814
X31.865 Y-170.116 Z-0.879
X31.85 Y-170.033 Z-0.931
X31.834 Y-169.942 Z-0.969
X31.817 Y-169.847 Z-0.992
X31.8 Y-169.749 Z-1
X31.688 Y-169.124
G3 X30.952 Y-168.61 I-0.625 J-0.112
G2 X30.218 Y-168.675 I-0.733 J4.11
G1 X22.718
G2 X20.473 Y-167.745 I0 J3.175
G1 X19.973 Y-167.245
G2 X19.043 Y-165 I2.245 J2.245
G1 Y-135.893
G2 X23.05 Y-131.722 I4.175 J0
G3 X23.05 Y-49.278 I-1.661 J41.222
G2 X19.043 Y-45.107 I0.168 J4.172
G1 Y-16
G2 X19.973 Y-13.755 I3.175 J0
G1 X20.473 Y-13.255
G2 X22.718 Y-12.325 I2.245 J-2.245
G1 X30.218
G2 X34.393 Y-16.5 I0 J-4.175
G1 Y-28.5
G3 X38.218 Y-32.325 I3.825 J0
G1 X61.062
G2 X80.957 Y-52.22 I0 J-19.895
G1 Y-128.78
G2 X61.062 Y-148.675 I-19.895 J0
G1 X38.218
G3 X34.393 Y-152.5 I0 J-3.825
G1 Y-164.5
G2 X30.952 Y-168.61 I-4.175 J0
G3 X30.438 Y-169.347 I0.112 J-0.625
G1 X30.55 Y-169.972
X30.567 Y-170.07 Z-0.992
X30.584 Y-170.165 Z-0.969
X30.6 Y-170.256 Z-0.931
X30.615 Y-170.339 Z-0.879
X30.628 Y-170.414 Z-0.814
X30.64 Y-170.478 Z-0.738
X30.649 Y-170.529 Z-0.653
X30.656 Y-170.566 Z-0.561
X30.66 Y-170.589 Z-0.464
X30.661 Y-170.597 Z-0.365
G0 Z5
X31.911 Y-170.374
G1 Z1 F1000
Z-1.365
X31.91 Y-170.366 Z-1.464 F700
X31.906 Y-170.343 Z-1.561
X31.899 Y-170.306 Z-1.653
X31.89 Y-170.254 Z-1.738
X31.879 Y-170.191 Z-1.814
X31.865 Y-170.116 Z-1.879
X31.85 Y-170.033 Z-1.931
X31.834 Y-169.942 Z-1.969
X31.817 Y-169.847 Z-1.992
X31.8 Y-169.749 Z-2
X31.688 Y-169.124
G3 X30.952 Y-168.61 I-0.625 J-0.112
G2 X30.218 Y-168.675 I-0.733 J4.11
G1 X22.718
G2 X20.473 Y-167.745 I0 J3.175
G1 X19.973 Y-167.245
G2 X19.043 Y-165 I2.245 J2.245
G1 Y-135.893
G2 X23.05 Y-131.722 I4.175 J0
G3 X23.05 Y-49.278 I-1.661 J41.222
G2 X19.043 Y-45.107 I0.168 J4.172
G1 Y-16
G2 X19.973 Y-13.755 I3.175 J0
G1 X20.473 Y-13.255
G2 X22.718 Y-12.325 I2.245 J-2.245
G1 X30.218
G2 X34.393 Y-16.5 I0 J-4.175
G1 Y-28.5
G3 X38.218 Y-32.325 I3.825 J0
G1 X61.062
G2 X80.957 Y-52.22 I0 J-19.895
G1 Y-128.78
G2 X61.062 Y-148.675 I-19.895 J0
G1 X38.218
G3 X34.393 Y-152.5 I0 J-3.825
G1 Y-164.5
G2 X30.952 Y-168.61 I-4.175 J0
G3 X30.438 Y-169.347 I0.112 J-0.625
G1 X30.55 Y-169.972
X30.567 Y-170.07 Z-1.992
X30.584 Y-170.165 Z-1.969
X30.6 Y-170.256 Z-1.931
X30.615 Y-170.339 Z-1.879
X30.628 Y-170.414 Z-1.814
X30.64 Y-170.478 Z-1.738
X30.649 Y-170.529 Z-1.653
X30.656 Y-170.566 Z-1.561
X30.66 Y-170.589 Z-1.464
X30.661 Y-170.597 Z-1.365
G0 Z5
X31.911 Y-170.374
G1 Z0 F1000
Z-2.365
X31.91 Y-170.366 Z-2.464 F700
X31.906 Y-170.343 Z-2.561
X31.899 Y-170.306 Z-2.653
X31.89 Y-170.254 Z-2.738
X31.879 Y-170.191 Z-2.814
X31.865 Y-170.116 Z-2.879
X31.85 Y-170.033 Z-2.931
X31.834 Y-169.942 Z-2.969
X31.817 Y-169.847 Z-2.992
X31.8 Y-169.749 Z-3
X31.688 Y-169.124
G3 X30.952 Y-168.61 I-0.625 J-0.112
G2 X30.218 Y-168.675 I-0.733 J4.11
G1 X22.718
G2 X20.473 Y-167.745 I0 J3.175
G1 X19.973 Y-167.245
G2 X19.043 Y-165 I2.245 J2.245
G1 Y-135.893
G2 X23.05 Y-131.722 I4.175 J0
G3 X23.05 Y-49.278 I-1.661 J41.222
G2 X19.043 Y-45.107 I0.168 J4.172
G1 Y-16
G2 X19.973 Y-13.755 I3.175 J0
G1 X20.473 Y-13.255
G2 X22.718 Y-12.325 I2.245 J-2.245
G1 X30.218
G2 X34.393 Y-16.5 I0 J-4.175
G1 Y-28.5
G3 X38.218 Y-32.325 I3.825 J0
G1 X61.062
G2 X80.957 Y-52.22 I0 J-19.895
G1 Y-128.78
G2 X61.062 Y-148.675 I-19.895 J0
G1 X38.218
G3 X34.393 Y-152.5 I0 J-3.825
G1 Y-164.5
G2 X30.952 Y-168.61 I-4.175 J0
G3 X30.438 Y-169.347 I0.112 J-0.625
G1 X30.55 Y-169.972
X30.567 Y-170.07 Z-2.992
X30.584 Y-170.165 Z-2.969
X30.6 Y-170.256 Z-2.931
X30.615 Y-170.339 Z-2.879
X30.628 Y-170.414 Z-2.814
X30.64 Y-170.478 Z-2.738
X30.649 Y-170.529 Z-2.653
X30.656 Y-170.566 Z-2.561
X30.66 Y-170.589 Z-2.464
X30.661 Y-170.597 Z-2.365
G0 Z5
X31.911 Y-170.374
G1 Z-1 F1000
Z-3.365
X31.91 Y-170.366 Z-3.464 F700
X31.906 Y-170.343 Z-3.561
X31.899 Y-170.306 Z-3.653
X31.89 Y-170.254 Z-3.738
X31.879 Y-170.191 Z-3.814
X31.865 Y-170.116 Z-3.879
X31.85 Y-170.033 Z-3.931
X31.834 Y-169.942 Z-3.969
X31.817 Y-169.847 Z-3.992
X31.8 Y-169.749 Z-4
X31.688 Y-169.124
G3 X30.952 Y-168.61 I-0.625 J-0.112
G2 X30.218 Y-168.675 I-0.733 J4.11
G1 X22.718
G2 X20.473 Y-167.745 I0 J3.175
G1 X19.973 Y-167.245
G2 X19.043 Y-165 I2.245 J2.245
G1 Y-135.893
G2 X23.05 Y-131.722 I4.175 J0
G3 X23.05 Y-49.278 I-1.661 J41.222
G2 X19.043 Y-45.107 I0.168 J4.172
G1 Y-16
G2 X19.973 Y-13.755 I3.175 J0
G1 X20.473 Y-13.255
G2 X22.718 Y-12.325 I2.245 J-2.245
G1 X30.218
G2 X34.393 Y-16.5 I0 J-4.175
G1 Y-28.5
G3 X38.218 Y-32.325 I3.825 J0
G1 X61.062
G2 X80.957 Y-52.22 I0 J-19.895
G1 Y-128.78
G2 X61.062 Y-148.675 I-19.895 J0
G1 X38.218
G3 X34.393 Y-152.5 I0 J-3.825
G1 Y-164.5
G2 X30.952 Y-168.61 I-4.175 J0
G3 X30.438 Y-169.347 I0.112 J-0.625
G1 X30.55 Y-169.972
X30.567 Y-170.07 Z-3.992
X30.584 Y-170.165 Z-3.969
X30.6 Y-170.256 Z-3.931
X30.615 Y-170.339 Z-3.879
X30.628 Y-170.414 Z-3.814
X30.64 Y-170.478 Z-3.738
X30.649 Y-170.529 Z-3.653
X30.656 Y-170.566 Z-3.561
X30.66 Y-170.589 Z-3.464
X30.661 Y-170.597 Z-3.365
G0 Z5
X31.911 Y-170.374
G1 Z-2 F1000
Z-4.365
X31.91 Y-170.366 Z-4.464 F700
X31.906 Y-170.343 Z-4.561
X31.899 Y-170.306 Z-4.653
X31.89 Y-170.254 Z-4.738
X31.879 Y-170.191 Z-4.814
X31.865 Y-170.116 Z-4.879
X31.85 Y-170.033 Z-4.931
X31.834 Y-169.942 Z-4.969
X31.817 Y-169.847 Z-4.992
X31.8 Y-169.749 Z-5
X31.688 Y-169.124
G3 X30.952 Y-168.61 I-0.625 J-0.112
G2 X30.218 Y-168.675 I-0.733 J4.11
G1 X22.718
G2 X20.473 Y-167.745 I0 J3.175
G1 X19.973 Y-167.245
G2 X19.043 Y-165 I2.245 J2.245
G1 Y-135.893
G2 X23.05 Y-131.722 I4.175 J0
G3 X23.05 Y-49.278 I-1.661 J41.222
G2 X19.043 Y-45.107 I0.168 J4.172
G1 Y-16
G2 X19.973 Y-13.755 I3.175 J0
G1 X20.473 Y-13.255
G2 X22.718 Y-12.325 I2.245 J-2.245
G1 X30.218
G2 X34.393 Y-16.5 I0 J-4.175
G1 Y-28.5
G3 X38.218 Y-32.325 I3.825 J0
G1 X61.062
G2 X80.957 Y-52.22 I0 J-19.895
G1 Y-128.78
G2 X61.062 Y-148.675 I-19.895 J0
G1 X38.218
G3 X34.393 Y-152.5 I0 J-3.825
G1 Y-164.5
G2 X30.952 Y-168.61 I-4.175 J0
G3 X30.438 Y-169.347 I0.112 J-0.625
G1 X30.55 Y-169.972
X30.567 Y-170.07 Z-4.992
X30.584 Y-170.165 Z-4.969
X30.6 Y-170.256 Z-4.931
X30.615 Y-170.339 Z-4.879
X30.628 Y-170.414 Z-4.814
X30.64 Y-170.478 Z-4.738
X30.649 Y-170.529 Z-4.653
X30.656 Y-170.566 Z-4.561
X30.66 Y-170.589 Z-4.464
X30.661 Y-170.597 Z-4.365
G0 Z5
X31.911 Y-170.374
G1 Z-3 F1000
Z-5.365
X31.91 Y-170.366 Z-5.464 F700
X31.906 Y-170.343 Z-5.561
X31.899 Y-170.306 Z-5.653
X31.89 Y-170.254 Z-5.738
X31.879 Y-170.191 Z-5.814
X31.865 Y-170.116 Z-5.879
X31.85 Y-170.033 Z-5.931
X31.834 Y-169.942 Z-5.969
X31.817 Y-169.847 Z-5.992
X31.8 Y-169.749 Z-6
X31.688 Y-169.124
G3 X30.952 Y-168.61 I-0.625 J-0.112
G2 X30.218 Y-168.675 I-0.733 J4.11
G1 X22.718
G2 X20.473 Y-167.745 I0 J3.175
G1 X19.973 Y-167.245
G2 X19.043 Y-165 I2.245 J2.245
G1 Y-135.893
G2 X23.05 Y-131.722 I4.175 J0
G3 X23.05 Y-49.278 I-1.661 J41.222
G2 X19.043 Y-45.107 I0.168 J4.172
G1 Y-16
G2 X19.973 Y-13.755 I3.175 J0
G1 X20.473 Y-13.255
G2 X22.718 Y-12.325 I2.245 J-2.245
G1 X30.218
G2 X34.393 Y-16.5 I0 J-4.175
G1 Y-28.5
G3 X38.218 Y-32.325 I3.825 J0
G1 X61.062
G2 X80.957 Y-52.22 I0 J-19.895
G1 Y-128.78
G2 X61.062 Y-148.675 I-19.895 J0
G1 X38.218
G3 X34.393 Y-152.5 I0 J-3.825
G1 Y-164.5
G2 X30.952 Y-168.61 I-4.175 J0
G3 X30.438 Y-169.347 I0.112 J-0.625
G1 X30.55 Y-169.972
X30.567 Y-170.07 Z-5.992
X30.584 Y-170.165 Z-5.969
X30.6 Y-170.256 Z-5.931
X30.615 Y-170.339 Z-5.879
X30.628 Y-170.414 Z-5.814
X30.64 Y-170.478 Z-5.738
X30.649 Y-170.529 Z-5.653
X30.656 Y-170.566 Z-5.561
X30.66 Y-170.589 Z-5.464
X30.661 Y-170.597 Z-5.365
G0 Z5
X31.911 Y-170.374
G1 Z-4 F1000
Z-6.365
X31.91 Y-170.366 Z-6.464 F700
X31.906 Y-170.343 Z-6.561
X31.899 Y-170.306 Z-6.653
X31.89 Y-170.254 Z-6.738
X31.879 Y-170.191 Z-6.814
X31.865 Y-170.116 Z-6.879
X31.85 Y-170.033 Z-6.931
X31.834 Y-169.942 Z-6.969
X31.817 Y-169.847 Z-6.992
X31.8 Y-169.749 Z-7
X31.688 Y-169.124
G3 X30.952 Y-168.61 I-0.625 J-0.112
G2 X30.218 Y-168.675 I-0.733 J4.11
G1 X22.718
G2 X20.473 Y-167.745 I0 J3.175
G1 X19.973 Y-167.245
G2 X19.043 Y-165 I2.245 J2.245
G1 Y-135.893
G2 X23.05 Y-131.722 I4.175 J0
G3 X23.05 Y-49.278 I-1.661 J41.222
G2 X19.043 Y-45.107 I0.168 J4.172
G1 Y-16
G2 X19.973 Y-13.755 I3.175 J0
G1 X20.473 Y-13.255
G2 X22.718 Y-12.325 I2.245 J-2.245
G1 X30.218
G2 X34.393 Y-16.5 I0 J-4.175
G1 Y-28.5
G3 X38.218 Y-32.325 I3.825 J0
G1 X61.062
G2 X80.957 Y-52.22 I0 J-19.895
G1 Y-128.78
G2 X61.062 Y-148.675 I-19.895 J0
G1 X38.218
G3 X34.393 Y-152.5 I0 J-3.825
G1 Y-164.5
G2 X30.952 Y-168.61 I-4.175 J0
G3 X30.438 Y-169.347 I0.112 J-0.625
G1 X30.55 Y-169.972
X30.567 Y-170.07 Z-6.992
X30.584 Y-170.165 Z-6.969
X30.6 Y-170.256 Z-6.931
X30.615 Y-170.339 Z-6.879
X30.628 Y-170.414 Z-6.814
X30.64 Y-170.478 Z-6.738
X30.649 Y-170.529 Z-6.653
X30.656 Y-170.566 Z-6.561
X30.66 Y-170.589 Z-6.464
X30.661 Y-170.597 Z-6.365
G0 Z5
X31.911 Y-170.374
G1 Z-5 F1000
Z-7.365
X31.91 Y-170.366 Z-7.464 F700
X31.906 Y-170.343 Z-7.561
X31.899 Y-170.306 Z-7.653
X31.89 Y-170.254 Z-7.738
X31.879 Y-170.191 Z-7.814
X31.865 Y-170.116 Z-7.879
X31.85 Y-170.033 Z-7.931
X31.834 Y-169.942 Z-7.969
X31.817 Y-169.847 Z-7.992
X31.8 Y-169.749 Z-8
X31.688 Y-169.124
G3 X30.952 Y-168.61 I-0.625 J-0.112
G2 X30.218 Y-168.675 I-0.733 J4.11
G1 X22.718
G2 X20.473 Y-167.745 I0 J3.175
G1 X19.973 Y-167.245
G2 X19.043 Y-165 I2.245 J2.245
G1 Y-135.893
G2 X23.05 Y-131.722 I4.175 J0
G3 X23.05 Y-49.278 I-1.661 J41.222
G2 X19.043 Y-45.107 I0.168 J4.172
G1 Y-16
G2 X19.973 Y-13.755 I3.175 J0
G1 X20.473 Y-13.255
G2 X22.718 Y-12.325 I2.245 J-2.245
G1 X30.218
G2 X34.393 Y-16.5 I0 J-4.175
G1 Y-28.5
G3 X38.218 Y-32.325 I3.825 J0
G1 X61.062
G2 X80.957 Y-52.22 I0 J-19.895
G1 Y-128.78
G2 X61.062 Y-148.675 I-19.895 J0
G1 X38.218
G3 X34.393 Y-152.5 I0 J-3.825
G1 Y-164.5
G2 X30.952 Y-168.61 I-4.175 J0
G3 X30.438 Y-169.347 I0.112 J-0.625
G1 X30.55 Y-169.972
X30.567 Y-170.07 Z-7.992
X30.584 Y-170.165 Z-7.969
X30.6 Y-170.256 Z-7.931
X30.615 Y-170.339 Z-7.879
X30.628 Y-170.414 Z-7.814
X30.64 Y-170.478 Z-7.738
X30.649 Y-170.529 Z-7.653
X30.656 Y-170.566 Z-7.561
X30.66 Y-170.589 Z-7.464
X30.661 Y-170.597 Z-7.365
G0 Z5
X31.911 Y-170.374
G1 Z-6 F1000
Z-8.365
X31.91 Y-170.366 Z-8.464 F700
X31.906 Y-170.343 Z-8.561
X31.899 Y-170.306 Z-8.653
X31.89 Y-170.254 Z-8.738
X31.879 Y-170.191 Z-8.814
X31.865 Y-170.116 Z-8.879
X31.85 Y-170.033 Z-8.931
X31.834 Y-169.942 Z-8.969
X31.817 Y-169.847 Z-8.992
X31.8 Y-169.749 Z-9
X31.688 Y-169.124
G3 X30.952 Y-168.61 I-0.625 J-0.112
G2 X30.218 Y-168.675 I-0.733 J4.11
G1 X22.718
G2 X20.473 Y-167.745 I0 J3.175
G1 X19.973 Y-167.245
G2 X19.043 Y-165 I2.245 J2.245
G1 Y-135.893
G2 X23.05 Y-131.722 I4.175 J0
G3 X23.05 Y-49.278 I-1.661 J41.222
G2 X19.043 Y-45.107 I0.168 J4.172
G1 Y-16
G2 X19.973 Y-13.755 I3.175 J0
G1 X20.473 Y-13.255
G2 X22.718 Y-12.325 I2.245 J-2.245
G1 X30.218
G2 X34.393 Y-16.5 I0 J-4.175
G1 Y-28.5
G3 X38.218 Y-32.325 I3.825 J0
G1 X61.062
G2 X80.957 Y-52.22 I0 J-19.895
G1 Y-128.78
G2 X61.062 Y-148.675 I-19.895 J0
G1 X38.218
G3 X34.393 Y-152.5 I0 J-3.825
G1 Y-164.5
G2 X30.952 Y-168.61 I-4.175 J0
G3 X30.438 Y-169.347 I0.112 J-0.625
G1 X30.55 Y-169.972
X30.567 Y-170.07 Z-8.992
X30.584 Y-170.165 Z-8.969
X30.6 Y-170.256 Z-8.931
X30.615 Y-170.339 Z-8.879
X30.628 Y-170.414 Z-8.814
X30.64 Y-170.478 Z-8.738
X30.649 Y-170.529 Z-8.653
X30.656 Y-170.566 Z-8.561
X30.66 Y-170.589 Z-8.464
X30.661 Y-170.597 Z-8.365
G0 Z5
X31.911 Y-170.374
G1 Z-7 F1000
Z-9.365
X31.91 Y-170.366 Z-9.464 F700
X31.906 Y-170.343 Z-9.561
X31.899 Y-170.306 Z-9.653
X31.89 Y-170.254 Z-9.738
X31.879 Y-170.191 Z-9.814
X31.865 Y-170.116 Z-9.879
X31.85 Y-170.033 Z-9.931
X31.834 Y-169.942 Z-9.969
X31.817 Y-169.847 Z-9.992
X31.8 Y-169.749 Z-10
X31.688 Y-169.124
G3 X30.952 Y-168.61 I-0.625 J-0.112
G2 X30.218 Y-168.675 I-0.733 J4.11
G1 X22.718
G2 X20.473 Y-167.745 I0 J3.175
G1 X19.973 Y-167.245
G2 X19.043 Y-165 I2.245 J2.245
G1 Y-135.893
G2 X23.05 Y-131.722 I4.175 J0
G3 X23.05 Y-49.278 I-1.661 J41.222
G2 X19.043 Y-45.107 I0.168 J4.172
G1 Y-16
G2 X19.973 Y-13.755 I3.175 J0
G1 X20.473 Y-13.255
G2 X22.718 Y-12.325 I2.245 J-2.245
G1 X30.218
G2 X34.393 Y-16.5 I0 J-4.175
G1 Y-28.5
G3 X38.218 Y-32.325 I3.825 J0
G1 X61.062
G2 X80.957 Y-52.22 I0 J-19.895
G1 Y-128.78
G2 X61.062 Y-148.675 I-19.895 J0
G1 X38.218
G3 X34.393 Y-152.5 I0 J-3.825
G1 Y-164.5
G2 X30.952 Y-168.61 I-4.175 J0
G3 X30.438 Y-169.347 I0.112 J-0.625
G1 X30.55 Y-169.972
X30.567 Y-170.07 Z-9.992
X30.584 Y-170.165 Z-9.969
X30.6 Y-170.256 Z-9.931
X30.615 Y-170.339 Z-9.879
X30.628 Y-170.414 Z-9.814
X30.64 Y-170.478 Z-9.738
X30.649 Y-170.529 Z-9.653
X30.656 Y-170.566 Z-9.561
X30.66 Y-170.589 Z-9.464
X30.661 Y-170.597 Z-9.365
G0 Z5
X31.911 Y-170.374
G1 Z-8 F1000
Z-10.365
X31.91 Y-170.366 Z-10.464 F700
X31.906 Y-170.343 Z-10.561
X31.899 Y-170.306 Z-10.653
X31.89 Y-170.254 Z-10.738
X31.879 Y-170.191 Z-10.814
X31.865 Y-170.116 Z-10.879
X31.85 Y-170.033 Z-10.931
X31.834 Y-169.942 Z-10.969
X31.817 Y-169.847 Z-10.992
X31.8 Y-169.749 Z-11
X31.688 Y-169.124
G3 X30.952 Y-168.61 I-0.625 J-0.112
G2 X30.218 Y-168.675 I-0.733 J4.11
G1 X22.718
G2 X20.473 Y-167.745 I0 J3.175
G1 X19.973 Y-167.245
G2 X19.043 Y-165 I2.245 J2.245
G1 Y-135.893
G2 X23.05 Y-131.722 I4.175 J0
G3 X23.05 Y-49.278 I-1.661 J41.222
G2 X19.043 Y-45.107 I0.168 J4.172
G1 Y-16
G2 X19.973 Y-13.755 I3.175 J0
G1 X20.473 Y-13.255
G2 X22.718 Y-12.325 I2.245 J-2.245
G1 X30.218
G2 X34.393 Y-16.5 I0 J-4.175
G1 Y-28.5
G3 X38.218 Y-32.325 I3.825 J0
G1 X61.062
G2 X80.957 Y-52.22 I0 J-19.895
G1 Y-128.78
G2 X61.062 Y-148.675 I-19.895 J0
G1 X38.218
G3 X34.393 Y-152.5 I0 J-3.825
G1 Y-164.5
G2 X30.952 Y-168.61 I-4.175 J0
G3 X30.438 Y-169.347 I0.112 J-0.625
G1 X30.55 Y-169.972
X30.567 Y-170.07 Z-10.992
X30.584 Y-170.165 Z-10.969
X30.6 Y-170.256 Z-10.931
X30.615 Y-170.339 Z-10.879
X30.628 Y-170.414 Z-10.814
X30.64 Y-170.478 Z-10.738
X30.649 Y-170.529 Z-10.653
X30.656 Y-170.566 Z-10.561
X30.66 Y-170.589 Z-10.464
X30.661 Y-170.597 Z-10.365
G0 Z5
X31.911 Y-170.374
G1 Z-9 F1000
Z-11.365
X31.91 Y-170.366 Z-11.464 F700
X31.906 Y-170.343 Z-11.561
X31.899 Y-170.306 Z-11.653
X31.89 Y-170.254 Z-11.738
X31.879 Y-170.191 Z-11.814
X31.865 Y-170.116 Z-11.879
X31.85 Y-170.033 Z-11.931
X31.834 Y-169.942 Z-11.969
X31.817 Y-169.847 Z-11.992
X31.8 Y-169.749 Z-12
X31.688 Y-169.124
G3 X30.952 Y-168.61 I-0.625 J-0.112
G2 X30.218 Y-168.675 I-0.733 J4.11
G1 X22.718
G2 X20.473 Y-167.745 I0 J3.175
G1 X19.973 Y-167.245
G2 X19.043 Y-165 I2.245 J2.245
G1 Y-135.893
G2 X23.05 Y-131.722 I4.175 J0
G3 X23.05 Y-49.278 I-1.661 J41.222
G2 X19.043 Y-45.107 I0.168 J4.172
G1 Y-16
G2 X19.973 Y-13.755 I3.175 J0
G1 X20.473 Y-13.255
G2 X22.718 Y-12.325 I2.245 J-2.245
G1 X30.218
G2 X34.393 Y-16.5 I0 J-4.175
G1 Y-28.5
G3 X38.218 Y-32.325 I3.825 J0
G1 X61.062
G2 X80.957 Y-52.22 I0 J-19.895
G1 Y-128.78
G2 X61.062 Y-148.675 I-19.895 J0
G1 X38.218
G3 X34.393 Y-152.5 I0 J-3.825
G1 Y-164.5
G2 X30.952 Y-168.61 I-4.175 J0
G3 X30.438 Y-169.347 I0.112 J-0.625
G1 X30.55 Y-169.972
X30.567 Y-170.07 Z-11.992
X30.584 Y-170.165 Z-11.969
X30.6 Y-170.256 Z-11.931
X30.615 Y-170.339 Z-11.879
X30.628 Y-170.414 Z-11.814
X30.64 Y-170.478 Z-11.738
X30.649 Y-170.529 Z-11.653
X30.656 Y-170.566 Z-11.561
X30.66 Y-170.589 Z-11.464
X30.661 Y-170.597 Z-11.365
G0 Z5
X31.911 Y-170.374
G1 Z-10 F1000
Z-12.365
X31.91 Y-170.366 Z-12.464 F700
X31.906 Y-170.343 Z-12.561
X31.899 Y-170.306 Z-12.653
X31.89 Y-170.254 Z-12.738
X31.879 Y-170.191 Z-12.814
X31.865 Y-170.116 Z-12.879
X31.85 Y-170.033 Z-12.931
X31.834 Y-169.942 Z-12.969
X31.817 Y-169.847 Z-12.992
X31.8 Y-169.749 Z-13
X31.688 Y-169.124
G3 X30.952 Y-168.61 I-0.625 J-0.112
G2 X30.218 Y-168.675 I-0.733 J4.11
G1 X22.718
G2 X20.473 Y-167.745 I0 J3.175
G1 X19.973 Y-167.245
G2 X19.043 Y-165 I2.245 J2.245
G1 Y-135.893
G2 X23.05 Y-131.722 I4.175 J0
G3 X23.05 Y-49.278 I-1.661 J41.222
G2 X19.043 Y-45.107 I0.168 J4.172
G1 Y-16
G2 X19.973 Y-13.755 I3.175 J0
G1 X20.473 Y-13.255
G2 X22.718 Y-12.325 I2.245 J-2.245
G1 X30.218
G2 X34.393 Y-16.5 I0 J-4.175
G1 Y-28.5
G3 X38.218 Y-32.325 I3.825 J0
G1 X61.062
G2 X80.957 Y-52.22 I0 J-19.895
G1 Y-128.78
G2 X61.062 Y-148.675 I-19.895 J0
G1 X38.218
G3 X34.393 Y-152.5 I0 J-3.825
G1 Y-164.5
G2 X30.952 Y-168.61 I-4.175 J0
G3 X30.438 Y-169.347 I0.112 J-0.625
G1 X30.55 Y-169.972
X30.567 Y-170.07 Z-12.992
X30.584 Y-170.165 Z-12.969
X30.6 Y-170.256 Z-12.931
X30.615 Y-170.339 Z-12.879
X30.628 Y-170.414 Z-12.814
X30.64 Y-170.478 Z-12.738
X30.649 Y-170.529 Z-12.653
X30.656 Y-170.566 Z-12.561
X30.66 Y-170.589 Z-12.464
X30.661 Y-170.597 Z-12.365
G0 Z5
X31.911 Y-170.374
G1 Z-11 F1000
Z-13.365
X31.91 Y-170.366 Z-13.464 F700
X31.906 Y-170.343 Z-13.561
X31.899 Y-170.306 Z-13.653
X31.89 Y-170.254 Z-13.738
X31.879 Y-170.191 Z-13.814
X31.865 Y-170.116 Z-13.879
X31.85 Y-170.033 Z-13.931
X31.834 Y-169.942 Z-13.969
X31.817 Y-169.847 Z-13.992
X31.8 Y-169.749 Z-14
X31.688 Y-169.124
G3 X30.952 Y-168.61 I-0.625 J-0.112
G2 X30.218 Y-168.675 I-0.733 J4.11
G1 X22.718
G2 X20.473 Y-167.745 I0 J3.175
G1 X19.973 Y-167.245
G2 X19.043 Y-165 I2.245 J2.245
G1 Y-135.893
G2 X23.05 Y-131.722 I4.175 J0
G3 X23.05 Y-49.278 I-1.661 J41.222
G2 X19.043 Y-45.107 I0.168 J4.172
G1 Y-16
G2 X19.973 Y-13.755 I3.175 J0
G1 X20.473 Y-13.255
G2 X22.718 Y-12.325 I2.245 J-2.245
G1 X30.218
G2 X34.393 Y-16.5 I0 J-4.175
G1 Y-28.5
G3 X38.218 Y-32.325 I3.825 J0
G1 X61.062
G2 X80.957 Y-52.22 I0 J-19.895
G1 Y-128.78
G2 X61.062 Y-148.675 I-19.895 J0
G1 X38.218
G3 X34.393 Y-152.5 I0 J-3.825
G1 Y-164.5
G2 X30.952 Y-168.61 I-4.175 J0
G3 X30.438 Y-169.347 I0.112 J-0.625
G1 X30.55 Y-169.972
X30.567 Y-170.07 Z-13.992
X30.584 Y-170.165 Z-13.969
X30.6 Y-170.256 Z-13.931
X30.615 Y-170.339 Z-13.879
X30.628 Y-170.414 Z-13.814
X30.64 Y-170.478 Z-13.738
X30.649 Y-170.529 Z-13.653
X30.656 Y-170.566 Z-13.561
X30.66 Y-170.589 Z-13.464
X30.661 Y-170.597 Z-13.365
G0 Z5
X31.911 Y-170.374
G1 Z-12 F1000
Z-14.365
X31.91 Y-170.366 Z-14.464 F700
X31.906 Y-170.343 Z-14.561
X31.899 Y-170.306 Z-14.653
X31.89 Y-170.254 Z-14.738
X31.879 Y-170.191 Z-14.814
X31.865 Y-170.116 Z-14.879
X31.85 Y-170.033 Z-14.931
X31.834 Y-169.942 Z-14.969
X31.817 Y-169.847 Z-14.992
X31.8 Y-169.749 Z-15
X31.688 Y-169.124
G3 X30.952 Y-168.61 I-0.625 J-0.112
G2 X30.218 Y-168.675 I-0.733 J4.11
G1 X22.718
G2 X20.473 Y-167.745 I0 J3.175
G1 X19.973 Y-167.245
G2 X19.043 Y-165 I2.245 J2.245
G1 Y-135.893
G2 X23.05 Y-131.722 I4.175 J0
G3 X23.05 Y-49.278 I-1.661 J41.222
G2 X19.043 Y-45.107 I0.168 J4.172
G1 Y-16
G2 X19.973 Y-13.755 I3.175 J0
G1 X20.473 Y-13.255
G2 X22.718 Y-12.325 I2.245 J-2.245
G1 X30.218
G2 X34.393 Y-16.5 I0 J-4.175
G1 Y-28.5
G3 X38.218 Y-32.325 I3.825 J0
G1 X61.062
G2 X80.957 Y-52.22 I0 J-19.895
G1 Y-128.78
G2 X61.062 Y-148.675 I-19.895 J0
G1 X38.218
G3 X34.393 Y-152.5 I0 J-3.825
G1 Y-164.5
G2 X30.952 Y-168.61 I-4.175 J0
G3 X30.438 Y-169.347 I0.112 J-0.625
G1 X30.55 Y-169.972
X30.567 Y-170.07 Z-14.992
X30.584 Y-170.165 Z-14.969
X30.6 Y-170.256 Z-14.931
X30.615 Y-170.339 Z-14.879
X30.628 Y-170.414 Z-14.814
X30.64 Y-170.478 Z-14.738
X30.649 Y-170.529 Z-14.653
X30.656 Y-170.566 Z-14.561
X30.66 Y-170.589 Z-14.464
X30.661 Y-170.597 Z-14.365
G0 Z5
X31.911 Y-170.374
G1 Z-13 F1000
Z-15.365
X31.91 Y-170.366 Z-15.464 F700
X31.906 Y-170.343 Z-15.561
X31.899 Y-170.306 Z-15.653
X31.89 Y-170.254 Z-15.738
X31.879 Y-170.191 Z-15.814
X31.865 Y-170.116 Z-15.879
X31.85 Y-170.033 Z-15.931
X31.834 Y-169.942 Z-15.969
X31.817 Y-169.847 Z-15.992
X31.8 Y-169.749 Z-16
X31.688 Y-169.124
G3 X30.952 Y-168.61 I-0.625 J-0.112
G2 X30.218 Y-168.675 I-0.733 J4.11
G1 X22.718
G2 X20.473 Y-167.745 I0 J3.175
G1 X19.973 Y-167.245
G2 X19.043 Y-165 I2.245 J2.245
G1 Y-135.893
G2 X23.05 Y-131.722 I4.175 J0
G3 X23.05 Y-49.278 I-1.661 J41.222
G2 X19.043 Y-45.107 I0.168 J4.172
G1 Y-16
G2 X19.973 Y-13.755 I3.175 J0
G1 X20.473 Y-13.255
G2 X22.718 Y-12.325 I2.245 J-2.245
G1 X30.218
G2 X34.393 Y-16.5 I0 J-4.175
G1 Y-28.5
G3 X38.218 Y-32.325 I3.825 J0
G1 X61.062
G2 X80.957 Y-52.22 I0 J-19.895
G1 Y-128.78
G2 X61.062 Y-148.675 I-19.895 J0
G1 X38.218
G3 X34.393 Y-152.5 I0 J-3.825
G1 Y-164.5
G2 X30.952 Y-168.61 I-4.175 J0
G3 X30.438 Y-169.347 I0.112 J-0.625
G1 X30.55 Y-169.972
X30.567 Y-170.07 Z-15.992
X30.584 Y-170.165 Z-15.969
X30.6 Y-170.256 Z-15.931
X30.615 Y-170.339 Z-15.879
X30.628 Y-170.414 Z-15.814
X30.64 Y-170.478 Z-15.738
X30.649 Y-170.529 Z-15.653
X30.656 Y-170.566 Z-15.561
X30.66 Y-170.589 Z-15.464
X30.661 Y-170.597 Z-15.365
G0 Z5
X31.911 Y-170.374
G1 Z-14 F1000
Z-16.365
X31.91 Y-170.366 Z-16.464 F700
X31.906 Y-170.343 Z-16.561
X31.899 Y-170.306 Z-16.653
X31.89 Y-170.254 Z-16.738
X31.879 Y-170.191 Z-16.814
X31.865 Y-170.116 Z-16.879
X31.85 Y-170.033 Z-16.931
X31.834 Y-169.942 Z-16.969
X31.817 Y-169.847 Z-16.992
X31.8 Y-169.749 Z-17
X31.688 Y-169.124
G3 X30.952 Y-168.61 I-0.625 J-0.112
G2 X30.218 Y-168.675 I-0.733 J4.11
G1 X22.718
G2 X20.473 Y-167.745 I0 J3.175
G1 X19.973 Y-167.245
G2 X19.043 Y-165 I2.245 J2.245
G1 Y-135.893
G2 X23.05 Y-131.722 I4.175 J0
G3 X23.05 Y-49.278 I-1.661 J41.222
G2 X19.043 Y-45.107 I0.168 J4.172
G1 Y-16
G2 X19.973 Y-13.755 I3.175 J0
G1 X20.473 Y-13.255
G2 X22.718 Y-12.325 I2.245 J-2.245
G1 X30.218
G2 X34.393 Y-16.5 I0 J-4.175
G1 Y-28.5
G3 X38.218 Y-32.325 I3.825 J0
G1 X61.062
G2 X80.957 Y-52.22 I0 J-19.895
G1 Y-128.78
G2 X61.062 Y-148.675 I-19.895 J0
G1 X38.218
G3 X34.393 Y-152.5 I0 J-3.825
G1 Y-164.5
G2 X30.952 Y-168.61 I-4.175 J0
G3 X30.438 Y-169.347 I0.112 J-0.625
G1 X30.55 Y-169.972
X30.567 Y-170.07 Z-16.992
X30.584 Y-170.165 Z-16.969
X30.6 Y-170.256 Z-16.931
X30.615 Y-170.339 Z-16.879
X30.628 Y-170.414 Z-16.814
X30.64 Y-170.478 Z-16.738
X30.649 Y-170.529 Z-16.653
X30.656 Y-170.566 Z-16.561
X30.66 Y-170.589 Z-16.464
X30.661 Y-170.597 Z-16.365
G0 Z5
X31.911 Y-170.374
G1 Z-15 F1000
Z-17.365
X31.91 Y-170.366 Z-17.464 F700
X31.906 Y-170.343 Z-17.561
X31.899 Y-170.306 Z-17.653
X31.89 Y-170.254 Z-17.738
X31.879 Y-170.191 Z-17.814
X31.865 Y-170.116 Z-17.879
X31.85 Y-170.033 Z-17.931
X31.834 Y-169.942 Z-17.969
X31.817 Y-169.847 Z-17.992
X31.8 Y-169.749 Z-18
X31.688 Y-169.124
G3 X30.952 Y-168.61 I-0.625 J-0.112
G2 X30.218 Y-168.675 I-0.733 J4.11
G1 X22.718
G2 X20.473 Y-167.745 I0 J3.175
G1 X19.973 Y-167.245
G2 X19.043 Y-165 I2.245 J2.245
G1 Y-135.893
G2 X23.05 Y-131.722 I4.175 J0
G3 X23.05 Y-49.278 I-1.661 J41.222
G2 X19.043 Y-45.107 I0.168 J4.172
G1 Y-16
G2 X19.973 Y-13.755 I3.175 J0
G1 X20.473 Y-13.255
G2 X22.718 Y-12.325 I2.245 J-2.245
G1 X30.218
G2 X34.393 Y-16.5 I0 J-4.175
G1 Y-28.5
G3 X38.218 Y-32.325 I3.825 J0
G1 X61.062
G2 X80.957 Y-52.22 I0 J-19.895
G1 Y-128.78
G2 X61.062 Y-148.675 I-19.895 J0
G1 X38.218
G3 X34.393 Y-152.5 I0 J-3.825
G1 Y-164.5
G2 X30.952 Y-168.61 I-4.175 J0
G3 X30.438 Y-169.347 I0.112 J-0.625
G1 X30.55 Y-169.972
X30.567 Y-170.07 Z-17.992
X30.584 Y-170.165 Z-17.969
X30.6 Y-170.256 Z-17.931
X30.615 Y-170.339 Z-17.879
X30.628 Y-170.414 Z-17.814
X30.64 Y-170.478 Z-17.738
X30.649 Y-170.529 Z-17.653
X30.656 Y-170.566 Z-17.561
X30.66 Y-170.589 Z-17.464
X30.661 Y-170.597 Z-17.365
G0 Z5
X31.911 Y-170.374
G1 Z-16 F1000
Z-18.365
X31.91 Y-170.366 Z-18.464 F700
X31.906 Y-170.343 Z-18.561
X31.899 Y-170.306 Z-18.653
X31.89 Y-170.254 Z-18.738
X31.879 Y-170.191 Z-18.814
X31.865 Y-170.116 Z-18.879
X31.85 Y-170.033 Z-18.931
X31.834 Y-169.942 Z-18.969
X31.817 Y-169.847 Z-18.992
X31.8 Y-169.749 Z-19
X31.688 Y-169.124
G3 X30.952 Y-168.61 I-0.625 J-0.112
G2 X30.218 Y-168.675 I-0.733 J4.11
G1 X22.718
G2 X20.473 Y-167.745 I0 J3.175
G1 X19.973 Y-167.245
G2 X19.043 Y-165 I2.245 J2.245
G1 Y-135.893
G2 X23.05 Y-131.722 I4.175 J0
G3 X23.05 Y-49.278 I-1.661 J41.222
G2 X19.043 Y-45.107 I0.168 J4.172
G1 Y-16
G2 X19.973 Y-13.755 I3.175 J0
G1 X20.473 Y-13.255
G2 X22.718 Y-12.325 I2.245 J-2.245
G1 X30.218
G2 X34.393 Y-16.5 I0 J-4.175
G1 Y-28.5
G3 X38.218 Y-32.325 I3.825 J0
G1 X61.062
G2 X80.957 Y-52.22 I0 J-19.895
G1 Y-128.78
G2 X61.062 Y-148.675 I-19.895 J0
G1 X38.218
G3 X34.393 Y-152.5 I0 J-3.825
G1 Y-164.5
G2 X30.952 Y-168.61 I-4.175 J0
G3 X30.438 Y-169.347 I0.112 J-0.625
G1 X30.55 Y-169.972
X30.567 Y-170.07 Z-18.992
X30.584 Y-170.165 Z-18.969
X30.6 Y-170.256 Z-18.931
X30.615 Y-170.339 Z-18.879
X30.628 Y-170.414 Z-18.814
X30.64 Y-170.478 Z-18.738
X30.649 Y-170.529 Z-18.653
X30.656 Y-170.566 Z-18.561
X30.66 Y-170.589 Z-18.464
X30.661 Y-170.597 Z-18.365
G0 Z5
X31.911 Y-170.374
G1 Z-17 F1000
Z-19.365
X31.91 Y-170.366 Z-19.464 F700
X31.906 Y-170.343 Z-19.561
X31.899 Y-170.306 Z-19.653
X31.89 Y-170.254 Z-19.738
X31.879 Y-170.191 Z-19.814
X31.865 Y-170.116 Z-19.879
X31.85 Y-170.033 Z-19.931
X31.834 Y-169.942 Z-19.969
X31.817 Y-169.847 Z-19.992
X31.8 Y-169.749 Z-20
X31.688 Y-169.124
G3 X30.952 Y-168.61 I-0.625 J-0.112
G2 X30.218 Y-168.675 I-0.733 J4.11
G1 X22.718
G2 X20.473 Y-167.745 I0 J3.175
G1 X19.973 Y-167.245
G2 X19.043 Y-165 I2.245 J2.245
G1 Y-135.893
G2 X23.05 Y-131.722 I4.175 J0
G3 X23.05 Y-49.278 I-1.661 J41.222
G2 X19.043 Y-45.107 I0.168 J4.172
G1 Y-16
G2 X19.973 Y-13.755 I3.175 J0
G1 X20.473 Y-13.255
G2 X22.718 Y-12.325 I2.245 J-2.245
G1 X30.218
G2 X34.393 Y-16.5 I0 J-4.175
G1 Y-28.5
G3 X38.218 Y-32.325 I3.825 J0
G1 X61.062
G2 X80.957 Y-52.22 I0 J-19.895
G1 Y-128.78
G2 X61.062 Y-148.675 I-19.895 J0
G1 X38.218
G3 X34.393 Y-152.5 I0 J-3.825
G1 Y-164.5
G2 X30.952 Y-168.61 I-4.175 J0
G3 X30.438 Y-169.347 I0.112 J-0.625
G1 X30.55 Y-169.972
X30.567 Y-170.07 Z-19.992
X30.584 Y-170.165 Z-19.969
X30.6 Y-170.256 Z-19.931
X30.615 Y-170.339 Z-19.879
X30.628 Y-170.414 Z-19.814
X30.64 Y-170.478 Z-19.738
X30.649 Y-170.529 Z-19.653
X30.656 Y-170.566 Z-19.561
X30.66 Y-170.589 Z-19.464
X30.661 Y-170.597 Z-19.365
G0 Z5
X31.911 Y-170.374
G1 Z-18 F1000
Z-20.365
X31.91 Y-170.366 Z-20.464 F700
X31.906 Y-170.343 Z-20.561
X31.899 Y-170.306 Z-20.653
X31.89 Y-170.254 Z-20.738
X31.879 Y-170.191 Z-20.814
X31.865 Y-170.116 Z-20.879
X31.85 Y-170.033 Z-20.931
X31.834 Y-169.942 Z-20.969
X31.817 Y-169.847 Z-20.992
X31.8 Y-169.749 Z-21
X31.688 Y-169.124
G3 X30.952 Y-168.61 I-0.625 J-0.112
G2 X30.218 Y-168.675 I-0.733 J4.11
G1 X22.718
G2 X20.473 Y-167.745 I0 J3.175
G1 X19.973 Y-167.245
G2 X19.043 Y-165 I2.245 J2.245
G1 Y-135.893
G2 X23.05 Y-131.722 I4.175 J0
G3 X23.05 Y-49.278 I-1.661 J41.222
G2 X19.043 Y-45.107 I0.168 J4.172
G1 Y-16
G2 X19.973 Y-13.755 I3.175 J0
G1 X20.473 Y-13.255
G2 X22.718 Y-12.325 I2.245 J-2.245
G1 X30.218
G2 X34.393 Y-16.5 I0 J-4.175
G1 Y-28.5
G3 X38.218 Y-32.325 I3.825 J0
G1 X61.062
G2 X80.957 Y-52.22 I0 J-19.895
G1 Y-128.78
G2 X61.062 Y-148.675 I-19.895 J0
G1 X38.218
G3 X34.393 Y-152.5 I0 J-3.825
G1 Y-164.5
G2 X30.952 Y-168.61 I-4.175 J0
G3 X30.438 Y-169.347 I0.112 J-0.625
G1 X30.55 Y-169.972
X30.567 Y-170.07 Z-20.992
X30.584 Y-170.165 Z-20.969
X30.6 Y-170.256 Z-20.931
X30.615 Y-170.339 Z-20.879
X30.628 Y-170.414 Z-20.814
X30.64 Y-170.478 Z-20.738
X30.649 Y-170.529 Z-20.653
X30.656 Y-170.566 Z-20.561
X30.66 Y-170.589 Z-20.464
X30.661 Y-170.597 Z-20.365
G0 Z5
X31.911 Y-170.374
G1 Z-19 F1000
Z-21.365
X31.91 Y-170.366 Z-21.464 F700
X31.906 Y-170.343 Z-21.561
X31.899 Y-170.306 Z-21.653
X31.89 Y-170.254 Z-21.738
X31.879 Y-170.191 Z-21.814
X31.865 Y-170.116 Z-21.879
X31.85 Y-170.033 Z-21.931
X31.834 Y-169.942 Z-21.969
X31.817 Y-169.847 Z-21.992
X31.8 Y-169.749 Z-22
X31.688 Y-169.124
G3 X30.952 Y-168.61 I-0.625 J-0.112
G2 X30.218 Y-168.675 I-0.733 J4.11
G1 X22.718
G2 X20.473 Y-167.745 I0 J3.175
G1 X19.973 Y-167.245
G2 X19.043 Y-165 I2.245 J2.245
G1 Y-135.893
G2 X23.05 Y-131.722 I4.175 J0
G3 X23.05 Y-49.278 I-1.661 J41.222
G2 X19.043 Y-45.107 I0.168 J4.172
G1 Y-16
G2 X19.973 Y-13.755 I3.175 J0
G1 X20.473 Y-13.255
G2 X22.718 Y-12.325 I2.245 J-2.245
G1 X30.218
G2 X34.393 Y-16.5 I0 J-4.175
G1 Y-28.5
G3 X38.218 Y-32.325 I3.825 J0
G1 X61.062
G2 X80.957 Y-52.22 I0 J-19.895
G1 Y-128.78
G2 X61.062 Y-148.675 I-19.895 J0
G1 X38.218
G3 X34.393 Y-152.5 I0 J-3.825
G1 Y-164.5
G2 X30.952 Y-168.61 I-4.175 J0
G3 X30.438 Y-169.347 I0.112 J-0.625
G1 X30.55 Y-169.972
X30.567 Y-170.07 Z-21.992
X30.584 Y-170.165 Z-21.969
X30.6 Y-170.256 Z-21.931
X30.615 Y-170.339 Z-21.879
X30.628 Y-170.414 Z-21.814
X30.64 Y-170.478 Z-21.738
X30.649 Y-170.529 Z-21.653
X30.656 Y-170.566 Z-21.561
X30.66 Y-170.589 Z-21.464
X30.661 Y-170.597 Z-21.365
G0 Z5
X31.911 Y-170.374
G1 Z-20 F1000
Z-21.827
X31.91 Y-170.366 Z-21.927 F700
X31.906 Y-170.343 Z-22.024
X31.899 Y-170.306 Z-22.116
X31.89 Y-170.254 Z-22.201
X31.879 Y-170.191 Z-22.276
X31.865 Y-170.116 Z-22.341
X31.85 Y-170.033 Z-22.393
X31.834 Y-169.942 Z-22.431
X31.817 Y-169.847 Z-22.454
X31.8 Y-169.749 Z-22.462
X31.688 Y-169.124
G3 X30.952 Y-168.61 I-0.625 J-0.112
G2 X30.218 Y-168.675 I-0.733 J4.11
G1 X22.718
G2 X20.473 Y-167.745 I0 J3.175
G1 X19.973 Y-167.245
G2 X19.043 Y-165 I2.245 J2.245
G1 Y-135.893
G2 X23.05 Y-131.722 I4.175 J0
G3 X23.05 Y-49.278 I-1.661 J41.222
G2 X19.043 Y-45.107 I0.168 J4.172
G1 Y-16
G2 X19.973 Y-13.755 I3.175 J0
G1 X20.473 Y-13.255
G2 X22.718 Y-12.325 I2.245 J-2.245
G1 X30.218
G2 X34.393 Y-16.5 I0 J-4.175
G1 Y-28.5
G3 X38.218 Y-32.325 I3.825 J0
G1 X61.062
G2 X80.957 Y-52.22 I0 J-19.895
G1 Y-128.78
G2 X61.062 Y-148.675 I-19.895 J0
G1 X38.218
G3 X34.393 Y-152.5 I0 J-3.825
G1 Y-164.5
G2 X30.952 Y-168.61 I-4.175 J0
G3 X30.438 Y-169.347 I0.112 J-0.625
G1 X30.55 Y-169.972
X30.567 Y-170.07 Z-22.454
X30.584 Y-170.165 Z-22.431
X30.6 Y-170.256 Z-22.393
X30.615 Y-170.339 Z-22.341
X30.628 Y-170.414 Z-22.276
X30.64 Y-170.478 Z-22.201
X30.649 Y-170.529 Z-22.116
X30.656 Y-170.566 Z-22.024
X30.66 Y-170.589 Z-21.927
X30.661 Y-170.597 Z-21.827
G0 Z15.604
G28 G91 Z0
G90
G28 G91 X0 Y0
G90
M5
M30
