(backMount_cut_01)
(T1  D=6.35 CR=0 - ZMIN=-25.5 - flat end mill)
G90 G94
G17
G21
G28 G91 Z0
G90

(2D Contour3)
T1
S18000 M3
G54
M8
G0 X12.2 Y-169.541
Z15
Z5
G1 Z1 F2286
Z-24.865
X12.206 Y-169.536 Z-24.964 F1500
X12.222 Y-169.519 Z-25.061
X12.249 Y-169.492 Z-25.153
X12.286 Y-169.455 Z-25.238
X12.332 Y-169.41 Z-25.314
X12.385 Y-169.356 Z-25.379
X12.445 Y-169.296 Z-25.431
X12.51 Y-169.231 Z-25.469
X12.579 Y-169.162 Z-25.492
X12.649 Y-169.092 Z-25.5
X13.098 Y-168.643
G3 X13.098 Y-167.745 I-0.449 J0.449
G1 X12.598 Y-167.245
G2 X11.668 Y-165 I2.245 J2.245
G1 Y-135.893
G2 X15.675 Y-131.722 I4.175 J0
G3 X39.013 Y-123.318 I-1.661 J41.222
G1 Z-23.913
G3 X47.811 Y-114.158 I-25 J32.818
G1 Z-25.5 F2286
G3 X47.811 Y-66.842 I-33.797 J23.658 F1500
G1 Z-23.913
G3 X39.014 Y-57.683 I-33.798 J-23.658
G1 Z-25.5 F2286
G3 X15.675 Y-49.278 I-25 J-32.817 F1500
G2 X11.668 Y-45.107 I0.168 J4.172
G1 Y-16
G2 X12.598 Y-13.755 I3.175 J0
G1 X13.098 Y-13.255
G2 X15.343 Y-12.325 I2.245 J-2.245
G1 X22.843
G2 X27.018 Y-16.5 I0 J-4.175
G1 Y-28.5
G3 X30.843 Y-32.325 I3.825 J0
G1 X53.687
G2 X73.582 Y-52.22 I0 J-19.895
G1 Y-84.15
Z-23.913
Y-96.85
Z-25.5 F2286
Y-128.78 F1500
G2 X53.687 Y-148.675 I-19.895 J0
G1 X30.843
G3 X27.018 Y-152.5 I0 J-3.825
G1 Y-164.5
G2 X22.843 Y-168.675 I-4.175 J0
G1 X15.343
G2 X13.098 Y-167.745 I0 J3.175
G3 X12.2 Y-167.745 I-0.449 J-0.449
G1 X11.751 Y-168.194
X11.681 Y-168.264 Z-25.492
X11.612 Y-168.333 Z-25.469
X11.547 Y-168.398 Z-25.431
X11.487 Y-168.458 Z-25.379
X11.433 Y-168.512 Z-25.314
X11.388 Y-168.557 Z-25.238
X11.351 Y-168.594 Z-25.153
X11.324 Y-168.621 Z-25.061
X11.308 Y-168.638 Z-24.964
X11.302 Y-168.643 Z-24.865
G0 Z15
M9
G28 G91 Z0
G90
G28 G91 X0 Y0
G90
M5
M30
