(1001)
(T1  D=6.35 CR=0 - ZMIN=-25 - flat end mill)
G90 G94
G17
G21
G28 G91 Z0
G90

(2D Contour3)
T1
S18000 M3
G54
G0 X31.911 Y-170.374
Z15.604
Z5
G1 Z1 F1000
Z-24.365
X31.91 Y-170.366 Z-24.464 F500
X31.906 Y-170.343 Z-24.561
X31.899 Y-170.306 Z-24.653
X31.89 Y-170.254 Z-24.738
X31.879 Y-170.191 Z-24.814
X31.865 Y-170.116 Z-24.879
X31.85 Y-170.033 Z-24.931
X31.834 Y-169.942 Z-24.969
X31.817 Y-169.847 Z-24.992
X31.8 Y-169.749 Z-25
X31.688 Y-169.124
G3 X30.952 Y-168.61 I-0.625 J-0.112
G2 X30.218 Y-168.675 I-0.733 J4.11
G1 X22.718
G2 X20.473 Y-167.745 I0 J3.175
G1 X19.973 Y-167.245
G2 X19.043 Y-165 I2.245 J2.245
G1 Y-135.893
G2 X23.05 Y-131.722 I4.175 J0
G3 X23.05 Y-49.278 I-1.661 J41.222
G2 X19.043 Y-45.107 I0.168 J4.172
G1 Y-16
G2 X19.973 Y-13.755 I3.175 J0
G1 X20.473 Y-13.255
G2 X22.718 Y-12.325 I2.245 J-2.245
G1 X30.218
G2 X34.393 Y-16.5 I0 J-4.175
G1 Y-28.5
G3 X38.218 Y-32.325 I3.825 J0
G1 X61.062
G2 X80.957 Y-52.22 I0 J-19.895
G1 Y-128.78
G2 X61.062 Y-148.675 I-19.895 J0
G1 X38.218
G3 X34.393 Y-152.5 I0 J-3.825
G1 Y-164.5
G2 X30.952 Y-168.61 I-4.175 J0
G3 X30.438 Y-169.347 I0.112 J-0.625
G1 X30.55 Y-169.972
X30.567 Y-170.07 Z-24.992
X30.584 Y-170.165 Z-24.969
X30.6 Y-170.256 Z-24.931
X30.615 Y-170.339 Z-24.879
X30.628 Y-170.414 Z-24.814
X30.64 Y-170.478 Z-24.738
X30.649 Y-170.529 Z-24.653
X30.656 Y-170.566 Z-24.561
X30.66 Y-170.589 Z-24.464
X30.661 Y-170.597 Z-24.365
G0 Z15.604
G28 G91 Z0
G90
G28 G91 X0 Y0
G90
M5
M30
