(1001)
(T7  D=3.175 CR=0 - ZMIN=-6.16 - flat end mill)
G90 G94
G17
G21
G28 G91 Z0
G90

(2D Contour3)
T7
S5000 M3
G54
M8
G0 X20.853 Y-162.389
Z15
Z5
G1 Z1 F50
Z-5.842
X20.851 Y-162.381 Z-5.913 F150
X20.846 Y-162.358 Z-5.98
X20.838 Y-162.321 Z-6.04
X20.827 Y-162.272 Z-6.091
X20.814 Y-162.213 Z-6.128
X20.8 Y-162.148 Z-6.152
X20.785 Y-162.079 Z-6.16
X20.716 Y-161.769
G3 X20.338 Y-161.527 I-0.31 J-0.068
G2 X19.782 Y-161.587 I-0.556 J2.527
G1 X11.282
G2 X10.159 Y-161.123 I0 J1.587
G1 X9.659 Y-160.623
G2 X9.194 Y-159.5 I1.123 J1.123
G1 Y-130.415
G2 X11.715 Y-127.828 I2.588 J0
G3 X11.715 Y-42.172 I-1.104 J42.828
G2 X9.194 Y-39.585 I0.067 J2.587
G1 Y-10.5
G2 X9.659 Y-9.377 I1.588 J0
G1 X10.159 Y-8.877
G2 X11.282 Y-8.413 I1.123 J-1.123
G1 X19.782
G2 X22.369 Y-11 I0 J-2.587
G1 Y-23
G3 X27.782 Y-28.413 I5.413 J0
G1 X57.147
G2 X61.805 Y-30.342 I0 J-6.587
G1 X78.876 Y-47.413
G2 X80.806 Y-52.071 I-4.658 J-4.658
G1 Y-117.929
G2 X78.876 Y-122.587 I-6.587 J0
G1 X61.805 Y-139.659
G2 X57.147 Y-141.587 I-4.658 J4.659
G1 X27.782
G3 X22.369 Y-147 I0 J-5.413
G1 Y-159
G2 X20.338 Y-161.527 I-2.587 J0
G3 X20.096 Y-161.905 I0.068 J-0.31
G1 X20.164 Y-162.215
X20.18 Y-162.284 Z-6.152
X20.194 Y-162.35 Z-6.128
X20.207 Y-162.409 Z-6.091
X20.218 Y-162.458 Z-6.04
X20.226 Y-162.495 Z-5.98
X20.231 Y-162.518 Z-5.913
X20.233 Y-162.525 Z-5.842
G0 Z15
M9
G28 G91 Z0
G90
G28 G91 X0 Y0
G90
M5
M30
