(1001)
(T1  D=6.35 CR=0 - ZMIN=-24 - flat end mill)
G90 G94
G17
G21
G28 G91 Z0
G90

(2D Contour3)
T1
S18000 M3
G54
M8
G0 X75.762 Y-10.708
Z15
Z5
G1 Z2 F50
Z-0.365
X75.764 Y-10.716 Z-0.464 F300
X75.769 Y-10.739 Z-0.561
X75.777 Y-10.776 Z-0.653
X75.789 Y-10.827 Z-0.738
X75.803 Y-10.89 Z-0.814
X75.82 Y-10.964 Z-0.879
X75.838 Y-11.047 Z-0.931
X75.859 Y-11.136 Z-0.969
X75.88 Y-11.231 Z-0.992
X75.902 Y-11.328 Z-1
X76.041 Y-11.947
G3 X76.8 Y-12.427 I0.619 J0.14
G2 X77.718 Y-12.325 I0.918 J-4.073
G1 X85.218
G2 X87.463 Y-13.255 I0 J-3.175
G1 X87.963 Y-13.755
G2 X88.893 Y-16 I-2.245 J-2.245
G1 Y-45.122
G2 X84.918 Y-49.292 I-4.175 J0
G3 X84.918 Y-131.708 I1.971 J-41.208
G2 X88.893 Y-135.878 I-0.2 J-4.17
G1 Y-165
G2 X87.963 Y-167.245 I-3.175 J0
G1 X87.463 Y-167.745
G2 X85.218 Y-168.675 I-2.245 J2.245
G1 X77.718
G2 X73.543 Y-164.5 I0 J4.175
G1 Y-152.5
G3 X69.718 Y-148.675 I-3.825 J0
G1 X40.353
G2 X34.573 Y-146.281 I0 J8.175
G1 X17.501 Y-129.209
G2 X15.107 Y-123.429 I5.78 J5.781
G1 Y-57.571
G2 X17.501 Y-51.79 I8.175 J0
G1 X34.572 Y-34.719
G2 X40.353 Y-32.325 I5.781 J-5.781
G1 X69.718
G3 X73.543 Y-28.5 I0 J3.825
G1 Y-16.5
G2 X76.8 Y-12.427 I4.175 J0
G3 X77.28 Y-11.668 I-0.14 J0.619
G1 X77.141 Y-11.049
X77.119 Y-10.952 Z-0.992
X77.098 Y-10.857 Z-0.969
X77.077 Y-10.767 Z-0.931
X77.059 Y-10.684 Z-0.879
X77.042 Y-10.611 Z-0.814
X77.028 Y-10.547 Z-0.738
X77.016 Y-10.497 Z-0.653
X77.008 Y-10.459 Z-0.561
X77.003 Y-10.437 Z-0.464
X77.001 Y-10.429 Z-0.365
G0 Z5
X75.762 Y-10.708
G1 Z1 F50
Z-1.365
X75.764 Y-10.716 Z-1.464 F300
X75.769 Y-10.739 Z-1.561
X75.777 Y-10.776 Z-1.653
X75.789 Y-10.827 Z-1.738
X75.803 Y-10.89 Z-1.814
X75.82 Y-10.964 Z-1.879
X75.838 Y-11.047 Z-1.931
X75.859 Y-11.136 Z-1.969
X75.88 Y-11.231 Z-1.992
X75.902 Y-11.328 Z-2
X76.041 Y-11.947
G3 X76.8 Y-12.427 I0.619 J0.14
G2 X77.718 Y-12.325 I0.918 J-4.073
G1 X85.218
G2 X87.463 Y-13.255 I0 J-3.175
G1 X87.963 Y-13.755
G2 X88.893 Y-16 I-2.245 J-2.245
G1 Y-45.122
G2 X84.918 Y-49.292 I-4.175 J0
G3 X84.918 Y-131.708 I1.971 J-41.208
G2 X88.893 Y-135.878 I-0.2 J-4.17
G1 Y-165
G2 X87.963 Y-167.245 I-3.175 J0
G1 X87.463 Y-167.745
G2 X85.218 Y-168.675 I-2.245 J2.245
G1 X77.718
G2 X73.543 Y-164.5 I0 J4.175
G1 Y-152.5
G3 X69.718 Y-148.675 I-3.825 J0
G1 X40.353
G2 X34.573 Y-146.281 I0 J8.175
G1 X17.501 Y-129.209
G2 X15.107 Y-123.429 I5.78 J5.781
G1 Y-57.571
G2 X17.501 Y-51.79 I8.175 J0
G1 X34.572 Y-34.719
G2 X40.353 Y-32.325 I5.781 J-5.781
G1 X69.718
G3 X73.543 Y-28.5 I0 J3.825
G1 Y-16.5
G2 X76.8 Y-12.427 I4.175 J0
G3 X77.28 Y-11.668 I-0.14 J0.619
G1 X77.141 Y-11.049
X77.119 Y-10.952 Z-1.992
X77.098 Y-10.857 Z-1.969
X77.077 Y-10.767 Z-1.931
X77.059 Y-10.684 Z-1.879
X77.042 Y-10.611 Z-1.814
X77.028 Y-10.547 Z-1.738
X77.016 Y-10.497 Z-1.653
X77.008 Y-10.459 Z-1.561
X77.003 Y-10.437 Z-1.464
X77.001 Y-10.429 Z-1.365
G0 Z5
X75.762 Y-10.708
G1 Z0 F50
Z-2.365
X75.764 Y-10.716 Z-2.464 F300
X75.769 Y-10.739 Z-2.561
X75.777 Y-10.776 Z-2.653
X75.789 Y-10.827 Z-2.738
X75.803 Y-10.89 Z-2.814
X75.82 Y-10.964 Z-2.879
X75.838 Y-11.047 Z-2.931
X75.859 Y-11.136 Z-2.969
X75.88 Y-11.231 Z-2.992
X75.902 Y-11.328 Z-3
X76.041 Y-11.947
G3 X76.8 Y-12.427 I0.619 J0.14
G2 X77.718 Y-12.325 I0.918 J-4.073
G1 X85.218
G2 X87.463 Y-13.255 I0 J-3.175
G1 X87.963 Y-13.755
G2 X88.893 Y-16 I-2.245 J-2.245
G1 Y-45.122
G2 X84.918 Y-49.292 I-4.175 J0
G3 X84.918 Y-131.708 I1.971 J-41.208
G2 X88.893 Y-135.878 I-0.2 J-4.17
G1 Y-165
G2 X87.963 Y-167.245 I-3.175 J0
G1 X87.463 Y-167.745
G2 X85.218 Y-168.675 I-2.245 J2.245
G1 X77.718
G2 X73.543 Y-164.5 I0 J4.175
G1 Y-152.5
G3 X69.718 Y-148.675 I-3.825 J0
G1 X40.353
G2 X34.573 Y-146.281 I0 J8.175
G1 X17.501 Y-129.209
G2 X15.107 Y-123.429 I5.78 J5.781
G1 Y-57.571
G2 X17.501 Y-51.79 I8.175 J0
G1 X34.572 Y-34.719
G2 X40.353 Y-32.325 I5.781 J-5.781
G1 X69.718
G3 X73.543 Y-28.5 I0 J3.825
G1 Y-16.5
G2 X76.8 Y-12.427 I4.175 J0
G3 X77.28 Y-11.668 I-0.14 J0.619
G1 X77.141 Y-11.049
X77.119 Y-10.952 Z-2.992
X77.098 Y-10.857 Z-2.969
X77.077 Y-10.767 Z-2.931
X77.059 Y-10.684 Z-2.879
X77.042 Y-10.611 Z-2.814
X77.028 Y-10.547 Z-2.738
X77.016 Y-10.497 Z-2.653
X77.008 Y-10.459 Z-2.561
X77.003 Y-10.437 Z-2.464
X77.001 Y-10.429 Z-2.365
G0 Z5
X75.762 Y-10.708
G1 Z-1 F50
Z-3.365
X75.764 Y-10.716 Z-3.464 F300
X75.769 Y-10.739 Z-3.561
X75.777 Y-10.776 Z-3.653
X75.789 Y-10.827 Z-3.738
X75.803 Y-10.89 Z-3.814
X75.82 Y-10.964 Z-3.879
X75.838 Y-11.047 Z-3.931
X75.859 Y-11.136 Z-3.969
X75.88 Y-11.231 Z-3.992
X75.902 Y-11.328 Z-4
X76.041 Y-11.947
G3 X76.8 Y-12.427 I0.619 J0.14
G2 X77.718 Y-12.325 I0.918 J-4.073
G1 X85.218
G2 X87.463 Y-13.255 I0 J-3.175
G1 X87.963 Y-13.755
G2 X88.893 Y-16 I-2.245 J-2.245
G1 Y-45.122
G2 X84.918 Y-49.292 I-4.175 J0
G3 X84.918 Y-131.708 I1.971 J-41.208
G2 X88.893 Y-135.878 I-0.2 J-4.17
G1 Y-165
G2 X87.963 Y-167.245 I-3.175 J0
G1 X87.463 Y-167.745
G2 X85.218 Y-168.675 I-2.245 J2.245
G1 X77.718
G2 X73.543 Y-164.5 I0 J4.175
G1 Y-152.5
G3 X69.718 Y-148.675 I-3.825 J0
G1 X40.353
G2 X34.573 Y-146.281 I0 J8.175
G1 X17.501 Y-129.209
G2 X15.107 Y-123.429 I5.78 J5.781
G1 Y-57.571
G2 X17.501 Y-51.79 I8.175 J0
G1 X34.572 Y-34.719
G2 X40.353 Y-32.325 I5.781 J-5.781
G1 X69.718
G3 X73.543 Y-28.5 I0 J3.825
G1 Y-16.5
G2 X76.8 Y-12.427 I4.175 J0
G3 X77.28 Y-11.668 I-0.14 J0.619
G1 X77.141 Y-11.049
X77.119 Y-10.952 Z-3.992
X77.098 Y-10.857 Z-3.969
X77.077 Y-10.767 Z-3.931
X77.059 Y-10.684 Z-3.879
X77.042 Y-10.611 Z-3.814
X77.028 Y-10.547 Z-3.738
X77.016 Y-10.497 Z-3.653
X77.008 Y-10.459 Z-3.561
X77.003 Y-10.437 Z-3.464
X77.001 Y-10.429 Z-3.365
G0 Z5
X75.762 Y-10.708
G1 Z-2 F50
Z-4.365
X75.764 Y-10.716 Z-4.464 F300
X75.769 Y-10.739 Z-4.561
X75.777 Y-10.776 Z-4.653
X75.789 Y-10.827 Z-4.738
X75.803 Y-10.89 Z-4.814
X75.82 Y-10.964 Z-4.879
X75.838 Y-11.047 Z-4.931
X75.859 Y-11.136 Z-4.969
X75.88 Y-11.231 Z-4.992
X75.902 Y-11.328 Z-5
X76.041 Y-11.947
G3 X76.8 Y-12.427 I0.619 J0.14
G2 X77.718 Y-12.325 I0.918 J-4.073
G1 X85.218
G2 X87.463 Y-13.255 I0 J-3.175
G1 X87.963 Y-13.755
G2 X88.893 Y-16 I-2.245 J-2.245
G1 Y-45.122
G2 X84.918 Y-49.292 I-4.175 J0
G3 X84.918 Y-131.708 I1.971 J-41.208
G2 X88.893 Y-135.878 I-0.2 J-4.17
G1 Y-165
G2 X87.963 Y-167.245 I-3.175 J0
G1 X87.463 Y-167.745
G2 X85.218 Y-168.675 I-2.245 J2.245
G1 X77.718
G2 X73.543 Y-164.5 I0 J4.175
G1 Y-152.5
G3 X69.718 Y-148.675 I-3.825 J0
G1 X40.353
G2 X34.573 Y-146.281 I0 J8.175
G1 X17.501 Y-129.209
G2 X15.107 Y-123.429 I5.78 J5.781
G1 Y-57.571
G2 X17.501 Y-51.79 I8.175 J0
G1 X34.572 Y-34.719
G2 X40.353 Y-32.325 I5.781 J-5.781
G1 X69.718
G3 X73.543 Y-28.5 I0 J3.825
G1 Y-16.5
G2 X76.8 Y-12.427 I4.175 J0
G3 X77.28 Y-11.668 I-0.14 J0.619
G1 X77.141 Y-11.049
X77.119 Y-10.952 Z-4.992
X77.098 Y-10.857 Z-4.969
X77.077 Y-10.767 Z-4.931
X77.059 Y-10.684 Z-4.879
X77.042 Y-10.611 Z-4.814
X77.028 Y-10.547 Z-4.738
X77.016 Y-10.497 Z-4.653
X77.008 Y-10.459 Z-4.561
X77.003 Y-10.437 Z-4.464
X77.001 Y-10.429 Z-4.365
G0 Z5
X75.762 Y-10.708
G1 Z-3 F50
Z-5.365
X75.764 Y-10.716 Z-5.464 F300
X75.769 Y-10.739 Z-5.561
X75.777 Y-10.776 Z-5.653
X75.789 Y-10.827 Z-5.738
X75.803 Y-10.89 Z-5.814
X75.82 Y-10.964 Z-5.879
X75.838 Y-11.047 Z-5.931
X75.859 Y-11.136 Z-5.969
X75.88 Y-11.231 Z-5.992
X75.902 Y-11.328 Z-6
X76.041 Y-11.947
G3 X76.8 Y-12.427 I0.619 J0.14
G2 X77.718 Y-12.325 I0.918 J-4.073
G1 X85.218
G2 X87.463 Y-13.255 I0 J-3.175
G1 X87.963 Y-13.755
G2 X88.893 Y-16 I-2.245 J-2.245
G1 Y-45.122
G2 X84.918 Y-49.292 I-4.175 J0
G3 X84.918 Y-131.708 I1.971 J-41.208
G2 X88.893 Y-135.878 I-0.2 J-4.17
G1 Y-165
G2 X87.963 Y-167.245 I-3.175 J0
G1 X87.463 Y-167.745
G2 X85.218 Y-168.675 I-2.245 J2.245
G1 X77.718
G2 X73.543 Y-164.5 I0 J4.175
G1 Y-152.5
G3 X69.718 Y-148.675 I-3.825 J0
G1 X40.353
G2 X34.573 Y-146.281 I0 J8.175
G1 X17.501 Y-129.209
G2 X15.107 Y-123.429 I5.78 J5.781
G1 Y-57.571
G2 X17.501 Y-51.79 I8.175 J0
G1 X34.572 Y-34.719
G2 X40.353 Y-32.325 I5.781 J-5.781
G1 X69.718
G3 X73.543 Y-28.5 I0 J3.825
G1 Y-16.5
G2 X76.8 Y-12.427 I4.175 J0
G3 X77.28 Y-11.668 I-0.14 J0.619
G1 X77.141 Y-11.049
X77.119 Y-10.952 Z-5.992
X77.098 Y-10.857 Z-5.969
X77.077 Y-10.767 Z-5.931
X77.059 Y-10.684 Z-5.879
X77.042 Y-10.611 Z-5.814
X77.028 Y-10.547 Z-5.738
X77.016 Y-10.497 Z-5.653
X77.008 Y-10.459 Z-5.561
X77.003 Y-10.437 Z-5.464
X77.001 Y-10.429 Z-5.365
G0 Z5
X75.762 Y-10.708
G1 Z-4 F50
Z-6.365
X75.764 Y-10.716 Z-6.464 F300
X75.769 Y-10.739 Z-6.561
X75.777 Y-10.776 Z-6.653
X75.789 Y-10.827 Z-6.738
X75.803 Y-10.89 Z-6.814
X75.82 Y-10.964 Z-6.879
X75.838 Y-11.047 Z-6.931
X75.859 Y-11.136 Z-6.969
X75.88 Y-11.231 Z-6.992
X75.902 Y-11.328 Z-7
X76.041 Y-11.947
G3 X76.8 Y-12.427 I0.619 J0.14
G2 X77.718 Y-12.325 I0.918 J-4.073
G1 X85.218
G2 X87.463 Y-13.255 I0 J-3.175
G1 X87.963 Y-13.755
G2 X88.893 Y-16 I-2.245 J-2.245
G1 Y-45.122
G2 X84.918 Y-49.292 I-4.175 J0
G3 X84.918 Y-131.708 I1.971 J-41.208
G2 X88.893 Y-135.878 I-0.2 J-4.17
G1 Y-165
G2 X87.963 Y-167.245 I-3.175 J0
G1 X87.463 Y-167.745
G2 X85.218 Y-168.675 I-2.245 J2.245
G1 X77.718
G2 X73.543 Y-164.5 I0 J4.175
G1 Y-152.5
G3 X69.718 Y-148.675 I-3.825 J0
G1 X40.353
G2 X34.573 Y-146.281 I0 J8.175
G1 X17.501 Y-129.209
G2 X15.107 Y-123.429 I5.78 J5.781
G1 Y-57.571
G2 X17.501 Y-51.79 I8.175 J0
G1 X34.572 Y-34.719
G2 X40.353 Y-32.325 I5.781 J-5.781
G1 X69.718
G3 X73.543 Y-28.5 I0 J3.825
G1 Y-16.5
G2 X76.8 Y-12.427 I4.175 J0
G3 X77.28 Y-11.668 I-0.14 J0.619
G1 X77.141 Y-11.049
X77.119 Y-10.952 Z-6.992
X77.098 Y-10.857 Z-6.969
X77.077 Y-10.767 Z-6.931
X77.059 Y-10.684 Z-6.879
X77.042 Y-10.611 Z-6.814
X77.028 Y-10.547 Z-6.738
X77.016 Y-10.497 Z-6.653
X77.008 Y-10.459 Z-6.561
X77.003 Y-10.437 Z-6.464
X77.001 Y-10.429 Z-6.365
G0 Z5
X75.762 Y-10.708
G1 Z-5 F50
Z-7.365
X75.764 Y-10.716 Z-7.464 F300
X75.769 Y-10.739 Z-7.561
X75.777 Y-10.776 Z-7.653
X75.789 Y-10.827 Z-7.738
X75.803 Y-10.89 Z-7.814
X75.82 Y-10.964 Z-7.879
X75.838 Y-11.047 Z-7.931
X75.859 Y-11.136 Z-7.969
X75.88 Y-11.231 Z-7.992
X75.902 Y-11.328 Z-8
X76.041 Y-11.947
G3 X76.8 Y-12.427 I0.619 J0.14
G2 X77.718 Y-12.325 I0.918 J-4.073
G1 X85.218
G2 X87.463 Y-13.255 I0 J-3.175
G1 X87.963 Y-13.755
G2 X88.893 Y-16 I-2.245 J-2.245
G1 Y-45.122
G2 X84.918 Y-49.292 I-4.175 J0
G3 X84.918 Y-131.708 I1.971 J-41.208
G2 X88.893 Y-135.878 I-0.2 J-4.17
G1 Y-165
G2 X87.963 Y-167.245 I-3.175 J0
G1 X87.463 Y-167.745
G2 X85.218 Y-168.675 I-2.245 J2.245
G1 X77.718
G2 X73.543 Y-164.5 I0 J4.175
G1 Y-152.5
G3 X69.718 Y-148.675 I-3.825 J0
G1 X40.353
G2 X34.573 Y-146.281 I0 J8.175
G1 X17.501 Y-129.209
G2 X15.107 Y-123.429 I5.78 J5.781
G1 Y-57.571
G2 X17.501 Y-51.79 I8.175 J0
G1 X34.572 Y-34.719
G2 X40.353 Y-32.325 I5.781 J-5.781
G1 X69.718
G3 X73.543 Y-28.5 I0 J3.825
G1 Y-16.5
G2 X76.8 Y-12.427 I4.175 J0
G3 X77.28 Y-11.668 I-0.14 J0.619
G1 X77.141 Y-11.049
X77.119 Y-10.952 Z-7.992
X77.098 Y-10.857 Z-7.969
X77.077 Y-10.767 Z-7.931
X77.059 Y-10.684 Z-7.879
X77.042 Y-10.611 Z-7.814
X77.028 Y-10.547 Z-7.738
X77.016 Y-10.497 Z-7.653
X77.008 Y-10.459 Z-7.561
X77.003 Y-10.437 Z-7.464
X77.001 Y-10.429 Z-7.365
G0 Z5
X75.762 Y-10.708
G1 Z-6 F50
Z-8.365
X75.764 Y-10.716 Z-8.464 F300
X75.769 Y-10.739 Z-8.561
X75.777 Y-10.776 Z-8.653
X75.789 Y-10.827 Z-8.738
X75.803 Y-10.89 Z-8.814
X75.82 Y-10.964 Z-8.879
X75.838 Y-11.047 Z-8.931
X75.859 Y-11.136 Z-8.969
X75.88 Y-11.231 Z-8.992
X75.902 Y-11.328 Z-9
X76.041 Y-11.947
G3 X76.8 Y-12.427 I0.619 J0.14
G2 X77.718 Y-12.325 I0.918 J-4.073
G1 X85.218
G2 X87.463 Y-13.255 I0 J-3.175
G1 X87.963 Y-13.755
G2 X88.893 Y-16 I-2.245 J-2.245
G1 Y-45.122
G2 X84.918 Y-49.292 I-4.175 J0
G3 X84.918 Y-131.708 I1.971 J-41.208
G2 X88.893 Y-135.878 I-0.2 J-4.17
G1 Y-165
G2 X87.963 Y-167.245 I-3.175 J0
G1 X87.463 Y-167.745
G2 X85.218 Y-168.675 I-2.245 J2.245
G1 X77.718
G2 X73.543 Y-164.5 I0 J4.175
G1 Y-152.5
G3 X69.718 Y-148.675 I-3.825 J0
G1 X40.353
G2 X34.573 Y-146.281 I0 J8.175
G1 X17.501 Y-129.209
G2 X15.107 Y-123.429 I5.78 J5.781
G1 Y-57.571
G2 X17.501 Y-51.79 I8.175 J0
G1 X34.572 Y-34.719
G2 X40.353 Y-32.325 I5.781 J-5.781
G1 X69.718
G3 X73.543 Y-28.5 I0 J3.825
G1 Y-16.5
G2 X76.8 Y-12.427 I4.175 J0
G3 X77.28 Y-11.668 I-0.14 J0.619
G1 X77.141 Y-11.049
X77.119 Y-10.952 Z-8.992
X77.098 Y-10.857 Z-8.969
X77.077 Y-10.767 Z-8.931
X77.059 Y-10.684 Z-8.879
X77.042 Y-10.611 Z-8.814
X77.028 Y-10.547 Z-8.738
X77.016 Y-10.497 Z-8.653
X77.008 Y-10.459 Z-8.561
X77.003 Y-10.437 Z-8.464
X77.001 Y-10.429 Z-8.365
G0 Z5
X75.762 Y-10.708
G1 Z-7 F50
Z-9.365
X75.764 Y-10.716 Z-9.464 F300
X75.769 Y-10.739 Z-9.561
X75.777 Y-10.776 Z-9.653
X75.789 Y-10.827 Z-9.738
X75.803 Y-10.89 Z-9.814
X75.82 Y-10.964 Z-9.879
X75.838 Y-11.047 Z-9.931
X75.859 Y-11.136 Z-9.969
X75.88 Y-11.231 Z-9.992
X75.902 Y-11.328 Z-10
X76.041 Y-11.947
G3 X76.8 Y-12.427 I0.619 J0.14
G2 X77.718 Y-12.325 I0.918 J-4.073
G1 X85.218
G2 X87.463 Y-13.255 I0 J-3.175
G1 X87.963 Y-13.755
G2 X88.893 Y-16 I-2.245 J-2.245
G1 Y-45.122
G2 X84.918 Y-49.292 I-4.175 J0
G3 X84.918 Y-131.708 I1.971 J-41.208
G2 X88.893 Y-135.878 I-0.2 J-4.17
G1 Y-165
G2 X87.963 Y-167.245 I-3.175 J0
G1 X87.463 Y-167.745
G2 X85.218 Y-168.675 I-2.245 J2.245
G1 X77.718
G2 X73.543 Y-164.5 I0 J4.175
G1 Y-152.5
G3 X69.718 Y-148.675 I-3.825 J0
G1 X40.353
G2 X34.573 Y-146.281 I0 J8.175
G1 X17.501 Y-129.209
G2 X15.107 Y-123.429 I5.78 J5.781
G1 Y-57.571
G2 X17.501 Y-51.79 I8.175 J0
G1 X34.572 Y-34.719
G2 X40.353 Y-32.325 I5.781 J-5.781
G1 X69.718
G3 X73.543 Y-28.5 I0 J3.825
G1 Y-16.5
G2 X76.8 Y-12.427 I4.175 J0
G3 X77.28 Y-11.668 I-0.14 J0.619
G1 X77.141 Y-11.049
X77.119 Y-10.952 Z-9.992
X77.098 Y-10.857 Z-9.969
X77.077 Y-10.767 Z-9.931
X77.059 Y-10.684 Z-9.879
X77.042 Y-10.611 Z-9.814
X77.028 Y-10.547 Z-9.738
X77.016 Y-10.497 Z-9.653
X77.008 Y-10.459 Z-9.561
X77.003 Y-10.437 Z-9.464
X77.001 Y-10.429 Z-9.365
G0 Z5
X75.762 Y-10.708
G1 Z-8 F50
Z-10.365
X75.764 Y-10.716 Z-10.464 F300
X75.769 Y-10.739 Z-10.561
X75.777 Y-10.776 Z-10.653
X75.789 Y-10.827 Z-10.738
X75.803 Y-10.89 Z-10.814
X75.82 Y-10.964 Z-10.879
X75.838 Y-11.047 Z-10.931
X75.859 Y-11.136 Z-10.969
X75.88 Y-11.231 Z-10.992
X75.902 Y-11.328 Z-11
X76.041 Y-11.947
G3 X76.8 Y-12.427 I0.619 J0.14
G2 X77.718 Y-12.325 I0.918 J-4.073
G1 X85.218
G2 X87.463 Y-13.255 I0 J-3.175
G1 X87.963 Y-13.755
G2 X88.893 Y-16 I-2.245 J-2.245
G1 Y-45.122
G2 X84.918 Y-49.292 I-4.175 J0
G3 X84.918 Y-131.708 I1.971 J-41.208
G2 X88.893 Y-135.878 I-0.2 J-4.17
G1 Y-165
G2 X87.963 Y-167.245 I-3.175 J0
G1 X87.463 Y-167.745
G2 X85.218 Y-168.675 I-2.245 J2.245
G1 X77.718
G2 X73.543 Y-164.5 I0 J4.175
G1 Y-152.5
G3 X69.718 Y-148.675 I-3.825 J0
G1 X40.353
G2 X34.573 Y-146.281 I0 J8.175
G1 X17.501 Y-129.209
G2 X15.107 Y-123.429 I5.78 J5.781
G1 Y-57.571
G2 X17.501 Y-51.79 I8.175 J0
G1 X34.572 Y-34.719
G2 X40.353 Y-32.325 I5.781 J-5.781
G1 X69.718
G3 X73.543 Y-28.5 I0 J3.825
G1 Y-16.5
G2 X76.8 Y-12.427 I4.175 J0
G3 X77.28 Y-11.668 I-0.14 J0.619
G1 X77.141 Y-11.049
X77.119 Y-10.952 Z-10.992
X77.098 Y-10.857 Z-10.969
X77.077 Y-10.767 Z-10.931
X77.059 Y-10.684 Z-10.879
X77.042 Y-10.611 Z-10.814
X77.028 Y-10.547 Z-10.738
X77.016 Y-10.497 Z-10.653
X77.008 Y-10.459 Z-10.561
X77.003 Y-10.437 Z-10.464
X77.001 Y-10.429 Z-10.365
G0 Z5
X75.762 Y-10.708
G1 Z-9 F50
Z-11.365
X75.764 Y-10.716 Z-11.464 F300
X75.769 Y-10.739 Z-11.561
X75.777 Y-10.776 Z-11.653
X75.789 Y-10.827 Z-11.738
X75.803 Y-10.89 Z-11.814
X75.82 Y-10.964 Z-11.879
X75.838 Y-11.047 Z-11.931
X75.859 Y-11.136 Z-11.969
X75.88 Y-11.231 Z-11.992
X75.902 Y-11.328 Z-12
X76.041 Y-11.947
G3 X76.8 Y-12.427 I0.619 J0.14
G2 X77.718 Y-12.325 I0.918 J-4.073
G1 X85.218
G2 X87.463 Y-13.255 I0 J-3.175
G1 X87.963 Y-13.755
G2 X88.893 Y-16 I-2.245 J-2.245
G1 Y-45.122
G2 X84.918 Y-49.292 I-4.175 J0
G3 X84.918 Y-131.708 I1.971 J-41.208
G2 X88.893 Y-135.878 I-0.2 J-4.17
G1 Y-165
G2 X87.963 Y-167.245 I-3.175 J0
G1 X87.463 Y-167.745
G2 X85.218 Y-168.675 I-2.245 J2.245
G1 X77.718
G2 X73.543 Y-164.5 I0 J4.175
G1 Y-152.5
G3 X69.718 Y-148.675 I-3.825 J0
G1 X40.353
G2 X34.573 Y-146.281 I0 J8.175
G1 X17.501 Y-129.209
G2 X15.107 Y-123.429 I5.78 J5.781
G1 Y-57.571
G2 X17.501 Y-51.79 I8.175 J0
G1 X34.572 Y-34.719
G2 X40.353 Y-32.325 I5.781 J-5.781
G1 X69.718
G3 X73.543 Y-28.5 I0 J3.825
G1 Y-16.5
G2 X76.8 Y-12.427 I4.175 J0
G3 X77.28 Y-11.668 I-0.14 J0.619
G1 X77.141 Y-11.049
X77.119 Y-10.952 Z-11.992
X77.098 Y-10.857 Z-11.969
X77.077 Y-10.767 Z-11.931
X77.059 Y-10.684 Z-11.879
X77.042 Y-10.611 Z-11.814
X77.028 Y-10.547 Z-11.738
X77.016 Y-10.497 Z-11.653
X77.008 Y-10.459 Z-11.561
X77.003 Y-10.437 Z-11.464
X77.001 Y-10.429 Z-11.365
G0 Z5
X75.762 Y-10.708
G1 Z-10 F50
Z-12.365
X75.764 Y-10.716 Z-12.464 F300
X75.769 Y-10.739 Z-12.561
X75.777 Y-10.776 Z-12.653
X75.789 Y-10.827 Z-12.738
X75.803 Y-10.89 Z-12.814
X75.82 Y-10.964 Z-12.879
X75.838 Y-11.047 Z-12.931
X75.859 Y-11.136 Z-12.969
X75.88 Y-11.231 Z-12.992
X75.902 Y-11.328 Z-13
X76.041 Y-11.947
G3 X76.8 Y-12.427 I0.619 J0.14
G2 X77.718 Y-12.325 I0.918 J-4.073
G1 X85.218
G2 X87.463 Y-13.255 I0 J-3.175
G1 X87.963 Y-13.755
G2 X88.893 Y-16 I-2.245 J-2.245
G1 Y-45.122
G2 X84.918 Y-49.292 I-4.175 J0
G3 X84.918 Y-131.708 I1.971 J-41.208
G2 X88.893 Y-135.878 I-0.2 J-4.17
G1 Y-165
G2 X87.963 Y-167.245 I-3.175 J0
G1 X87.463 Y-167.745
G2 X85.218 Y-168.675 I-2.245 J2.245
G1 X77.718
G2 X73.543 Y-164.5 I0 J4.175
G1 Y-152.5
G3 X69.718 Y-148.675 I-3.825 J0
G1 X40.353
G2 X34.573 Y-146.281 I0 J8.175
G1 X17.501 Y-129.209
G2 X15.107 Y-123.429 I5.78 J5.781
G1 Y-57.571
G2 X17.501 Y-51.79 I8.175 J0
G1 X34.572 Y-34.719
G2 X40.353 Y-32.325 I5.781 J-5.781
G1 X69.718
G3 X73.543 Y-28.5 I0 J3.825
G1 Y-16.5
G2 X76.8 Y-12.427 I4.175 J0
G3 X77.28 Y-11.668 I-0.14 J0.619
G1 X77.141 Y-11.049
X77.119 Y-10.952 Z-12.992
X77.098 Y-10.857 Z-12.969
X77.077 Y-10.767 Z-12.931
X77.059 Y-10.684 Z-12.879
X77.042 Y-10.611 Z-12.814
X77.028 Y-10.547 Z-12.738
X77.016 Y-10.497 Z-12.653
X77.008 Y-10.459 Z-12.561
X77.003 Y-10.437 Z-12.464
X77.001 Y-10.429 Z-12.365
G0 Z5
X75.762 Y-10.708
G1 Z-11 F50
Z-13.365
X75.764 Y-10.716 Z-13.464 F300
X75.769 Y-10.739 Z-13.561
X75.777 Y-10.776 Z-13.653
X75.789 Y-10.827 Z-13.738
X75.803 Y-10.89 Z-13.814
X75.82 Y-10.964 Z-13.879
X75.838 Y-11.047 Z-13.931
X75.859 Y-11.136 Z-13.969
X75.88 Y-11.231 Z-13.992
X75.902 Y-11.328 Z-14
X76.041 Y-11.947
G3 X76.8 Y-12.427 I0.619 J0.14
G2 X77.718 Y-12.325 I0.918 J-4.073
G1 X85.218
G2 X87.463 Y-13.255 I0 J-3.175
G1 X87.963 Y-13.755
G2 X88.893 Y-16 I-2.245 J-2.245
G1 Y-45.122
G2 X84.918 Y-49.292 I-4.175 J0
G3 X84.918 Y-131.708 I1.971 J-41.208
G2 X88.893 Y-135.878 I-0.2 J-4.17
G1 Y-165
G2 X87.963 Y-167.245 I-3.175 J0
G1 X87.463 Y-167.745
G2 X85.218 Y-168.675 I-2.245 J2.245
G1 X77.718
G2 X73.543 Y-164.5 I0 J4.175
G1 Y-152.5
G3 X69.718 Y-148.675 I-3.825 J0
G1 X40.353
G2 X34.573 Y-146.281 I0 J8.175
G1 X17.501 Y-129.209
G2 X15.107 Y-123.429 I5.78 J5.781
G1 Y-57.571
G2 X17.501 Y-51.79 I8.175 J0
G1 X34.572 Y-34.719
G2 X40.353 Y-32.325 I5.781 J-5.781
G1 X69.718
G3 X73.543 Y-28.5 I0 J3.825
G1 Y-16.5
G2 X76.8 Y-12.427 I4.175 J0
G3 X77.28 Y-11.668 I-0.14 J0.619
G1 X77.141 Y-11.049
X77.119 Y-10.952 Z-13.992
X77.098 Y-10.857 Z-13.969
X77.077 Y-10.767 Z-13.931
X77.059 Y-10.684 Z-13.879
X77.042 Y-10.611 Z-13.814
X77.028 Y-10.547 Z-13.738
X77.016 Y-10.497 Z-13.653
X77.008 Y-10.459 Z-13.561
X77.003 Y-10.437 Z-13.464
X77.001 Y-10.429 Z-13.365
G0 Z5
X75.762 Y-10.708
G1 Z-12 F50
Z-14.365
X75.764 Y-10.716 Z-14.464 F300
X75.769 Y-10.739 Z-14.561
X75.777 Y-10.776 Z-14.653
X75.789 Y-10.827 Z-14.738
X75.803 Y-10.89 Z-14.814
X75.82 Y-10.964 Z-14.879
X75.838 Y-11.047 Z-14.931
X75.859 Y-11.136 Z-14.969
X75.88 Y-11.231 Z-14.992
X75.902 Y-11.328 Z-15
X76.041 Y-11.947
G3 X76.8 Y-12.427 I0.619 J0.14
G2 X77.718 Y-12.325 I0.918 J-4.073
G1 X85.218
G2 X87.463 Y-13.255 I0 J-3.175
G1 X87.963 Y-13.755
G2 X88.893 Y-16 I-2.245 J-2.245
G1 Y-45.122
G2 X84.918 Y-49.292 I-4.175 J0
G3 X84.918 Y-131.708 I1.971 J-41.208
G2 X88.893 Y-135.878 I-0.2 J-4.17
G1 Y-165
G2 X87.963 Y-167.245 I-3.175 J0
G1 X87.463 Y-167.745
G2 X85.218 Y-168.675 I-2.245 J2.245
G1 X77.718
G2 X73.543 Y-164.5 I0 J4.175
G1 Y-152.5
G3 X69.718 Y-148.675 I-3.825 J0
G1 X40.353
G2 X34.573 Y-146.281 I0 J8.175
G1 X17.501 Y-129.209
G2 X15.107 Y-123.429 I5.78 J5.781
G1 Y-57.571
G2 X17.501 Y-51.79 I8.175 J0
G1 X34.572 Y-34.719
G2 X40.353 Y-32.325 I5.781 J-5.781
G1 X69.718
G3 X73.543 Y-28.5 I0 J3.825
G1 Y-16.5
G2 X76.8 Y-12.427 I4.175 J0
G3 X77.28 Y-11.668 I-0.14 J0.619
G1 X77.141 Y-11.049
X77.119 Y-10.952 Z-14.992
X77.098 Y-10.857 Z-14.969
X77.077 Y-10.767 Z-14.931
X77.059 Y-10.684 Z-14.879
X77.042 Y-10.611 Z-14.814
X77.028 Y-10.547 Z-14.738
X77.016 Y-10.497 Z-14.653
X77.008 Y-10.459 Z-14.561
X77.003 Y-10.437 Z-14.464
X77.001 Y-10.429 Z-14.365
G0 Z5
X75.762 Y-10.708
G1 Z-13 F50
Z-15.365
X75.764 Y-10.716 Z-15.464 F300
X75.769 Y-10.739 Z-15.561
X75.777 Y-10.776 Z-15.653
X75.789 Y-10.827 Z-15.738
X75.803 Y-10.89 Z-15.814
X75.82 Y-10.964 Z-15.879
X75.838 Y-11.047 Z-15.931
X75.859 Y-11.136 Z-15.969
X75.88 Y-11.231 Z-15.992
X75.902 Y-11.328 Z-16
X76.041 Y-11.947
G3 X76.8 Y-12.427 I0.619 J0.14
G2 X77.718 Y-12.325 I0.918 J-4.073
G1 X85.218
G2 X87.463 Y-13.255 I0 J-3.175
G1 X87.963 Y-13.755
G2 X88.893 Y-16 I-2.245 J-2.245
G1 Y-45.122
G2 X84.918 Y-49.292 I-4.175 J0
G3 X84.918 Y-131.708 I1.971 J-41.208
G2 X88.893 Y-135.878 I-0.2 J-4.17
G1 Y-165
G2 X87.963 Y-167.245 I-3.175 J0
G1 X87.463 Y-167.745
G2 X85.218 Y-168.675 I-2.245 J2.245
G1 X77.718
G2 X73.543 Y-164.5 I0 J4.175
G1 Y-152.5
G3 X69.718 Y-148.675 I-3.825 J0
G1 X40.353
G2 X34.573 Y-146.281 I0 J8.175
G1 X17.501 Y-129.209
G2 X15.107 Y-123.429 I5.78 J5.781
G1 Y-57.571
G2 X17.501 Y-51.79 I8.175 J0
G1 X34.572 Y-34.719
G2 X40.353 Y-32.325 I5.781 J-5.781
G1 X69.718
G3 X73.543 Y-28.5 I0 J3.825
G1 Y-16.5
G2 X76.8 Y-12.427 I4.175 J0
G3 X77.28 Y-11.668 I-0.14 J0.619
G1 X77.141 Y-11.049
X77.119 Y-10.952 Z-15.992
X77.098 Y-10.857 Z-15.969
X77.077 Y-10.767 Z-15.931
X77.059 Y-10.684 Z-15.879
X77.042 Y-10.611 Z-15.814
X77.028 Y-10.547 Z-15.738
X77.016 Y-10.497 Z-15.653
X77.008 Y-10.459 Z-15.561
X77.003 Y-10.437 Z-15.464
X77.001 Y-10.429 Z-15.365
G0 Z5
X75.762 Y-10.708
G1 Z-14 F50
Z-16.365
X75.764 Y-10.716 Z-16.464 F300
X75.769 Y-10.739 Z-16.561
X75.777 Y-10.776 Z-16.653
X75.789 Y-10.827 Z-16.738
X75.803 Y-10.89 Z-16.814
X75.82 Y-10.964 Z-16.879
X75.838 Y-11.047 Z-16.931
X75.859 Y-11.136 Z-16.969
X75.88 Y-11.231 Z-16.992
X75.902 Y-11.328 Z-17
X76.041 Y-11.947
G3 X76.8 Y-12.427 I0.619 J0.14
G2 X77.718 Y-12.325 I0.918 J-4.073
G1 X85.218
G2 X87.463 Y-13.255 I0 J-3.175
G1 X87.963 Y-13.755
G2 X88.893 Y-16 I-2.245 J-2.245
G1 Y-45.122
G2 X84.918 Y-49.292 I-4.175 J0
G3 X84.918 Y-131.708 I1.971 J-41.208
G2 X88.893 Y-135.878 I-0.2 J-4.17
G1 Y-165
G2 X87.963 Y-167.245 I-3.175 J0
G1 X87.463 Y-167.745
G2 X85.218 Y-168.675 I-2.245 J2.245
G1 X77.718
G2 X73.543 Y-164.5 I0 J4.175
G1 Y-152.5
G3 X69.718 Y-148.675 I-3.825 J0
G1 X40.353
G2 X34.573 Y-146.281 I0 J8.175
G1 X17.501 Y-129.209
G2 X15.107 Y-123.429 I5.78 J5.781
G1 Y-57.571
G2 X17.501 Y-51.79 I8.175 J0
G1 X34.572 Y-34.719
G2 X40.353 Y-32.325 I5.781 J-5.781
G1 X69.718
G3 X73.543 Y-28.5 I0 J3.825
G1 Y-16.5
G2 X76.8 Y-12.427 I4.175 J0
G3 X77.28 Y-11.668 I-0.14 J0.619
G1 X77.141 Y-11.049
X77.119 Y-10.952 Z-16.992
X77.098 Y-10.857 Z-16.969
X77.077 Y-10.767 Z-16.931
X77.059 Y-10.684 Z-16.879
X77.042 Y-10.611 Z-16.814
X77.028 Y-10.547 Z-16.738
X77.016 Y-10.497 Z-16.653
X77.008 Y-10.459 Z-16.561
X77.003 Y-10.437 Z-16.464
X77.001 Y-10.429 Z-16.365
G0 Z5
X75.762 Y-10.708
G1 Z-15 F50
Z-17.365
X75.764 Y-10.716 Z-17.464 F300
X75.769 Y-10.739 Z-17.561
X75.777 Y-10.776 Z-17.653
X75.789 Y-10.827 Z-17.738
X75.803 Y-10.89 Z-17.814
X75.82 Y-10.964 Z-17.879
X75.838 Y-11.047 Z-17.931
X75.859 Y-11.136 Z-17.969
X75.88 Y-11.231 Z-17.992
X75.902 Y-11.328 Z-18
X76.041 Y-11.947
G3 X76.8 Y-12.427 I0.619 J0.14
G2 X77.718 Y-12.325 I0.918 J-4.073
G1 X85.218
G2 X87.463 Y-13.255 I0 J-3.175
G1 X87.963 Y-13.755
G2 X88.893 Y-16 I-2.245 J-2.245
G1 Y-45.122
G2 X84.918 Y-49.292 I-4.175 J0
G3 X84.918 Y-131.708 I1.971 J-41.208
G2 X88.893 Y-135.878 I-0.2 J-4.17
G1 Y-165
G2 X87.963 Y-167.245 I-3.175 J0
G1 X87.463 Y-167.745
G2 X85.218 Y-168.675 I-2.245 J2.245
G1 X77.718
G2 X73.543 Y-164.5 I0 J4.175
G1 Y-152.5
G3 X69.718 Y-148.675 I-3.825 J0
G1 X40.353
G2 X34.573 Y-146.281 I0 J8.175
G1 X17.501 Y-129.209
G2 X15.107 Y-123.429 I5.78 J5.781
G1 Y-57.571
G2 X17.501 Y-51.79 I8.175 J0
G1 X34.572 Y-34.719
G2 X40.353 Y-32.325 I5.781 J-5.781
G1 X69.718
G3 X73.543 Y-28.5 I0 J3.825
G1 Y-16.5
G2 X76.8 Y-12.427 I4.175 J0
G3 X77.28 Y-11.668 I-0.14 J0.619
G1 X77.141 Y-11.049
X77.119 Y-10.952 Z-17.992
X77.098 Y-10.857 Z-17.969
X77.077 Y-10.767 Z-17.931
X77.059 Y-10.684 Z-17.879
X77.042 Y-10.611 Z-17.814
X77.028 Y-10.547 Z-17.738
X77.016 Y-10.497 Z-17.653
X77.008 Y-10.459 Z-17.561
X77.003 Y-10.437 Z-17.464
X77.001 Y-10.429 Z-17.365
G0 Z5
X75.762 Y-10.708
G1 Z-16 F50
Z-18.365
X75.764 Y-10.716 Z-18.464 F300
X75.769 Y-10.739 Z-18.561
X75.777 Y-10.776 Z-18.653
X75.789 Y-10.827 Z-18.738
X75.803 Y-10.89 Z-18.814
X75.82 Y-10.964 Z-18.879
X75.838 Y-11.047 Z-18.931
X75.859 Y-11.136 Z-18.969
X75.88 Y-11.231 Z-18.992
X75.902 Y-11.328 Z-19
X76.041 Y-11.947
G3 X76.8 Y-12.427 I0.619 J0.14
G2 X77.718 Y-12.325 I0.918 J-4.073
G1 X85.218
G2 X87.463 Y-13.255 I0 J-3.175
G1 X87.963 Y-13.755
G2 X88.893 Y-16 I-2.245 J-2.245
G1 Y-45.122
G2 X84.918 Y-49.292 I-4.175 J0
G3 X84.918 Y-131.708 I1.971 J-41.208
G2 X88.893 Y-135.878 I-0.2 J-4.17
G1 Y-165
G2 X87.963 Y-167.245 I-3.175 J0
G1 X87.463 Y-167.745
G2 X85.218 Y-168.675 I-2.245 J2.245
G1 X77.718
G2 X73.543 Y-164.5 I0 J4.175
G1 Y-152.5
G3 X69.718 Y-148.675 I-3.825 J0
G1 X40.353
G2 X34.573 Y-146.281 I0 J8.175
G1 X17.501 Y-129.209
G2 X15.107 Y-123.429 I5.78 J5.781
G1 Y-57.571
G2 X17.501 Y-51.79 I8.175 J0
G1 X34.572 Y-34.719
G2 X40.353 Y-32.325 I5.781 J-5.781
G1 X69.718
G3 X73.543 Y-28.5 I0 J3.825
G1 Y-16.5
G2 X76.8 Y-12.427 I4.175 J0
G3 X77.28 Y-11.668 I-0.14 J0.619
G1 X77.141 Y-11.049
X77.119 Y-10.952 Z-18.992
X77.098 Y-10.857 Z-18.969
X77.077 Y-10.767 Z-18.931
X77.059 Y-10.684 Z-18.879
X77.042 Y-10.611 Z-18.814
X77.028 Y-10.547 Z-18.738
X77.016 Y-10.497 Z-18.653
X77.008 Y-10.459 Z-18.561
X77.003 Y-10.437 Z-18.464
X77.001 Y-10.429 Z-18.365
G0 Z5
X75.762 Y-10.708
G1 Z-17 F50
Z-19.365
X75.764 Y-10.716 Z-19.464 F300
X75.769 Y-10.739 Z-19.561
X75.777 Y-10.776 Z-19.653
X75.789 Y-10.827 Z-19.738
X75.803 Y-10.89 Z-19.814
X75.82 Y-10.964 Z-19.879
X75.838 Y-11.047 Z-19.931
X75.859 Y-11.136 Z-19.969
X75.88 Y-11.231 Z-19.992
X75.902 Y-11.328 Z-20
X76.041 Y-11.947
G3 X76.8 Y-12.427 I0.619 J0.14
G2 X77.718 Y-12.325 I0.918 J-4.073
G1 X85.218
G2 X87.463 Y-13.255 I0 J-3.175
G1 X87.963 Y-13.755
G2 X88.893 Y-16 I-2.245 J-2.245
G1 Y-45.122
G2 X84.918 Y-49.292 I-4.175 J0
G3 X84.918 Y-131.708 I1.971 J-41.208
G2 X88.893 Y-135.878 I-0.2 J-4.17
G1 Y-165
G2 X87.963 Y-167.245 I-3.175 J0
G1 X87.463 Y-167.745
G2 X85.218 Y-168.675 I-2.245 J2.245
G1 X77.718
G2 X73.543 Y-164.5 I0 J4.175
G1 Y-152.5
G3 X69.718 Y-148.675 I-3.825 J0
G1 X40.353
G2 X34.573 Y-146.281 I0 J8.175
G1 X17.501 Y-129.209
G2 X15.107 Y-123.429 I5.78 J5.781
G1 Y-57.571
G2 X17.501 Y-51.79 I8.175 J0
G1 X34.572 Y-34.719
G2 X40.353 Y-32.325 I5.781 J-5.781
G1 X69.718
G3 X73.543 Y-28.5 I0 J3.825
G1 Y-16.5
G2 X76.8 Y-12.427 I4.175 J0
G3 X77.28 Y-11.668 I-0.14 J0.619
G1 X77.141 Y-11.049
X77.119 Y-10.952 Z-19.992
X77.098 Y-10.857 Z-19.969
X77.077 Y-10.767 Z-19.931
X77.059 Y-10.684 Z-19.879
X77.042 Y-10.611 Z-19.814
X77.028 Y-10.547 Z-19.738
X77.016 Y-10.497 Z-19.653
X77.008 Y-10.459 Z-19.561
X77.003 Y-10.437 Z-19.464
X77.001 Y-10.429 Z-19.365
G0 Z5
X75.762 Y-10.708
G1 Z-18 F50
Z-20.365
X75.764 Y-10.716 Z-20.464 F300
X75.769 Y-10.739 Z-20.561
X75.777 Y-10.776 Z-20.653
X75.789 Y-10.827 Z-20.738
X75.803 Y-10.89 Z-20.814
X75.82 Y-10.964 Z-20.879
X75.838 Y-11.047 Z-20.931
X75.859 Y-11.136 Z-20.969
X75.88 Y-11.231 Z-20.992
X75.902 Y-11.328 Z-21
X76.041 Y-11.947
G3 X76.8 Y-12.427 I0.619 J0.14
G2 X77.718 Y-12.325 I0.918 J-4.073
G1 X85.218
G2 X87.463 Y-13.255 I0 J-3.175
G1 X87.963 Y-13.755
G2 X88.893 Y-16 I-2.245 J-2.245
G1 Y-45.122
G2 X84.918 Y-49.292 I-4.175 J0
G3 X84.918 Y-131.708 I1.971 J-41.208
G2 X88.893 Y-135.878 I-0.2 J-4.17
G1 Y-165
G2 X87.963 Y-167.245 I-3.175 J0
G1 X87.463 Y-167.745
G2 X85.218 Y-168.675 I-2.245 J2.245
G1 X77.718
G2 X73.543 Y-164.5 I0 J4.175
G1 Y-152.5
G3 X69.718 Y-148.675 I-3.825 J0
G1 X40.353
G2 X34.573 Y-146.281 I0 J8.175
G1 X17.501 Y-129.209
G2 X15.107 Y-123.429 I5.78 J5.781
G1 Y-57.571
G2 X17.501 Y-51.79 I8.175 J0
G1 X34.572 Y-34.719
G2 X40.353 Y-32.325 I5.781 J-5.781
G1 X69.718
G3 X73.543 Y-28.5 I0 J3.825
G1 Y-16.5
G2 X76.8 Y-12.427 I4.175 J0
G3 X77.28 Y-11.668 I-0.14 J0.619
G1 X77.141 Y-11.049
X77.119 Y-10.952 Z-20.992
X77.098 Y-10.857 Z-20.969
X77.077 Y-10.767 Z-20.931
X77.059 Y-10.684 Z-20.879
X77.042 Y-10.611 Z-20.814
X77.028 Y-10.547 Z-20.738
X77.016 Y-10.497 Z-20.653
X77.008 Y-10.459 Z-20.561
X77.003 Y-10.437 Z-20.464
X77.001 Y-10.429 Z-20.365
G0 Z5
X75.762 Y-10.708
G1 Z-19 F50
Z-21.365
X75.764 Y-10.716 Z-21.464 F300
X75.769 Y-10.739 Z-21.561
X75.777 Y-10.776 Z-21.653
X75.789 Y-10.827 Z-21.738
X75.803 Y-10.89 Z-21.814
X75.82 Y-10.964 Z-21.879
X75.838 Y-11.047 Z-21.931
X75.859 Y-11.136 Z-21.969
X75.88 Y-11.231 Z-21.992
X75.902 Y-11.328 Z-22
X76.041 Y-11.947
G3 X76.8 Y-12.427 I0.619 J0.14
G2 X77.718 Y-12.325 I0.918 J-4.073
G1 X85.218
G2 X87.463 Y-13.255 I0 J-3.175
G1 X87.963 Y-13.755
G2 X88.893 Y-16 I-2.245 J-2.245
G1 Y-45.122
G2 X84.918 Y-49.292 I-4.175 J0
G3 X84.918 Y-131.708 I1.971 J-41.208
G2 X88.893 Y-135.878 I-0.2 J-4.17
G1 Y-165
G2 X87.963 Y-167.245 I-3.175 J0
G1 X87.463 Y-167.745
G2 X85.218 Y-168.675 I-2.245 J2.245
G1 X77.718
G2 X73.543 Y-164.5 I0 J4.175
G1 Y-152.5
G3 X69.718 Y-148.675 I-3.825 J0
G1 X40.353
G2 X34.573 Y-146.281 I0 J8.175
G1 X17.501 Y-129.209
G2 X15.107 Y-123.429 I5.78 J5.781
G1 Y-57.571
G2 X17.501 Y-51.79 I8.175 J0
G1 X34.572 Y-34.719
G2 X40.353 Y-32.325 I5.781 J-5.781
G1 X69.718
G3 X73.543 Y-28.5 I0 J3.825
G1 Y-16.5
G2 X76.8 Y-12.427 I4.175 J0
G3 X77.28 Y-11.668 I-0.14 J0.619
G1 X77.141 Y-11.049
X77.119 Y-10.952 Z-21.992
X77.098 Y-10.857 Z-21.969
X77.077 Y-10.767 Z-21.931
X77.059 Y-10.684 Z-21.879
X77.042 Y-10.611 Z-21.814
X77.028 Y-10.547 Z-21.738
X77.016 Y-10.497 Z-21.653
X77.008 Y-10.459 Z-21.561
X77.003 Y-10.437 Z-21.464
X77.001 Y-10.429 Z-21.365
G0 Z5
X75.762 Y-10.708
G1 Z-20 F50
Z-22.365
X75.764 Y-10.716 Z-22.464 F300
X75.769 Y-10.739 Z-22.561
X75.777 Y-10.776 Z-22.653
X75.789 Y-10.827 Z-22.738
X75.803 Y-10.89 Z-22.814
X75.82 Y-10.964 Z-22.879
X75.838 Y-11.047 Z-22.931
X75.859 Y-11.136 Z-22.969
X75.88 Y-11.231 Z-22.992
X75.902 Y-11.328 Z-23
X76.041 Y-11.947
G3 X76.8 Y-12.427 I0.619 J0.14
G2 X77.718 Y-12.325 I0.918 J-4.073
G1 X85.218
G2 X87.463 Y-13.255 I0 J-3.175
G1 X87.963 Y-13.755
G2 X88.893 Y-16 I-2.245 J-2.245
G1 Y-45.122
G2 X84.918 Y-49.292 I-4.175 J0
G3 X84.918 Y-131.708 I1.971 J-41.208
G2 X88.893 Y-135.878 I-0.2 J-4.17
G1 Y-165
G2 X87.963 Y-167.245 I-3.175 J0
G1 X87.463 Y-167.745
G2 X85.218 Y-168.675 I-2.245 J2.245
G1 X77.718
G2 X73.543 Y-164.5 I0 J4.175
G1 Y-152.5
G3 X69.718 Y-148.675 I-3.825 J0
G1 X40.353
G2 X34.573 Y-146.281 I0 J8.175
G1 X17.501 Y-129.209
G2 X15.107 Y-123.429 I5.78 J5.781
G1 Y-57.571
G2 X17.501 Y-51.79 I8.175 J0
G1 X34.572 Y-34.719
G2 X40.353 Y-32.325 I5.781 J-5.781
G1 X69.718
G3 X73.543 Y-28.5 I0 J3.825
G1 Y-16.5
G2 X76.8 Y-12.427 I4.175 J0
G3 X77.28 Y-11.668 I-0.14 J0.619
G1 X77.141 Y-11.049
X77.119 Y-10.952 Z-22.992
X77.098 Y-10.857 Z-22.969
X77.077 Y-10.767 Z-22.931
X77.059 Y-10.684 Z-22.879
X77.042 Y-10.611 Z-22.814
X77.028 Y-10.547 Z-22.738
X77.016 Y-10.497 Z-22.653
X77.008 Y-10.459 Z-22.561
X77.003 Y-10.437 Z-22.464
X77.001 Y-10.429 Z-22.365
G0 Z5
X75.762 Y-10.708
G1 Z-21 F50
Z-23.365
X75.764 Y-10.716 Z-23.464 F300
X75.769 Y-10.739 Z-23.561
X75.777 Y-10.776 Z-23.653
X75.789 Y-10.827 Z-23.738
X75.803 Y-10.89 Z-23.814
X75.82 Y-10.964 Z-23.879
X75.838 Y-11.047 Z-23.931
X75.859 Y-11.136 Z-23.969
X75.88 Y-11.231 Z-23.992
X75.902 Y-11.328 Z-24
X76.041 Y-11.947
G3 X76.8 Y-12.427 I0.619 J0.14
G2 X77.718 Y-12.325 I0.918 J-4.073
G1 X85.218
G2 X87.463 Y-13.255 I0 J-3.175
G1 X87.963 Y-13.755
G2 X88.893 Y-16 I-2.245 J-2.245
G1 Y-45.122
G2 X84.918 Y-49.292 I-4.175 J0
G3 X84.918 Y-131.708 I1.971 J-41.208
G2 X88.893 Y-135.878 I-0.2 J-4.17
G1 Y-165
G2 X87.963 Y-167.245 I-3.175 J0
G1 X87.463 Y-167.745
G2 X85.218 Y-168.675 I-2.245 J2.245
G1 X77.718
G2 X73.543 Y-164.5 I0 J4.175
G1 Y-152.5
G3 X69.718 Y-148.675 I-3.825 J0
G1 X40.353
G2 X34.573 Y-146.281 I0 J8.175
G1 X17.501 Y-129.209
G2 X15.107 Y-123.429 I5.78 J5.781
G1 Y-57.571
G2 X17.501 Y-51.79 I8.175 J0
G1 X34.572 Y-34.719
G2 X40.353 Y-32.325 I5.781 J-5.781
G1 X69.718
G3 X73.543 Y-28.5 I0 J3.825
G1 Y-16.5
G2 X76.8 Y-12.427 I4.175 J0
G3 X77.28 Y-11.668 I-0.14 J0.619
G1 X77.141 Y-11.049
X77.119 Y-10.952 Z-23.992
X77.098 Y-10.857 Z-23.969
X77.077 Y-10.767 Z-23.931
X77.059 Y-10.684 Z-23.879
X77.042 Y-10.611 Z-23.814
X77.028 Y-10.547 Z-23.738
X77.016 Y-10.497 Z-23.653
X77.008 Y-10.459 Z-23.561
X77.003 Y-10.437 Z-23.464
X77.001 Y-10.429 Z-23.365
G0 Z15
M9
G28 G91 Z0
G90
G28 G91 X0 Y0
G90
M5
M30
