(1001)
(T1  D=6.35 CR=0 - ZMIN=-25.5 - flat end mill)
G90 G94
G17
G21
G28 G91 Z0
G90

(2D Contour3)
T1
S18000 M3
G54
M8
G0 X12.2 Y-169.541
Z15
Z5
G1 Z1.5 F2286
Z0.135
X12.206 Y-169.536 Z0.036 F1000
X12.222 Y-169.519 Z-0.061
X12.249 Y-169.492 Z-0.153
X12.286 Y-169.455 Z-0.238
X12.332 Y-169.41 Z-0.314
X12.385 Y-169.356 Z-0.379
X12.445 Y-169.296 Z-0.431
X12.51 Y-169.231 Z-0.469
X12.579 Y-169.162 Z-0.492
X12.649 Y-169.092 Z-0.5
X13.098 Y-168.643
G3 X13.098 Y-167.745 I-0.449 J0.449
G1 X12.598 Y-167.245
G2 X11.668 Y-165 I2.245 J2.245
G1 Y-135.893
G2 X15.675 Y-131.722 I4.175 J0
G3 X15.675 Y-49.278 I-1.661 J41.222
G2 X11.668 Y-45.107 I0.168 J4.172
G1 Y-16
G2 X12.598 Y-13.755 I3.175 J0
G1 X13.098 Y-13.255
G2 X15.343 Y-12.325 I2.245 J-2.245
G1 X22.843
G2 X27.018 Y-16.5 I0 J-4.175
G1 Y-28.5
G3 X30.843 Y-32.325 I3.825 J0
G1 X53.687
G2 X73.582 Y-52.22 I0 J-19.895
G1 Y-128.78
G2 X53.687 Y-148.675 I-19.895 J0
G1 X30.843
G3 X27.018 Y-152.5 I0 J-3.825
G1 Y-164.5
G2 X22.843 Y-168.675 I-4.175 J0
G1 X15.343
G2 X13.098 Y-167.745 I0 J3.175
G3 X12.2 Y-167.745 I-0.449 J-0.449
G1 X11.751 Y-168.194
X11.681 Y-168.264 Z-0.492
X11.612 Y-168.333 Z-0.469
X11.547 Y-168.398 Z-0.431
X11.487 Y-168.458 Z-0.379
X11.433 Y-168.512 Z-0.314
X11.388 Y-168.557 Z-0.238
X11.351 Y-168.594 Z-0.153
X11.324 Y-168.621 Z-0.061
X11.308 Y-168.638 Z0.036
X11.302 Y-168.643 Z0.135
G0 Z5
X12.2 Y-169.541
G1 Z1 F2286
Z-0.365
X12.206 Y-169.536 Z-0.464 F1000
X12.222 Y-169.519 Z-0.561
X12.249 Y-169.492 Z-0.653
X12.286 Y-169.455 Z-0.738
X12.332 Y-169.41 Z-0.814
X12.385 Y-169.356 Z-0.879
X12.445 Y-169.296 Z-0.931
X12.51 Y-169.231 Z-0.969
X12.579 Y-169.162 Z-0.992
X12.649 Y-169.092 Z-1
X13.098 Y-168.643
G3 X13.098 Y-167.745 I-0.449 J0.449
G1 X12.598 Y-167.245
G2 X11.668 Y-165 I2.245 J2.245
G1 Y-135.893
G2 X15.675 Y-131.722 I4.175 J0
G3 X15.675 Y-49.278 I-1.661 J41.222
G2 X11.668 Y-45.107 I0.168 J4.172
G1 Y-16
G2 X12.598 Y-13.755 I3.175 J0
G1 X13.098 Y-13.255
G2 X15.343 Y-12.325 I2.245 J-2.245
G1 X22.843
G2 X27.018 Y-16.5 I0 J-4.175
G1 Y-28.5
G3 X30.843 Y-32.325 I3.825 J0
G1 X53.687
G2 X73.582 Y-52.22 I0 J-19.895
G1 Y-128.78
G2 X53.687 Y-148.675 I-19.895 J0
G1 X30.843
G3 X27.018 Y-152.5 I0 J-3.825
G1 Y-164.5
G2 X22.843 Y-168.675 I-4.175 J0
G1 X15.343
G2 X13.098 Y-167.745 I0 J3.175
G3 X12.2 Y-167.745 I-0.449 J-0.449
G1 X11.751 Y-168.194
X11.681 Y-168.264 Z-0.992
X11.612 Y-168.333 Z-0.969
X11.547 Y-168.398 Z-0.931
X11.487 Y-168.458 Z-0.879
X11.433 Y-168.512 Z-0.814
X11.388 Y-168.557 Z-0.738
X11.351 Y-168.594 Z-0.653
X11.324 Y-168.621 Z-0.561
X11.308 Y-168.638 Z-0.464
X11.302 Y-168.643 Z-0.365
G0 Z5
X12.2 Y-169.541
G1 Z0.5 F2286
Z-0.865
X12.206 Y-169.536 Z-0.964 F1000
X12.222 Y-169.519 Z-1.061
X12.249 Y-169.492 Z-1.153
X12.286 Y-169.455 Z-1.238
X12.332 Y-169.41 Z-1.314
X12.385 Y-169.356 Z-1.379
X12.445 Y-169.296 Z-1.431
X12.51 Y-169.231 Z-1.469
X12.579 Y-169.162 Z-1.492
X12.649 Y-169.092 Z-1.5
X13.098 Y-168.643
G3 X13.098 Y-167.745 I-0.449 J0.449
G1 X12.598 Y-167.245
G2 X11.668 Y-165 I2.245 J2.245
G1 Y-135.893
G2 X15.675 Y-131.722 I4.175 J0
G3 X15.675 Y-49.278 I-1.661 J41.222
G2 X11.668 Y-45.107 I0.168 J4.172
G1 Y-16
G2 X12.598 Y-13.755 I3.175 J0
G1 X13.098 Y-13.255
G2 X15.343 Y-12.325 I2.245 J-2.245
G1 X22.843
G2 X27.018 Y-16.5 I0 J-4.175
G1 Y-28.5
G3 X30.843 Y-32.325 I3.825 J0
G1 X53.687
G2 X73.582 Y-52.22 I0 J-19.895
G1 Y-128.78
G2 X53.687 Y-148.675 I-19.895 J0
G1 X30.843
G3 X27.018 Y-152.5 I0 J-3.825
G1 Y-164.5
G2 X22.843 Y-168.675 I-4.175 J0
G1 X15.343
G2 X13.098 Y-167.745 I0 J3.175
G3 X12.2 Y-167.745 I-0.449 J-0.449
G1 X11.751 Y-168.194
X11.681 Y-168.264 Z-1.492
X11.612 Y-168.333 Z-1.469
X11.547 Y-168.398 Z-1.431
X11.487 Y-168.458 Z-1.379
X11.433 Y-168.512 Z-1.314
X11.388 Y-168.557 Z-1.238
X11.351 Y-168.594 Z-1.153
X11.324 Y-168.621 Z-1.061
X11.308 Y-168.638 Z-0.964
X11.302 Y-168.643 Z-0.865
G0 Z5
X12.2 Y-169.541
G1 Z0 F2286
Z-1.365
X12.206 Y-169.536 Z-1.464 F1000
X12.222 Y-169.519 Z-1.561
X12.249 Y-169.492 Z-1.653
X12.286 Y-169.455 Z-1.738
X12.332 Y-169.41 Z-1.814
X12.385 Y-169.356 Z-1.879
X12.445 Y-169.296 Z-1.931
X12.51 Y-169.231 Z-1.969
X12.579 Y-169.162 Z-1.992
X12.649 Y-169.092 Z-2
X13.098 Y-168.643
G3 X13.098 Y-167.745 I-0.449 J0.449
G1 X12.598 Y-167.245
G2 X11.668 Y-165 I2.245 J2.245
G1 Y-135.893
G2 X15.675 Y-131.722 I4.175 J0
G3 X15.675 Y-49.278 I-1.661 J41.222
G2 X11.668 Y-45.107 I0.168 J4.172
G1 Y-16
G2 X12.598 Y-13.755 I3.175 J0
G1 X13.098 Y-13.255
G2 X15.343 Y-12.325 I2.245 J-2.245
G1 X22.843
G2 X27.018 Y-16.5 I0 J-4.175
G1 Y-28.5
G3 X30.843 Y-32.325 I3.825 J0
G1 X53.687
G2 X73.582 Y-52.22 I0 J-19.895
G1 Y-128.78
G2 X53.687 Y-148.675 I-19.895 J0
G1 X30.843
G3 X27.018 Y-152.5 I0 J-3.825
G1 Y-164.5
G2 X22.843 Y-168.675 I-4.175 J0
G1 X15.343
G2 X13.098 Y-167.745 I0 J3.175
G3 X12.2 Y-167.745 I-0.449 J-0.449
G1 X11.751 Y-168.194
X11.681 Y-168.264 Z-1.992
X11.612 Y-168.333 Z-1.969
X11.547 Y-168.398 Z-1.931
X11.487 Y-168.458 Z-1.879
X11.433 Y-168.512 Z-1.814
X11.388 Y-168.557 Z-1.738
X11.351 Y-168.594 Z-1.653
X11.324 Y-168.621 Z-1.561
X11.308 Y-168.638 Z-1.464
X11.302 Y-168.643 Z-1.365
G0 Z5
X12.2 Y-169.541
G1 Z-0.5 F2286
Z-1.865
X12.206 Y-169.536 Z-1.964 F1000
X12.222 Y-169.519 Z-2.061
X12.249 Y-169.492 Z-2.153
X12.286 Y-169.455 Z-2.238
X12.332 Y-169.41 Z-2.314
X12.385 Y-169.356 Z-2.379
X12.445 Y-169.296 Z-2.431
X12.51 Y-169.231 Z-2.469
X12.579 Y-169.162 Z-2.492
X12.649 Y-169.092 Z-2.5
X13.098 Y-168.643
G3 X13.098 Y-167.745 I-0.449 J0.449
G1 X12.598 Y-167.245
G2 X11.668 Y-165 I2.245 J2.245
G1 Y-135.893
G2 X15.675 Y-131.722 I4.175 J0
G3 X15.675 Y-49.278 I-1.661 J41.222
G2 X11.668 Y-45.107 I0.168 J4.172
G1 Y-16
G2 X12.598 Y-13.755 I3.175 J0
G1 X13.098 Y-13.255
G2 X15.343 Y-12.325 I2.245 J-2.245
G1 X22.843
G2 X27.018 Y-16.5 I0 J-4.175
G1 Y-28.5
G3 X30.843 Y-32.325 I3.825 J0
G1 X53.687
G2 X73.582 Y-52.22 I0 J-19.895
G1 Y-128.78
G2 X53.687 Y-148.675 I-19.895 J0
G1 X30.843
G3 X27.018 Y-152.5 I0 J-3.825
G1 Y-164.5
G2 X22.843 Y-168.675 I-4.175 J0
G1 X15.343
G2 X13.098 Y-167.745 I0 J3.175
G3 X12.2 Y-167.745 I-0.449 J-0.449
G1 X11.751 Y-168.194
X11.681 Y-168.264 Z-2.492
X11.612 Y-168.333 Z-2.469
X11.547 Y-168.398 Z-2.431
X11.487 Y-168.458 Z-2.379
X11.433 Y-168.512 Z-2.314
X11.388 Y-168.557 Z-2.238
X11.351 Y-168.594 Z-2.153
X11.324 Y-168.621 Z-2.061
X11.308 Y-168.638 Z-1.964
X11.302 Y-168.643 Z-1.865
G0 Z5
X12.2 Y-169.541
G1 Z-1 F2286
Z-2.365
X12.206 Y-169.536 Z-2.464 F1000
X12.222 Y-169.519 Z-2.561
X12.249 Y-169.492 Z-2.653
X12.286 Y-169.455 Z-2.738
X12.332 Y-169.41 Z-2.814
X12.385 Y-169.356 Z-2.879
X12.445 Y-169.296 Z-2.931
X12.51 Y-169.231 Z-2.969
X12.579 Y-169.162 Z-2.992
X12.649 Y-169.092 Z-3
X13.098 Y-168.643
G3 X13.098 Y-167.745 I-0.449 J0.449
G1 X12.598 Y-167.245
G2 X11.668 Y-165 I2.245 J2.245
G1 Y-135.893
G2 X15.675 Y-131.722 I4.175 J0
G3 X15.675 Y-49.278 I-1.661 J41.222
G2 X11.668 Y-45.107 I0.168 J4.172
G1 Y-16
G2 X12.598 Y-13.755 I3.175 J0
G1 X13.098 Y-13.255
G2 X15.343 Y-12.325 I2.245 J-2.245
G1 X22.843
G2 X27.018 Y-16.5 I0 J-4.175
G1 Y-28.5
G3 X30.843 Y-32.325 I3.825 J0
G1 X53.687
G2 X73.582 Y-52.22 I0 J-19.895
G1 Y-128.78
G2 X53.687 Y-148.675 I-19.895 J0
G1 X30.843
G3 X27.018 Y-152.5 I0 J-3.825
G1 Y-164.5
G2 X22.843 Y-168.675 I-4.175 J0
G1 X15.343
G2 X13.098 Y-167.745 I0 J3.175
G3 X12.2 Y-167.745 I-0.449 J-0.449
G1 X11.751 Y-168.194
X11.681 Y-168.264 Z-2.992
X11.612 Y-168.333 Z-2.969
X11.547 Y-168.398 Z-2.931
X11.487 Y-168.458 Z-2.879
X11.433 Y-168.512 Z-2.814
X11.388 Y-168.557 Z-2.738
X11.351 Y-168.594 Z-2.653
X11.324 Y-168.621 Z-2.561
X11.308 Y-168.638 Z-2.464
X11.302 Y-168.643 Z-2.365
G0 Z5
X12.2 Y-169.541
G1 Z-1.5 F2286
Z-2.865
X12.206 Y-169.536 Z-2.964 F1000
X12.222 Y-169.519 Z-3.061
X12.249 Y-169.492 Z-3.153
X12.286 Y-169.455 Z-3.238
X12.332 Y-169.41 Z-3.314
X12.385 Y-169.356 Z-3.379
X12.445 Y-169.296 Z-3.431
X12.51 Y-169.231 Z-3.469
X12.579 Y-169.162 Z-3.492
X12.649 Y-169.092 Z-3.5
X13.098 Y-168.643
G3 X13.098 Y-167.745 I-0.449 J0.449
G1 X12.598 Y-167.245
G2 X11.668 Y-165 I2.245 J2.245
G1 Y-135.893
G2 X15.675 Y-131.722 I4.175 J0
G3 X15.675 Y-49.278 I-1.661 J41.222
G2 X11.668 Y-45.107 I0.168 J4.172
G1 Y-16
G2 X12.598 Y-13.755 I3.175 J0
G1 X13.098 Y-13.255
G2 X15.343 Y-12.325 I2.245 J-2.245
G1 X22.843
G2 X27.018 Y-16.5 I0 J-4.175
G1 Y-28.5
G3 X30.843 Y-32.325 I3.825 J0
G1 X53.687
G2 X73.582 Y-52.22 I0 J-19.895
G1 Y-128.78
G2 X53.687 Y-148.675 I-19.895 J0
G1 X30.843
G3 X27.018 Y-152.5 I0 J-3.825
G1 Y-164.5
G2 X22.843 Y-168.675 I-4.175 J0
G1 X15.343
G2 X13.098 Y-167.745 I0 J3.175
G3 X12.2 Y-167.745 I-0.449 J-0.449
G1 X11.751 Y-168.194
X11.681 Y-168.264 Z-3.492
X11.612 Y-168.333 Z-3.469
X11.547 Y-168.398 Z-3.431
X11.487 Y-168.458 Z-3.379
X11.433 Y-168.512 Z-3.314
X11.388 Y-168.557 Z-3.238
X11.351 Y-168.594 Z-3.153
X11.324 Y-168.621 Z-3.061
X11.308 Y-168.638 Z-2.964
X11.302 Y-168.643 Z-2.865
G0 Z5
X12.2 Y-169.541
G1 Z-2 F2286
Z-3.365
X12.206 Y-169.536 Z-3.464 F1000
X12.222 Y-169.519 Z-3.561
X12.249 Y-169.492 Z-3.653
X12.286 Y-169.455 Z-3.738
X12.332 Y-169.41 Z-3.814
X12.385 Y-169.356 Z-3.879
X12.445 Y-169.296 Z-3.931
X12.51 Y-169.231 Z-3.969
X12.579 Y-169.162 Z-3.992
X12.649 Y-169.092 Z-4
X13.098 Y-168.643
G3 X13.098 Y-167.745 I-0.449 J0.449
G1 X12.598 Y-167.245
G2 X11.668 Y-165 I2.245 J2.245
G1 Y-135.893
G2 X15.675 Y-131.722 I4.175 J0
G3 X15.675 Y-49.278 I-1.661 J41.222
G2 X11.668 Y-45.107 I0.168 J4.172
G1 Y-16
G2 X12.598 Y-13.755 I3.175 J0
G1 X13.098 Y-13.255
G2 X15.343 Y-12.325 I2.245 J-2.245
G1 X22.843
G2 X27.018 Y-16.5 I0 J-4.175
G1 Y-28.5
G3 X30.843 Y-32.325 I3.825 J0
G1 X53.687
G2 X73.582 Y-52.22 I0 J-19.895
G1 Y-128.78
G2 X53.687 Y-148.675 I-19.895 J0
G1 X30.843
G3 X27.018 Y-152.5 I0 J-3.825
G1 Y-164.5
G2 X22.843 Y-168.675 I-4.175 J0
G1 X15.343
G2 X13.098 Y-167.745 I0 J3.175
G3 X12.2 Y-167.745 I-0.449 J-0.449
G1 X11.751 Y-168.194
X11.681 Y-168.264 Z-3.992
X11.612 Y-168.333 Z-3.969
X11.547 Y-168.398 Z-3.931
X11.487 Y-168.458 Z-3.879
X11.433 Y-168.512 Z-3.814
X11.388 Y-168.557 Z-3.738
X11.351 Y-168.594 Z-3.653
X11.324 Y-168.621 Z-3.561
X11.308 Y-168.638 Z-3.464
X11.302 Y-168.643 Z-3.365
G0 Z5
X12.2 Y-169.541
G1 Z-2.5 F2286
Z-3.865
X12.206 Y-169.536 Z-3.964 F1000
X12.222 Y-169.519 Z-4.061
X12.249 Y-169.492 Z-4.153
X12.286 Y-169.455 Z-4.238
X12.332 Y-169.41 Z-4.314
X12.385 Y-169.356 Z-4.379
X12.445 Y-169.296 Z-4.431
X12.51 Y-169.231 Z-4.469
X12.579 Y-169.162 Z-4.492
X12.649 Y-169.092 Z-4.5
X13.098 Y-168.643
G3 X13.098 Y-167.745 I-0.449 J0.449
G1 X12.598 Y-167.245
G2 X11.668 Y-165 I2.245 J2.245
G1 Y-135.893
G2 X15.675 Y-131.722 I4.175 J0
G3 X15.675 Y-49.278 I-1.661 J41.222
G2 X11.668 Y-45.107 I0.168 J4.172
G1 Y-16
G2 X12.598 Y-13.755 I3.175 J0
G1 X13.098 Y-13.255
G2 X15.343 Y-12.325 I2.245 J-2.245
G1 X22.843
G2 X27.018 Y-16.5 I0 J-4.175
G1 Y-28.5
G3 X30.843 Y-32.325 I3.825 J0
G1 X53.687
G2 X73.582 Y-52.22 I0 J-19.895
G1 Y-128.78
G2 X53.687 Y-148.675 I-19.895 J0
G1 X30.843
G3 X27.018 Y-152.5 I0 J-3.825
G1 Y-164.5
G2 X22.843 Y-168.675 I-4.175 J0
G1 X15.343
G2 X13.098 Y-167.745 I0 J3.175
G3 X12.2 Y-167.745 I-0.449 J-0.449
G1 X11.751 Y-168.194
X11.681 Y-168.264 Z-4.492
X11.612 Y-168.333 Z-4.469
X11.547 Y-168.398 Z-4.431
X11.487 Y-168.458 Z-4.379
X11.433 Y-168.512 Z-4.314
X11.388 Y-168.557 Z-4.238
X11.351 Y-168.594 Z-4.153
X11.324 Y-168.621 Z-4.061
X11.308 Y-168.638 Z-3.964
X11.302 Y-168.643 Z-3.865
G0 Z5
X12.2 Y-169.541
G1 Z-3 F2286
Z-4.365
X12.206 Y-169.536 Z-4.464 F1000
X12.222 Y-169.519 Z-4.561
X12.249 Y-169.492 Z-4.653
X12.286 Y-169.455 Z-4.738
X12.332 Y-169.41 Z-4.814
X12.385 Y-169.356 Z-4.879
X12.445 Y-169.296 Z-4.931
X12.51 Y-169.231 Z-4.969
X12.579 Y-169.162 Z-4.992
X12.649 Y-169.092 Z-5
X13.098 Y-168.643
G3 X13.098 Y-167.745 I-0.449 J0.449
G1 X12.598 Y-167.245
G2 X11.668 Y-165 I2.245 J2.245
G1 Y-135.893
G2 X15.675 Y-131.722 I4.175 J0
G3 X15.675 Y-49.278 I-1.661 J41.222
G2 X11.668 Y-45.107 I0.168 J4.172
G1 Y-16
G2 X12.598 Y-13.755 I3.175 J0
G1 X13.098 Y-13.255
G2 X15.343 Y-12.325 I2.245 J-2.245
G1 X22.843
G2 X27.018 Y-16.5 I0 J-4.175
G1 Y-28.5
G3 X30.843 Y-32.325 I3.825 J0
G1 X53.687
G2 X73.582 Y-52.22 I0 J-19.895
G1 Y-128.78
G2 X53.687 Y-148.675 I-19.895 J0
G1 X30.843
G3 X27.018 Y-152.5 I0 J-3.825
G1 Y-164.5
G2 X22.843 Y-168.675 I-4.175 J0
G1 X15.343
G2 X13.098 Y-167.745 I0 J3.175
G3 X12.2 Y-167.745 I-0.449 J-0.449
G1 X11.751 Y-168.194
X11.681 Y-168.264 Z-4.992
X11.612 Y-168.333 Z-4.969
X11.547 Y-168.398 Z-4.931
X11.487 Y-168.458 Z-4.879
X11.433 Y-168.512 Z-4.814
X11.388 Y-168.557 Z-4.738
X11.351 Y-168.594 Z-4.653
X11.324 Y-168.621 Z-4.561
X11.308 Y-168.638 Z-4.464
X11.302 Y-168.643 Z-4.365
G0 Z5
X12.2 Y-169.541
G1 Z-3.5 F2286
Z-4.865
X12.206 Y-169.536 Z-4.964 F1000
X12.222 Y-169.519 Z-5.061
X12.249 Y-169.492 Z-5.153
X12.286 Y-169.455 Z-5.238
X12.332 Y-169.41 Z-5.314
X12.385 Y-169.356 Z-5.379
X12.445 Y-169.296 Z-5.431
X12.51 Y-169.231 Z-5.469
X12.579 Y-169.162 Z-5.492
X12.649 Y-169.092 Z-5.5
X13.098 Y-168.643
G3 X13.098 Y-167.745 I-0.449 J0.449
G1 X12.598 Y-167.245
G2 X11.668 Y-165 I2.245 J2.245
G1 Y-135.893
G2 X15.675 Y-131.722 I4.175 J0
G3 X15.675 Y-49.278 I-1.661 J41.222
G2 X11.668 Y-45.107 I0.168 J4.172
G1 Y-16
G2 X12.598 Y-13.755 I3.175 J0
G1 X13.098 Y-13.255
G2 X15.343 Y-12.325 I2.245 J-2.245
G1 X22.843
G2 X27.018 Y-16.5 I0 J-4.175
G1 Y-28.5
G3 X30.843 Y-32.325 I3.825 J0
G1 X53.687
G2 X73.582 Y-52.22 I0 J-19.895
G1 Y-128.78
G2 X53.687 Y-148.675 I-19.895 J0
G1 X30.843
G3 X27.018 Y-152.5 I0 J-3.825
G1 Y-164.5
G2 X22.843 Y-168.675 I-4.175 J0
G1 X15.343
G2 X13.098 Y-167.745 I0 J3.175
G3 X12.2 Y-167.745 I-0.449 J-0.449
G1 X11.751 Y-168.194
X11.681 Y-168.264 Z-5.492
X11.612 Y-168.333 Z-5.469
X11.547 Y-168.398 Z-5.431
X11.487 Y-168.458 Z-5.379
X11.433 Y-168.512 Z-5.314
X11.388 Y-168.557 Z-5.238
X11.351 Y-168.594 Z-5.153
X11.324 Y-168.621 Z-5.061
X11.308 Y-168.638 Z-4.964
X11.302 Y-168.643 Z-4.865
G0 Z5
X12.2 Y-169.541
G1 Z-4 F2286
Z-5.365
X12.206 Y-169.536 Z-5.464 F1000
X12.222 Y-169.519 Z-5.561
X12.249 Y-169.492 Z-5.653
X12.286 Y-169.455 Z-5.738
X12.332 Y-169.41 Z-5.814
X12.385 Y-169.356 Z-5.879
X12.445 Y-169.296 Z-5.931
X12.51 Y-169.231 Z-5.969
X12.579 Y-169.162 Z-5.992
X12.649 Y-169.092 Z-6
X13.098 Y-168.643
G3 X13.098 Y-167.745 I-0.449 J0.449
G1 X12.598 Y-167.245
G2 X11.668 Y-165 I2.245 J2.245
G1 Y-135.893
G2 X15.675 Y-131.722 I4.175 J0
G3 X15.675 Y-49.278 I-1.661 J41.222
G2 X11.668 Y-45.107 I0.168 J4.172
G1 Y-16
G2 X12.598 Y-13.755 I3.175 J0
G1 X13.098 Y-13.255
G2 X15.343 Y-12.325 I2.245 J-2.245
G1 X22.843
G2 X27.018 Y-16.5 I0 J-4.175
G1 Y-28.5
G3 X30.843 Y-32.325 I3.825 J0
G1 X53.687
G2 X73.582 Y-52.22 I0 J-19.895
G1 Y-128.78
G2 X53.687 Y-148.675 I-19.895 J0
G1 X30.843
G3 X27.018 Y-152.5 I0 J-3.825
G1 Y-164.5
G2 X22.843 Y-168.675 I-4.175 J0
G1 X15.343
G2 X13.098 Y-167.745 I0 J3.175
G3 X12.2 Y-167.745 I-0.449 J-0.449
G1 X11.751 Y-168.194
X11.681 Y-168.264 Z-5.992
X11.612 Y-168.333 Z-5.969
X11.547 Y-168.398 Z-5.931
X11.487 Y-168.458 Z-5.879
X11.433 Y-168.512 Z-5.814
X11.388 Y-168.557 Z-5.738
X11.351 Y-168.594 Z-5.653
X11.324 Y-168.621 Z-5.561
X11.308 Y-168.638 Z-5.464
X11.302 Y-168.643 Z-5.365
G0 Z5
X12.2 Y-169.541
G1 Z-4.5 F2286
Z-5.865
X12.206 Y-169.536 Z-5.964 F1000
X12.222 Y-169.519 Z-6.061
X12.249 Y-169.492 Z-6.153
X12.286 Y-169.455 Z-6.238
X12.332 Y-169.41 Z-6.314
X12.385 Y-169.356 Z-6.379
X12.445 Y-169.296 Z-6.431
X12.51 Y-169.231 Z-6.469
X12.579 Y-169.162 Z-6.492
X12.649 Y-169.092 Z-6.5
X13.098 Y-168.643
G3 X13.098 Y-167.745 I-0.449 J0.449
G1 X12.598 Y-167.245
G2 X11.668 Y-165 I2.245 J2.245
G1 Y-135.893
G2 X15.675 Y-131.722 I4.175 J0
G3 X15.675 Y-49.278 I-1.661 J41.222
G2 X11.668 Y-45.107 I0.168 J4.172
G1 Y-16
G2 X12.598 Y-13.755 I3.175 J0
G1 X13.098 Y-13.255
G2 X15.343 Y-12.325 I2.245 J-2.245
G1 X22.843
G2 X27.018 Y-16.5 I0 J-4.175
G1 Y-28.5
G3 X30.843 Y-32.325 I3.825 J0
G1 X53.687
G2 X73.582 Y-52.22 I0 J-19.895
G1 Y-128.78
G2 X53.687 Y-148.675 I-19.895 J0
G1 X30.843
G3 X27.018 Y-152.5 I0 J-3.825
G1 Y-164.5
G2 X22.843 Y-168.675 I-4.175 J0
G1 X15.343
G2 X13.098 Y-167.745 I0 J3.175
G3 X12.2 Y-167.745 I-0.449 J-0.449
G1 X11.751 Y-168.194
X11.681 Y-168.264 Z-6.492
X11.612 Y-168.333 Z-6.469
X11.547 Y-168.398 Z-6.431
X11.487 Y-168.458 Z-6.379
X11.433 Y-168.512 Z-6.314
X11.388 Y-168.557 Z-6.238
X11.351 Y-168.594 Z-6.153
X11.324 Y-168.621 Z-6.061
X11.308 Y-168.638 Z-5.964
X11.302 Y-168.643 Z-5.865
G0 Z5
X12.2 Y-169.541
G1 Z-5 F2286
Z-6.365
X12.206 Y-169.536 Z-6.464 F1000
X12.222 Y-169.519 Z-6.561
X12.249 Y-169.492 Z-6.653
X12.286 Y-169.455 Z-6.738
X12.332 Y-169.41 Z-6.814
X12.385 Y-169.356 Z-6.879
X12.445 Y-169.296 Z-6.931
X12.51 Y-169.231 Z-6.969
X12.579 Y-169.162 Z-6.992
X12.649 Y-169.092 Z-7
X13.098 Y-168.643
G3 X13.098 Y-167.745 I-0.449 J0.449
G1 X12.598 Y-167.245
G2 X11.668 Y-165 I2.245 J2.245
G1 Y-135.893
G2 X15.675 Y-131.722 I4.175 J0
G3 X15.675 Y-49.278 I-1.661 J41.222
G2 X11.668 Y-45.107 I0.168 J4.172
G1 Y-16
G2 X12.598 Y-13.755 I3.175 J0
G1 X13.098 Y-13.255
G2 X15.343 Y-12.325 I2.245 J-2.245
G1 X22.843
G2 X27.018 Y-16.5 I0 J-4.175
G1 Y-28.5
G3 X30.843 Y-32.325 I3.825 J0
G1 X53.687
G2 X73.582 Y-52.22 I0 J-19.895
G1 Y-128.78
G2 X53.687 Y-148.675 I-19.895 J0
G1 X30.843
G3 X27.018 Y-152.5 I0 J-3.825
G1 Y-164.5
G2 X22.843 Y-168.675 I-4.175 J0
G1 X15.343
G2 X13.098 Y-167.745 I0 J3.175
G3 X12.2 Y-167.745 I-0.449 J-0.449
G1 X11.751 Y-168.194
X11.681 Y-168.264 Z-6.992
X11.612 Y-168.333 Z-6.969
X11.547 Y-168.398 Z-6.931
X11.487 Y-168.458 Z-6.879
X11.433 Y-168.512 Z-6.814
X11.388 Y-168.557 Z-6.738
X11.351 Y-168.594 Z-6.653
X11.324 Y-168.621 Z-6.561
X11.308 Y-168.638 Z-6.464
X11.302 Y-168.643 Z-6.365
G0 Z5
X12.2 Y-169.541
G1 Z-5.5 F2286
Z-6.865
X12.206 Y-169.536 Z-6.964 F1000
X12.222 Y-169.519 Z-7.061
X12.249 Y-169.492 Z-7.153
X12.286 Y-169.455 Z-7.238
X12.332 Y-169.41 Z-7.314
X12.385 Y-169.356 Z-7.379
X12.445 Y-169.296 Z-7.431
X12.51 Y-169.231 Z-7.469
X12.579 Y-169.162 Z-7.492
X12.649 Y-169.092 Z-7.5
X13.098 Y-168.643
G3 X13.098 Y-167.745 I-0.449 J0.449
G1 X12.598 Y-167.245
G2 X11.668 Y-165 I2.245 J2.245
G1 Y-135.893
G2 X15.675 Y-131.722 I4.175 J0
G3 X15.675 Y-49.278 I-1.661 J41.222
G2 X11.668 Y-45.107 I0.168 J4.172
G1 Y-16
G2 X12.598 Y-13.755 I3.175 J0
G1 X13.098 Y-13.255
G2 X15.343 Y-12.325 I2.245 J-2.245
G1 X22.843
G2 X27.018 Y-16.5 I0 J-4.175
G1 Y-28.5
G3 X30.843 Y-32.325 I3.825 J0
G1 X53.687
G2 X73.582 Y-52.22 I0 J-19.895
G1 Y-128.78
G2 X53.687 Y-148.675 I-19.895 J0
G1 X30.843
G3 X27.018 Y-152.5 I0 J-3.825
G1 Y-164.5
G2 X22.843 Y-168.675 I-4.175 J0
G1 X15.343
G2 X13.098 Y-167.745 I0 J3.175
G3 X12.2 Y-167.745 I-0.449 J-0.449
G1 X11.751 Y-168.194
X11.681 Y-168.264 Z-7.492
X11.612 Y-168.333 Z-7.469
X11.547 Y-168.398 Z-7.431
X11.487 Y-168.458 Z-7.379
X11.433 Y-168.512 Z-7.314
X11.388 Y-168.557 Z-7.238
X11.351 Y-168.594 Z-7.153
X11.324 Y-168.621 Z-7.061
X11.308 Y-168.638 Z-6.964
X11.302 Y-168.643 Z-6.865
G0 Z5
X12.2 Y-169.541
G1 Z-6 F2286
Z-7.365
X12.206 Y-169.536 Z-7.464 F1000
X12.222 Y-169.519 Z-7.561
X12.249 Y-169.492 Z-7.653
X12.286 Y-169.455 Z-7.738
X12.332 Y-169.41 Z-7.814
X12.385 Y-169.356 Z-7.879
X12.445 Y-169.296 Z-7.931
X12.51 Y-169.231 Z-7.969
X12.579 Y-169.162 Z-7.992
X12.649 Y-169.092 Z-8
X13.098 Y-168.643
G3 X13.098 Y-167.745 I-0.449 J0.449
G1 X12.598 Y-167.245
G2 X11.668 Y-165 I2.245 J2.245
G1 Y-135.893
G2 X15.675 Y-131.722 I4.175 J0
G3 X15.675 Y-49.278 I-1.661 J41.222
G2 X11.668 Y-45.107 I0.168 J4.172
G1 Y-16
G2 X12.598 Y-13.755 I3.175 J0
G1 X13.098 Y-13.255
G2 X15.343 Y-12.325 I2.245 J-2.245
G1 X22.843
G2 X27.018 Y-16.5 I0 J-4.175
G1 Y-28.5
G3 X30.843 Y-32.325 I3.825 J0
G1 X53.687
G2 X73.582 Y-52.22 I0 J-19.895
G1 Y-128.78
G2 X53.687 Y-148.675 I-19.895 J0
G1 X30.843
G3 X27.018 Y-152.5 I0 J-3.825
G1 Y-164.5
G2 X22.843 Y-168.675 I-4.175 J0
G1 X15.343
G2 X13.098 Y-167.745 I0 J3.175
G3 X12.2 Y-167.745 I-0.449 J-0.449
G1 X11.751 Y-168.194
X11.681 Y-168.264 Z-7.992
X11.612 Y-168.333 Z-7.969
X11.547 Y-168.398 Z-7.931
X11.487 Y-168.458 Z-7.879
X11.433 Y-168.512 Z-7.814
X11.388 Y-168.557 Z-7.738
X11.351 Y-168.594 Z-7.653
X11.324 Y-168.621 Z-7.561
X11.308 Y-168.638 Z-7.464
X11.302 Y-168.643 Z-7.365
G0 Z5
X12.2 Y-169.541
G1 Z-6.5 F2286
Z-7.865
X12.206 Y-169.536 Z-7.964 F1000
X12.222 Y-169.519 Z-8.061
X12.249 Y-169.492 Z-8.153
X12.286 Y-169.455 Z-8.238
X12.332 Y-169.41 Z-8.314
X12.385 Y-169.356 Z-8.379
X12.445 Y-169.296 Z-8.431
X12.51 Y-169.231 Z-8.469
X12.579 Y-169.162 Z-8.492
X12.649 Y-169.092 Z-8.5
X13.098 Y-168.643
G3 X13.098 Y-167.745 I-0.449 J0.449
G1 X12.598 Y-167.245
G2 X11.668 Y-165 I2.245 J2.245
G1 Y-135.893
G2 X15.675 Y-131.722 I4.175 J0
G3 X15.675 Y-49.278 I-1.661 J41.222
G2 X11.668 Y-45.107 I0.168 J4.172
G1 Y-16
G2 X12.598 Y-13.755 I3.175 J0
G1 X13.098 Y-13.255
G2 X15.343 Y-12.325 I2.245 J-2.245
G1 X22.843
G2 X27.018 Y-16.5 I0 J-4.175
G1 Y-28.5
G3 X30.843 Y-32.325 I3.825 J0
G1 X53.687
G2 X73.582 Y-52.22 I0 J-19.895
G1 Y-128.78
G2 X53.687 Y-148.675 I-19.895 J0
G1 X30.843
G3 X27.018 Y-152.5 I0 J-3.825
G1 Y-164.5
G2 X22.843 Y-168.675 I-4.175 J0
G1 X15.343
G2 X13.098 Y-167.745 I0 J3.175
G3 X12.2 Y-167.745 I-0.449 J-0.449
G1 X11.751 Y-168.194
X11.681 Y-168.264 Z-8.492
X11.612 Y-168.333 Z-8.469
X11.547 Y-168.398 Z-8.431
X11.487 Y-168.458 Z-8.379
X11.433 Y-168.512 Z-8.314
X11.388 Y-168.557 Z-8.238
X11.351 Y-168.594 Z-8.153
X11.324 Y-168.621 Z-8.061
X11.308 Y-168.638 Z-7.964
X11.302 Y-168.643 Z-7.865
G0 Z5
X12.2 Y-169.541
G1 Z-7 F2286
Z-8.365
X12.206 Y-169.536 Z-8.464 F1000
X12.222 Y-169.519 Z-8.561
X12.249 Y-169.492 Z-8.653
X12.286 Y-169.455 Z-8.738
X12.332 Y-169.41 Z-8.814
X12.385 Y-169.356 Z-8.879
X12.445 Y-169.296 Z-8.931
X12.51 Y-169.231 Z-8.969
X12.579 Y-169.162 Z-8.992
X12.649 Y-169.092 Z-9
X13.098 Y-168.643
G3 X13.098 Y-167.745 I-0.449 J0.449
G1 X12.598 Y-167.245
G2 X11.668 Y-165 I2.245 J2.245
G1 Y-135.893
G2 X15.675 Y-131.722 I4.175 J0
G3 X15.675 Y-49.278 I-1.661 J41.222
G2 X11.668 Y-45.107 I0.168 J4.172
G1 Y-16
G2 X12.598 Y-13.755 I3.175 J0
G1 X13.098 Y-13.255
G2 X15.343 Y-12.325 I2.245 J-2.245
G1 X22.843
G2 X27.018 Y-16.5 I0 J-4.175
G1 Y-28.5
G3 X30.843 Y-32.325 I3.825 J0
G1 X53.687
G2 X73.582 Y-52.22 I0 J-19.895
G1 Y-128.78
G2 X53.687 Y-148.675 I-19.895 J0
G1 X30.843
G3 X27.018 Y-152.5 I0 J-3.825
G1 Y-164.5
G2 X22.843 Y-168.675 I-4.175 J0
G1 X15.343
G2 X13.098 Y-167.745 I0 J3.175
G3 X12.2 Y-167.745 I-0.449 J-0.449
G1 X11.751 Y-168.194
X11.681 Y-168.264 Z-8.992
X11.612 Y-168.333 Z-8.969
X11.547 Y-168.398 Z-8.931
X11.487 Y-168.458 Z-8.879
X11.433 Y-168.512 Z-8.814
X11.388 Y-168.557 Z-8.738
X11.351 Y-168.594 Z-8.653
X11.324 Y-168.621 Z-8.561
X11.308 Y-168.638 Z-8.464
X11.302 Y-168.643 Z-8.365
G0 Z5
X12.2 Y-169.541
G1 Z-7.5 F2286
Z-8.865
X12.206 Y-169.536 Z-8.964 F1000
X12.222 Y-169.519 Z-9.061
X12.249 Y-169.492 Z-9.153
X12.286 Y-169.455 Z-9.238
X12.332 Y-169.41 Z-9.314
X12.385 Y-169.356 Z-9.379
X12.445 Y-169.296 Z-9.431
X12.51 Y-169.231 Z-9.469
X12.579 Y-169.162 Z-9.492
X12.649 Y-169.092 Z-9.5
X13.098 Y-168.643
G3 X13.098 Y-167.745 I-0.449 J0.449
G1 X12.598 Y-167.245
G2 X11.668 Y-165 I2.245 J2.245
G1 Y-135.893
G2 X15.675 Y-131.722 I4.175 J0
G3 X15.675 Y-49.278 I-1.661 J41.222
G2 X11.668 Y-45.107 I0.168 J4.172
G1 Y-16
G2 X12.598 Y-13.755 I3.175 J0
G1 X13.098 Y-13.255
G2 X15.343 Y-12.325 I2.245 J-2.245
G1 X22.843
G2 X27.018 Y-16.5 I0 J-4.175
G1 Y-28.5
G3 X30.843 Y-32.325 I3.825 J0
G1 X53.687
G2 X73.582 Y-52.22 I0 J-19.895
G1 Y-128.78
G2 X53.687 Y-148.675 I-19.895 J0
G1 X30.843
G3 X27.018 Y-152.5 I0 J-3.825
G1 Y-164.5
G2 X22.843 Y-168.675 I-4.175 J0
G1 X15.343
G2 X13.098 Y-167.745 I0 J3.175
G3 X12.2 Y-167.745 I-0.449 J-0.449
G1 X11.751 Y-168.194
X11.681 Y-168.264 Z-9.492
X11.612 Y-168.333 Z-9.469
X11.547 Y-168.398 Z-9.431
X11.487 Y-168.458 Z-9.379
X11.433 Y-168.512 Z-9.314
X11.388 Y-168.557 Z-9.238
X11.351 Y-168.594 Z-9.153
X11.324 Y-168.621 Z-9.061
X11.308 Y-168.638 Z-8.964
X11.302 Y-168.643 Z-8.865
G0 Z5
X12.2 Y-169.541
G1 Z-8 F2286
Z-9.365
X12.206 Y-169.536 Z-9.464 F1000
X12.222 Y-169.519 Z-9.561
X12.249 Y-169.492 Z-9.653
X12.286 Y-169.455 Z-9.738
X12.332 Y-169.41 Z-9.814
X12.385 Y-169.356 Z-9.879
X12.445 Y-169.296 Z-9.931
X12.51 Y-169.231 Z-9.969
X12.579 Y-169.162 Z-9.992
X12.649 Y-169.092 Z-10
X13.098 Y-168.643
G3 X13.098 Y-167.745 I-0.449 J0.449
G1 X12.598 Y-167.245
G2 X11.668 Y-165 I2.245 J2.245
G1 Y-135.893
G2 X15.675 Y-131.722 I4.175 J0
G3 X15.675 Y-49.278 I-1.661 J41.222
G2 X11.668 Y-45.107 I0.168 J4.172
G1 Y-16
G2 X12.598 Y-13.755 I3.175 J0
G1 X13.098 Y-13.255
G2 X15.343 Y-12.325 I2.245 J-2.245
G1 X22.843
G2 X27.018 Y-16.5 I0 J-4.175
G1 Y-28.5
G3 X30.843 Y-32.325 I3.825 J0
G1 X53.687
G2 X73.582 Y-52.22 I0 J-19.895
G1 Y-128.78
G2 X53.687 Y-148.675 I-19.895 J0
G1 X30.843
G3 X27.018 Y-152.5 I0 J-3.825
G1 Y-164.5
G2 X22.843 Y-168.675 I-4.175 J0
G1 X15.343
G2 X13.098 Y-167.745 I0 J3.175
G3 X12.2 Y-167.745 I-0.449 J-0.449
G1 X11.751 Y-168.194
X11.681 Y-168.264 Z-9.992
X11.612 Y-168.333 Z-9.969
X11.547 Y-168.398 Z-9.931
X11.487 Y-168.458 Z-9.879
X11.433 Y-168.512 Z-9.814
X11.388 Y-168.557 Z-9.738
X11.351 Y-168.594 Z-9.653
X11.324 Y-168.621 Z-9.561
X11.308 Y-168.638 Z-9.464
X11.302 Y-168.643 Z-9.365
G0 Z5
X12.2 Y-169.541
G1 Z-8.5 F2286
Z-9.865
X12.206 Y-169.536 Z-9.964 F1000
X12.222 Y-169.519 Z-10.061
X12.249 Y-169.492 Z-10.153
X12.286 Y-169.455 Z-10.238
X12.332 Y-169.41 Z-10.314
X12.385 Y-169.356 Z-10.379
X12.445 Y-169.296 Z-10.431
X12.51 Y-169.231 Z-10.469
X12.579 Y-169.162 Z-10.492
X12.649 Y-169.092 Z-10.5
X13.098 Y-168.643
G3 X13.098 Y-167.745 I-0.449 J0.449
G1 X12.598 Y-167.245
G2 X11.668 Y-165 I2.245 J2.245
G1 Y-135.893
G2 X15.675 Y-131.722 I4.175 J0
G3 X15.675 Y-49.278 I-1.661 J41.222
G2 X11.668 Y-45.107 I0.168 J4.172
G1 Y-16
G2 X12.598 Y-13.755 I3.175 J0
G1 X13.098 Y-13.255
G2 X15.343 Y-12.325 I2.245 J-2.245
G1 X22.843
G2 X27.018 Y-16.5 I0 J-4.175
G1 Y-28.5
G3 X30.843 Y-32.325 I3.825 J0
G1 X53.687
G2 X73.582 Y-52.22 I0 J-19.895
G1 Y-128.78
G2 X53.687 Y-148.675 I-19.895 J0
G1 X30.843
G3 X27.018 Y-152.5 I0 J-3.825
G1 Y-164.5
G2 X22.843 Y-168.675 I-4.175 J0
G1 X15.343
G2 X13.098 Y-167.745 I0 J3.175
G3 X12.2 Y-167.745 I-0.449 J-0.449
G1 X11.751 Y-168.194
X11.681 Y-168.264 Z-10.492
X11.612 Y-168.333 Z-10.469
X11.547 Y-168.398 Z-10.431
X11.487 Y-168.458 Z-10.379
X11.433 Y-168.512 Z-10.314
X11.388 Y-168.557 Z-10.238
X11.351 Y-168.594 Z-10.153
X11.324 Y-168.621 Z-10.061
X11.308 Y-168.638 Z-9.964
X11.302 Y-168.643 Z-9.865
G0 Z5
X12.2 Y-169.541
G1 Z-9 F2286
Z-10.365
X12.206 Y-169.536 Z-10.464 F1000
X12.222 Y-169.519 Z-10.561
X12.249 Y-169.492 Z-10.653
X12.286 Y-169.455 Z-10.738
X12.332 Y-169.41 Z-10.814
X12.385 Y-169.356 Z-10.879
X12.445 Y-169.296 Z-10.931
X12.51 Y-169.231 Z-10.969
X12.579 Y-169.162 Z-10.992
X12.649 Y-169.092 Z-11
X13.098 Y-168.643
G3 X13.098 Y-167.745 I-0.449 J0.449
G1 X12.598 Y-167.245
G2 X11.668 Y-165 I2.245 J2.245
G1 Y-135.893
G2 X15.675 Y-131.722 I4.175 J0
G3 X15.675 Y-49.278 I-1.661 J41.222
G2 X11.668 Y-45.107 I0.168 J4.172
G1 Y-16
G2 X12.598 Y-13.755 I3.175 J0
G1 X13.098 Y-13.255
G2 X15.343 Y-12.325 I2.245 J-2.245
G1 X22.843
G2 X27.018 Y-16.5 I0 J-4.175
G1 Y-28.5
G3 X30.843 Y-32.325 I3.825 J0
G1 X53.687
G2 X73.582 Y-52.22 I0 J-19.895
G1 Y-128.78
G2 X53.687 Y-148.675 I-19.895 J0
G1 X30.843
G3 X27.018 Y-152.5 I0 J-3.825
G1 Y-164.5
G2 X22.843 Y-168.675 I-4.175 J0
G1 X15.343
G2 X13.098 Y-167.745 I0 J3.175
G3 X12.2 Y-167.745 I-0.449 J-0.449
G1 X11.751 Y-168.194
X11.681 Y-168.264 Z-10.992
X11.612 Y-168.333 Z-10.969
X11.547 Y-168.398 Z-10.931
X11.487 Y-168.458 Z-10.879
X11.433 Y-168.512 Z-10.814
X11.388 Y-168.557 Z-10.738
X11.351 Y-168.594 Z-10.653
X11.324 Y-168.621 Z-10.561
X11.308 Y-168.638 Z-10.464
X11.302 Y-168.643 Z-10.365
G0 Z5
X12.2 Y-169.541
G1 Z-9.5 F2286
Z-10.865
X12.206 Y-169.536 Z-10.964 F1000
X12.222 Y-169.519 Z-11.061
X12.249 Y-169.492 Z-11.153
X12.286 Y-169.455 Z-11.238
X12.332 Y-169.41 Z-11.314
X12.385 Y-169.356 Z-11.379
X12.445 Y-169.296 Z-11.431
X12.51 Y-169.231 Z-11.469
X12.579 Y-169.162 Z-11.492
X12.649 Y-169.092 Z-11.5
X13.098 Y-168.643
G3 X13.098 Y-167.745 I-0.449 J0.449
G1 X12.598 Y-167.245
G2 X11.668 Y-165 I2.245 J2.245
G1 Y-135.893
G2 X15.675 Y-131.722 I4.175 J0
G3 X15.675 Y-49.278 I-1.661 J41.222
G2 X11.668 Y-45.107 I0.168 J4.172
G1 Y-16
G2 X12.598 Y-13.755 I3.175 J0
G1 X13.098 Y-13.255
G2 X15.343 Y-12.325 I2.245 J-2.245
G1 X22.843
G2 X27.018 Y-16.5 I0 J-4.175
G1 Y-28.5
G3 X30.843 Y-32.325 I3.825 J0
G1 X53.687
G2 X73.582 Y-52.22 I0 J-19.895
G1 Y-128.78
G2 X53.687 Y-148.675 I-19.895 J0
G1 X30.843
G3 X27.018 Y-152.5 I0 J-3.825
G1 Y-164.5
G2 X22.843 Y-168.675 I-4.175 J0
G1 X15.343
G2 X13.098 Y-167.745 I0 J3.175
G3 X12.2 Y-167.745 I-0.449 J-0.449
G1 X11.751 Y-168.194
X11.681 Y-168.264 Z-11.492
X11.612 Y-168.333 Z-11.469
X11.547 Y-168.398 Z-11.431
X11.487 Y-168.458 Z-11.379
X11.433 Y-168.512 Z-11.314
X11.388 Y-168.557 Z-11.238
X11.351 Y-168.594 Z-11.153
X11.324 Y-168.621 Z-11.061
X11.308 Y-168.638 Z-10.964
X11.302 Y-168.643 Z-10.865
G0 Z5
X12.2 Y-169.541
G1 Z-10 F2286
Z-11.365
X12.206 Y-169.536 Z-11.464 F1000
X12.222 Y-169.519 Z-11.561
X12.249 Y-169.492 Z-11.653
X12.286 Y-169.455 Z-11.738
X12.332 Y-169.41 Z-11.814
X12.385 Y-169.356 Z-11.879
X12.445 Y-169.296 Z-11.931
X12.51 Y-169.231 Z-11.969
X12.579 Y-169.162 Z-11.992
X12.649 Y-169.092 Z-12
X13.098 Y-168.643
G3 X13.098 Y-167.745 I-0.449 J0.449
G1 X12.598 Y-167.245
G2 X11.668 Y-165 I2.245 J2.245
G1 Y-135.893
G2 X15.675 Y-131.722 I4.175 J0
G3 X15.675 Y-49.278 I-1.661 J41.222
G2 X11.668 Y-45.107 I0.168 J4.172
G1 Y-16
G2 X12.598 Y-13.755 I3.175 J0
G1 X13.098 Y-13.255
G2 X15.343 Y-12.325 I2.245 J-2.245
G1 X22.843
G2 X27.018 Y-16.5 I0 J-4.175
G1 Y-28.5
G3 X30.843 Y-32.325 I3.825 J0
G1 X53.687
G2 X73.582 Y-52.22 I0 J-19.895
G1 Y-128.78
G2 X53.687 Y-148.675 I-19.895 J0
G1 X30.843
G3 X27.018 Y-152.5 I0 J-3.825
G1 Y-164.5
G2 X22.843 Y-168.675 I-4.175 J0
G1 X15.343
G2 X13.098 Y-167.745 I0 J3.175
G3 X12.2 Y-167.745 I-0.449 J-0.449
G1 X11.751 Y-168.194
X11.681 Y-168.264 Z-11.992
X11.612 Y-168.333 Z-11.969
X11.547 Y-168.398 Z-11.931
X11.487 Y-168.458 Z-11.879
X11.433 Y-168.512 Z-11.814
X11.388 Y-168.557 Z-11.738
X11.351 Y-168.594 Z-11.653
X11.324 Y-168.621 Z-11.561
X11.308 Y-168.638 Z-11.464
X11.302 Y-168.643 Z-11.365
G0 Z5
X12.2 Y-169.541
G1 Z-10.5 F2286
Z-11.865
X12.206 Y-169.536 Z-11.964 F1000
X12.222 Y-169.519 Z-12.061
X12.249 Y-169.492 Z-12.153
X12.286 Y-169.455 Z-12.238
X12.332 Y-169.41 Z-12.314
X12.385 Y-169.356 Z-12.379
X12.445 Y-169.296 Z-12.431
X12.51 Y-169.231 Z-12.469
X12.579 Y-169.162 Z-12.492
X12.649 Y-169.092 Z-12.5
X13.098 Y-168.643
G3 X13.098 Y-167.745 I-0.449 J0.449
G1 X12.598 Y-167.245
G2 X11.668 Y-165 I2.245 J2.245
G1 Y-135.893
G2 X15.675 Y-131.722 I4.175 J0
G3 X15.675 Y-49.278 I-1.661 J41.222
G2 X11.668 Y-45.107 I0.168 J4.172
G1 Y-16
G2 X12.598 Y-13.755 I3.175 J0
G1 X13.098 Y-13.255
G2 X15.343 Y-12.325 I2.245 J-2.245
G1 X22.843
G2 X27.018 Y-16.5 I0 J-4.175
G1 Y-28.5
G3 X30.843 Y-32.325 I3.825 J0
G1 X53.687
G2 X73.582 Y-52.22 I0 J-19.895
G1 Y-128.78
G2 X53.687 Y-148.675 I-19.895 J0
G1 X30.843
G3 X27.018 Y-152.5 I0 J-3.825
G1 Y-164.5
G2 X22.843 Y-168.675 I-4.175 J0
G1 X15.343
G2 X13.098 Y-167.745 I0 J3.175
G3 X12.2 Y-167.745 I-0.449 J-0.449
G1 X11.751 Y-168.194
X11.681 Y-168.264 Z-12.492
X11.612 Y-168.333 Z-12.469
X11.547 Y-168.398 Z-12.431
X11.487 Y-168.458 Z-12.379
X11.433 Y-168.512 Z-12.314
X11.388 Y-168.557 Z-12.238
X11.351 Y-168.594 Z-12.153
X11.324 Y-168.621 Z-12.061
X11.308 Y-168.638 Z-11.964
X11.302 Y-168.643 Z-11.865
G0 Z5
X12.2 Y-169.541
G1 Z-11 F2286
Z-12.365
X12.206 Y-169.536 Z-12.464 F1000
X12.222 Y-169.519 Z-12.561
X12.249 Y-169.492 Z-12.653
X12.286 Y-169.455 Z-12.738
X12.332 Y-169.41 Z-12.814
X12.385 Y-169.356 Z-12.879
X12.445 Y-169.296 Z-12.931
X12.51 Y-169.231 Z-12.969
X12.579 Y-169.162 Z-12.992
X12.649 Y-169.092 Z-13
X13.098 Y-168.643
G3 X13.098 Y-167.745 I-0.449 J0.449
G1 X12.598 Y-167.245
G2 X11.668 Y-165 I2.245 J2.245
G1 Y-135.893
G2 X15.675 Y-131.722 I4.175 J0
G3 X15.675 Y-49.278 I-1.661 J41.222
G2 X11.668 Y-45.107 I0.168 J4.172
G1 Y-16
G2 X12.598 Y-13.755 I3.175 J0
G1 X13.098 Y-13.255
G2 X15.343 Y-12.325 I2.245 J-2.245
G1 X22.843
G2 X27.018 Y-16.5 I0 J-4.175
G1 Y-28.5
G3 X30.843 Y-32.325 I3.825 J0
G1 X53.687
G2 X73.582 Y-52.22 I0 J-19.895
G1 Y-128.78
G2 X53.687 Y-148.675 I-19.895 J0
G1 X30.843
G3 X27.018 Y-152.5 I0 J-3.825
G1 Y-164.5
G2 X22.843 Y-168.675 I-4.175 J0
G1 X15.343
G2 X13.098 Y-167.745 I0 J3.175
G3 X12.2 Y-167.745 I-0.449 J-0.449
G1 X11.751 Y-168.194
X11.681 Y-168.264 Z-12.992
X11.612 Y-168.333 Z-12.969
X11.547 Y-168.398 Z-12.931
X11.487 Y-168.458 Z-12.879
X11.433 Y-168.512 Z-12.814
X11.388 Y-168.557 Z-12.738
X11.351 Y-168.594 Z-12.653
X11.324 Y-168.621 Z-12.561
X11.308 Y-168.638 Z-12.464
X11.302 Y-168.643 Z-12.365
G0 Z5
X12.2 Y-169.541
G1 Z-11.5 F2286
Z-12.865
X12.206 Y-169.536 Z-12.964 F1000
X12.222 Y-169.519 Z-13.061
X12.249 Y-169.492 Z-13.153
X12.286 Y-169.455 Z-13.238
X12.332 Y-169.41 Z-13.314
X12.385 Y-169.356 Z-13.379
X12.445 Y-169.296 Z-13.431
X12.51 Y-169.231 Z-13.469
X12.579 Y-169.162 Z-13.492
X12.649 Y-169.092 Z-13.5
X13.098 Y-168.643
G3 X13.098 Y-167.745 I-0.449 J0.449
G1 X12.598 Y-167.245
G2 X11.668 Y-165 I2.245 J2.245
G1 Y-135.893
G2 X15.675 Y-131.722 I4.175 J0
G3 X15.675 Y-49.278 I-1.661 J41.222
G2 X11.668 Y-45.107 I0.168 J4.172
G1 Y-16
G2 X12.598 Y-13.755 I3.175 J0
G1 X13.098 Y-13.255
G2 X15.343 Y-12.325 I2.245 J-2.245
G1 X22.843
G2 X27.018 Y-16.5 I0 J-4.175
G1 Y-28.5
G3 X30.843 Y-32.325 I3.825 J0
G1 X53.687
G2 X73.582 Y-52.22 I0 J-19.895
G1 Y-128.78
G2 X53.687 Y-148.675 I-19.895 J0
G1 X30.843
G3 X27.018 Y-152.5 I0 J-3.825
G1 Y-164.5
G2 X22.843 Y-168.675 I-4.175 J0
G1 X15.343
G2 X13.098 Y-167.745 I0 J3.175
G3 X12.2 Y-167.745 I-0.449 J-0.449
G1 X11.751 Y-168.194
X11.681 Y-168.264 Z-13.492
X11.612 Y-168.333 Z-13.469
X11.547 Y-168.398 Z-13.431
X11.487 Y-168.458 Z-13.379
X11.433 Y-168.512 Z-13.314
X11.388 Y-168.557 Z-13.238
X11.351 Y-168.594 Z-13.153
X11.324 Y-168.621 Z-13.061
X11.308 Y-168.638 Z-12.964
X11.302 Y-168.643 Z-12.865
G0 Z5
X12.2 Y-169.541
G1 Z-12 F2286
Z-13.365
X12.206 Y-169.536 Z-13.464 F1000
X12.222 Y-169.519 Z-13.561
X12.249 Y-169.492 Z-13.653
X12.286 Y-169.455 Z-13.738
X12.332 Y-169.41 Z-13.814
X12.385 Y-169.356 Z-13.879
X12.445 Y-169.296 Z-13.931
X12.51 Y-169.231 Z-13.969
X12.579 Y-169.162 Z-13.992
X12.649 Y-169.092 Z-14
X13.098 Y-168.643
G3 X13.098 Y-167.745 I-0.449 J0.449
G1 X12.598 Y-167.245
G2 X11.668 Y-165 I2.245 J2.245
G1 Y-135.893
G2 X15.675 Y-131.722 I4.175 J0
G3 X15.675 Y-49.278 I-1.661 J41.222
G2 X11.668 Y-45.107 I0.168 J4.172
G1 Y-16
G2 X12.598 Y-13.755 I3.175 J0
G1 X13.098 Y-13.255
G2 X15.343 Y-12.325 I2.245 J-2.245
G1 X22.843
G2 X27.018 Y-16.5 I0 J-4.175
G1 Y-28.5
G3 X30.843 Y-32.325 I3.825 J0
G1 X53.687
G2 X73.582 Y-52.22 I0 J-19.895
G1 Y-128.78
G2 X53.687 Y-148.675 I-19.895 J0
G1 X30.843
G3 X27.018 Y-152.5 I0 J-3.825
G1 Y-164.5
G2 X22.843 Y-168.675 I-4.175 J0
G1 X15.343
G2 X13.098 Y-167.745 I0 J3.175
G3 X12.2 Y-167.745 I-0.449 J-0.449
G1 X11.751 Y-168.194
X11.681 Y-168.264 Z-13.992
X11.612 Y-168.333 Z-13.969
X11.547 Y-168.398 Z-13.931
X11.487 Y-168.458 Z-13.879
X11.433 Y-168.512 Z-13.814
X11.388 Y-168.557 Z-13.738
X11.351 Y-168.594 Z-13.653
X11.324 Y-168.621 Z-13.561
X11.308 Y-168.638 Z-13.464
X11.302 Y-168.643 Z-13.365
G0 Z5
X12.2 Y-169.541
G1 Z-12.5 F2286
Z-13.865
X12.206 Y-169.536 Z-13.964 F1000
X12.222 Y-169.519 Z-14.061
X12.249 Y-169.492 Z-14.153
X12.286 Y-169.455 Z-14.238
X12.332 Y-169.41 Z-14.314
X12.385 Y-169.356 Z-14.379
X12.445 Y-169.296 Z-14.431
X12.51 Y-169.231 Z-14.469
X12.579 Y-169.162 Z-14.492
X12.649 Y-169.092 Z-14.5
X13.098 Y-168.643
G3 X13.098 Y-167.745 I-0.449 J0.449
G1 X12.598 Y-167.245
G2 X11.668 Y-165 I2.245 J2.245
G1 Y-135.893
G2 X15.675 Y-131.722 I4.175 J0
G3 X15.675 Y-49.278 I-1.661 J41.222
G2 X11.668 Y-45.107 I0.168 J4.172
G1 Y-16
G2 X12.598 Y-13.755 I3.175 J0
G1 X13.098 Y-13.255
G2 X15.343 Y-12.325 I2.245 J-2.245
G1 X22.843
G2 X27.018 Y-16.5 I0 J-4.175
G1 Y-28.5
G3 X30.843 Y-32.325 I3.825 J0
G1 X53.687
G2 X73.582 Y-52.22 I0 J-19.895
G1 Y-128.78
G2 X53.687 Y-148.675 I-19.895 J0
G1 X30.843
G3 X27.018 Y-152.5 I0 J-3.825
G1 Y-164.5
G2 X22.843 Y-168.675 I-4.175 J0
G1 X15.343
G2 X13.098 Y-167.745 I0 J3.175
G3 X12.2 Y-167.745 I-0.449 J-0.449
G1 X11.751 Y-168.194
X11.681 Y-168.264 Z-14.492
X11.612 Y-168.333 Z-14.469
X11.547 Y-168.398 Z-14.431
X11.487 Y-168.458 Z-14.379
X11.433 Y-168.512 Z-14.314
X11.388 Y-168.557 Z-14.238
X11.351 Y-168.594 Z-14.153
X11.324 Y-168.621 Z-14.061
X11.308 Y-168.638 Z-13.964
X11.302 Y-168.643 Z-13.865
G0 Z5
X12.2 Y-169.541
G1 Z-13 F2286
Z-14.365
X12.206 Y-169.536 Z-14.464 F1000
X12.222 Y-169.519 Z-14.561
X12.249 Y-169.492 Z-14.653
X12.286 Y-169.455 Z-14.738
X12.332 Y-169.41 Z-14.814
X12.385 Y-169.356 Z-14.879
X12.445 Y-169.296 Z-14.931
X12.51 Y-169.231 Z-14.969
X12.579 Y-169.162 Z-14.992
X12.649 Y-169.092 Z-15
X13.098 Y-168.643
G3 X13.098 Y-167.745 I-0.449 J0.449
G1 X12.598 Y-167.245
G2 X11.668 Y-165 I2.245 J2.245
G1 Y-135.893
G2 X15.675 Y-131.722 I4.175 J0
G3 X15.675 Y-49.278 I-1.661 J41.222
G2 X11.668 Y-45.107 I0.168 J4.172
G1 Y-16
G2 X12.598 Y-13.755 I3.175 J0
G1 X13.098 Y-13.255
G2 X15.343 Y-12.325 I2.245 J-2.245
G1 X22.843
G2 X27.018 Y-16.5 I0 J-4.175
G1 Y-28.5
G3 X30.843 Y-32.325 I3.825 J0
G1 X53.687
G2 X73.582 Y-52.22 I0 J-19.895
G1 Y-128.78
G2 X53.687 Y-148.675 I-19.895 J0
G1 X30.843
G3 X27.018 Y-152.5 I0 J-3.825
G1 Y-164.5
G2 X22.843 Y-168.675 I-4.175 J0
G1 X15.343
G2 X13.098 Y-167.745 I0 J3.175
G3 X12.2 Y-167.745 I-0.449 J-0.449
G1 X11.751 Y-168.194
X11.681 Y-168.264 Z-14.992
X11.612 Y-168.333 Z-14.969
X11.547 Y-168.398 Z-14.931
X11.487 Y-168.458 Z-14.879
X11.433 Y-168.512 Z-14.814
X11.388 Y-168.557 Z-14.738
X11.351 Y-168.594 Z-14.653
X11.324 Y-168.621 Z-14.561
X11.308 Y-168.638 Z-14.464
X11.302 Y-168.643 Z-14.365
G0 Z5
X12.2 Y-169.541
G1 Z-13.5 F2286
Z-14.865
X12.206 Y-169.536 Z-14.964 F1000
X12.222 Y-169.519 Z-15.061
X12.249 Y-169.492 Z-15.153
X12.286 Y-169.455 Z-15.238
X12.332 Y-169.41 Z-15.314
X12.385 Y-169.356 Z-15.379
X12.445 Y-169.296 Z-15.431
X12.51 Y-169.231 Z-15.469
X12.579 Y-169.162 Z-15.492
X12.649 Y-169.092 Z-15.5
X13.098 Y-168.643
G3 X13.098 Y-167.745 I-0.449 J0.449
G1 X12.598 Y-167.245
G2 X11.668 Y-165 I2.245 J2.245
G1 Y-135.893
G2 X15.675 Y-131.722 I4.175 J0
G3 X15.675 Y-49.278 I-1.661 J41.222
G2 X11.668 Y-45.107 I0.168 J4.172
G1 Y-16
G2 X12.598 Y-13.755 I3.175 J0
G1 X13.098 Y-13.255
G2 X15.343 Y-12.325 I2.245 J-2.245
G1 X22.843
G2 X27.018 Y-16.5 I0 J-4.175
G1 Y-28.5
G3 X30.843 Y-32.325 I3.825 J0
G1 X53.687
G2 X73.582 Y-52.22 I0 J-19.895
G1 Y-128.78
G2 X53.687 Y-148.675 I-19.895 J0
G1 X30.843
G3 X27.018 Y-152.5 I0 J-3.825
G1 Y-164.5
G2 X22.843 Y-168.675 I-4.175 J0
G1 X15.343
G2 X13.098 Y-167.745 I0 J3.175
G3 X12.2 Y-167.745 I-0.449 J-0.449
G1 X11.751 Y-168.194
X11.681 Y-168.264 Z-15.492
X11.612 Y-168.333 Z-15.469
X11.547 Y-168.398 Z-15.431
X11.487 Y-168.458 Z-15.379
X11.433 Y-168.512 Z-15.314
X11.388 Y-168.557 Z-15.238
X11.351 Y-168.594 Z-15.153
X11.324 Y-168.621 Z-15.061
X11.308 Y-168.638 Z-14.964
X11.302 Y-168.643 Z-14.865
G0 Z5
X12.2 Y-169.541
G1 Z-14 F2286
Z-15.365
X12.206 Y-169.536 Z-15.464 F1000
X12.222 Y-169.519 Z-15.561
X12.249 Y-169.492 Z-15.653
X12.286 Y-169.455 Z-15.738
X12.332 Y-169.41 Z-15.814
X12.385 Y-169.356 Z-15.879
X12.445 Y-169.296 Z-15.931
X12.51 Y-169.231 Z-15.969
X12.579 Y-169.162 Z-15.992
X12.649 Y-169.092 Z-16
X13.098 Y-168.643
G3 X13.098 Y-167.745 I-0.449 J0.449
G1 X12.598 Y-167.245
G2 X11.668 Y-165 I2.245 J2.245
G1 Y-135.893
G2 X15.675 Y-131.722 I4.175 J0
G3 X15.675 Y-49.278 I-1.661 J41.222
G2 X11.668 Y-45.107 I0.168 J4.172
G1 Y-16
G2 X12.598 Y-13.755 I3.175 J0
G1 X13.098 Y-13.255
G2 X15.343 Y-12.325 I2.245 J-2.245
G1 X22.843
G2 X27.018 Y-16.5 I0 J-4.175
G1 Y-28.5
G3 X30.843 Y-32.325 I3.825 J0
G1 X53.687
G2 X73.582 Y-52.22 I0 J-19.895
G1 Y-128.78
G2 X53.687 Y-148.675 I-19.895 J0
G1 X30.843
G3 X27.018 Y-152.5 I0 J-3.825
G1 Y-164.5
G2 X22.843 Y-168.675 I-4.175 J0
G1 X15.343
G2 X13.098 Y-167.745 I0 J3.175
G3 X12.2 Y-167.745 I-0.449 J-0.449
G1 X11.751 Y-168.194
X11.681 Y-168.264 Z-15.992
X11.612 Y-168.333 Z-15.969
X11.547 Y-168.398 Z-15.931
X11.487 Y-168.458 Z-15.879
X11.433 Y-168.512 Z-15.814
X11.388 Y-168.557 Z-15.738
X11.351 Y-168.594 Z-15.653
X11.324 Y-168.621 Z-15.561
X11.308 Y-168.638 Z-15.464
X11.302 Y-168.643 Z-15.365
G0 Z5
X12.2 Y-169.541
G1 Z-14.5 F2286
Z-15.865
X12.206 Y-169.536 Z-15.964 F1000
X12.222 Y-169.519 Z-16.061
X12.249 Y-169.492 Z-16.153
X12.286 Y-169.455 Z-16.238
X12.332 Y-169.41 Z-16.314
X12.385 Y-169.356 Z-16.379
X12.445 Y-169.296 Z-16.431
X12.51 Y-169.231 Z-16.469
X12.579 Y-169.162 Z-16.492
X12.649 Y-169.092 Z-16.5
X13.098 Y-168.643
G3 X13.098 Y-167.745 I-0.449 J0.449
G1 X12.598 Y-167.245
G2 X11.668 Y-165 I2.245 J2.245
G1 Y-135.893
G2 X15.675 Y-131.722 I4.175 J0
G3 X15.675 Y-49.278 I-1.661 J41.222
G2 X11.668 Y-45.107 I0.168 J4.172
G1 Y-16
G2 X12.598 Y-13.755 I3.175 J0
G1 X13.098 Y-13.255
G2 X15.343 Y-12.325 I2.245 J-2.245
G1 X22.843
G2 X27.018 Y-16.5 I0 J-4.175
G1 Y-28.5
G3 X30.843 Y-32.325 I3.825 J0
G1 X53.687
G2 X73.582 Y-52.22 I0 J-19.895
G1 Y-128.78
G2 X53.687 Y-148.675 I-19.895 J0
G1 X30.843
G3 X27.018 Y-152.5 I0 J-3.825
G1 Y-164.5
G2 X22.843 Y-168.675 I-4.175 J0
G1 X15.343
G2 X13.098 Y-167.745 I0 J3.175
G3 X12.2 Y-167.745 I-0.449 J-0.449
G1 X11.751 Y-168.194
X11.681 Y-168.264 Z-16.492
X11.612 Y-168.333 Z-16.469
X11.547 Y-168.398 Z-16.431
X11.487 Y-168.458 Z-16.379
X11.433 Y-168.512 Z-16.314
X11.388 Y-168.557 Z-16.238
X11.351 Y-168.594 Z-16.153
X11.324 Y-168.621 Z-16.061
X11.308 Y-168.638 Z-15.964
X11.302 Y-168.643 Z-15.865
G0 Z5
X12.2 Y-169.541
G1 Z-15 F2286
Z-16.365
X12.206 Y-169.536 Z-16.464 F1000
X12.222 Y-169.519 Z-16.561
X12.249 Y-169.492 Z-16.653
X12.286 Y-169.455 Z-16.738
X12.332 Y-169.41 Z-16.814
X12.385 Y-169.356 Z-16.879
X12.445 Y-169.296 Z-16.931
X12.51 Y-169.231 Z-16.969
X12.579 Y-169.162 Z-16.992
X12.649 Y-169.092 Z-17
X13.098 Y-168.643
G3 X13.098 Y-167.745 I-0.449 J0.449
G1 X12.598 Y-167.245
G2 X11.668 Y-165 I2.245 J2.245
G1 Y-135.893
G2 X15.675 Y-131.722 I4.175 J0
G3 X15.675 Y-49.278 I-1.661 J41.222
G2 X11.668 Y-45.107 I0.168 J4.172
G1 Y-16
G2 X12.598 Y-13.755 I3.175 J0
G1 X13.098 Y-13.255
G2 X15.343 Y-12.325 I2.245 J-2.245
G1 X22.843
G2 X27.018 Y-16.5 I0 J-4.175
G1 Y-28.5
G3 X30.843 Y-32.325 I3.825 J0
G1 X53.687
G2 X73.582 Y-52.22 I0 J-19.895
G1 Y-128.78
G2 X53.687 Y-148.675 I-19.895 J0
G1 X30.843
G3 X27.018 Y-152.5 I0 J-3.825
G1 Y-164.5
G2 X22.843 Y-168.675 I-4.175 J0
G1 X15.343
G2 X13.098 Y-167.745 I0 J3.175
G3 X12.2 Y-167.745 I-0.449 J-0.449
G1 X11.751 Y-168.194
X11.681 Y-168.264 Z-16.992
X11.612 Y-168.333 Z-16.969
X11.547 Y-168.398 Z-16.931
X11.487 Y-168.458 Z-16.879
X11.433 Y-168.512 Z-16.814
X11.388 Y-168.557 Z-16.738
X11.351 Y-168.594 Z-16.653
X11.324 Y-168.621 Z-16.561
X11.308 Y-168.638 Z-16.464
X11.302 Y-168.643 Z-16.365
G0 Z5
X12.2 Y-169.541
G1 Z-15.5 F2286
Z-16.865
X12.206 Y-169.536 Z-16.964 F1000
X12.222 Y-169.519 Z-17.061
X12.249 Y-169.492 Z-17.153
X12.286 Y-169.455 Z-17.238
X12.332 Y-169.41 Z-17.314
X12.385 Y-169.356 Z-17.379
X12.445 Y-169.296 Z-17.431
X12.51 Y-169.231 Z-17.469
X12.579 Y-169.162 Z-17.492
X12.649 Y-169.092 Z-17.5
X13.098 Y-168.643
G3 X13.098 Y-167.745 I-0.449 J0.449
G1 X12.598 Y-167.245
G2 X11.668 Y-165 I2.245 J2.245
G1 Y-135.893
G2 X15.675 Y-131.722 I4.175 J0
G3 X15.675 Y-49.278 I-1.661 J41.222
G2 X11.668 Y-45.107 I0.168 J4.172
G1 Y-16
G2 X12.598 Y-13.755 I3.175 J0
G1 X13.098 Y-13.255
G2 X15.343 Y-12.325 I2.245 J-2.245
G1 X22.843
G2 X27.018 Y-16.5 I0 J-4.175
G1 Y-28.5
G3 X30.843 Y-32.325 I3.825 J0
G1 X53.687
G2 X73.582 Y-52.22 I0 J-19.895
G1 Y-128.78
G2 X53.687 Y-148.675 I-19.895 J0
G1 X30.843
G3 X27.018 Y-152.5 I0 J-3.825
G1 Y-164.5
G2 X22.843 Y-168.675 I-4.175 J0
G1 X15.343
G2 X13.098 Y-167.745 I0 J3.175
G3 X12.2 Y-167.745 I-0.449 J-0.449
G1 X11.751 Y-168.194
X11.681 Y-168.264 Z-17.492
X11.612 Y-168.333 Z-17.469
X11.547 Y-168.398 Z-17.431
X11.487 Y-168.458 Z-17.379
X11.433 Y-168.512 Z-17.314
X11.388 Y-168.557 Z-17.238
X11.351 Y-168.594 Z-17.153
X11.324 Y-168.621 Z-17.061
X11.308 Y-168.638 Z-16.964
X11.302 Y-168.643 Z-16.865
G0 Z5
X12.2 Y-169.541
G1 Z-16 F2286
Z-17.365
X12.206 Y-169.536 Z-17.464 F1000
X12.222 Y-169.519 Z-17.561
X12.249 Y-169.492 Z-17.653
X12.286 Y-169.455 Z-17.738
X12.332 Y-169.41 Z-17.814
X12.385 Y-169.356 Z-17.879
X12.445 Y-169.296 Z-17.931
X12.51 Y-169.231 Z-17.969
X12.579 Y-169.162 Z-17.992
X12.649 Y-169.092 Z-18
X13.098 Y-168.643
G3 X13.098 Y-167.745 I-0.449 J0.449
G1 X12.598 Y-167.245
G2 X11.668 Y-165 I2.245 J2.245
G1 Y-135.893
G2 X15.675 Y-131.722 I4.175 J0
G3 X15.675 Y-49.278 I-1.661 J41.222
G2 X11.668 Y-45.107 I0.168 J4.172
G1 Y-16
G2 X12.598 Y-13.755 I3.175 J0
G1 X13.098 Y-13.255
G2 X15.343 Y-12.325 I2.245 J-2.245
G1 X22.843
G2 X27.018 Y-16.5 I0 J-4.175
G1 Y-28.5
G3 X30.843 Y-32.325 I3.825 J0
G1 X53.687
G2 X73.582 Y-52.22 I0 J-19.895
G1 Y-128.78
G2 X53.687 Y-148.675 I-19.895 J0
G1 X30.843
G3 X27.018 Y-152.5 I0 J-3.825
G1 Y-164.5
G2 X22.843 Y-168.675 I-4.175 J0
G1 X15.343
G2 X13.098 Y-167.745 I0 J3.175
G3 X12.2 Y-167.745 I-0.449 J-0.449
G1 X11.751 Y-168.194
X11.681 Y-168.264 Z-17.992
X11.612 Y-168.333 Z-17.969
X11.547 Y-168.398 Z-17.931
X11.487 Y-168.458 Z-17.879
X11.433 Y-168.512 Z-17.814
X11.388 Y-168.557 Z-17.738
X11.351 Y-168.594 Z-17.653
X11.324 Y-168.621 Z-17.561
X11.308 Y-168.638 Z-17.464
X11.302 Y-168.643 Z-17.365
G0 Z5
X12.2 Y-169.541
G1 Z-16.5 F2286
Z-17.865
X12.206 Y-169.536 Z-17.964 F1000
X12.222 Y-169.519 Z-18.061
X12.249 Y-169.492 Z-18.153
X12.286 Y-169.455 Z-18.238
X12.332 Y-169.41 Z-18.314
X12.385 Y-169.356 Z-18.379
X12.445 Y-169.296 Z-18.431
X12.51 Y-169.231 Z-18.469
X12.579 Y-169.162 Z-18.492
X12.649 Y-169.092 Z-18.5
X13.098 Y-168.643
G3 X13.098 Y-167.745 I-0.449 J0.449
G1 X12.598 Y-167.245
G2 X11.668 Y-165 I2.245 J2.245
G1 Y-135.893
G2 X15.675 Y-131.722 I4.175 J0
G3 X15.675 Y-49.278 I-1.661 J41.222
G2 X11.668 Y-45.107 I0.168 J4.172
G1 Y-16
G2 X12.598 Y-13.755 I3.175 J0
G1 X13.098 Y-13.255
G2 X15.343 Y-12.325 I2.245 J-2.245
G1 X22.843
G2 X27.018 Y-16.5 I0 J-4.175
G1 Y-28.5
G3 X30.843 Y-32.325 I3.825 J0
G1 X53.687
G2 X73.582 Y-52.22 I0 J-19.895
G1 Y-128.78
G2 X53.687 Y-148.675 I-19.895 J0
G1 X30.843
G3 X27.018 Y-152.5 I0 J-3.825
G1 Y-164.5
G2 X22.843 Y-168.675 I-4.175 J0
G1 X15.343
G2 X13.098 Y-167.745 I0 J3.175
G3 X12.2 Y-167.745 I-0.449 J-0.449
G1 X11.751 Y-168.194
X11.681 Y-168.264 Z-18.492
X11.612 Y-168.333 Z-18.469
X11.547 Y-168.398 Z-18.431
X11.487 Y-168.458 Z-18.379
X11.433 Y-168.512 Z-18.314
X11.388 Y-168.557 Z-18.238
X11.351 Y-168.594 Z-18.153
X11.324 Y-168.621 Z-18.061
X11.308 Y-168.638 Z-17.964
X11.302 Y-168.643 Z-17.865
G0 Z5
X12.2 Y-169.541
G1 Z-17 F2286
Z-18.365
X12.206 Y-169.536 Z-18.464 F1000
X12.222 Y-169.519 Z-18.561
X12.249 Y-169.492 Z-18.653
X12.286 Y-169.455 Z-18.738
X12.332 Y-169.41 Z-18.814
X12.385 Y-169.356 Z-18.879
X12.445 Y-169.296 Z-18.931
X12.51 Y-169.231 Z-18.969
X12.579 Y-169.162 Z-18.992
X12.649 Y-169.092 Z-19
X13.098 Y-168.643
G3 X13.098 Y-167.745 I-0.449 J0.449
G1 X12.598 Y-167.245
G2 X11.668 Y-165 I2.245 J2.245
G1 Y-135.893
G2 X15.675 Y-131.722 I4.175 J0
G3 X15.675 Y-49.278 I-1.661 J41.222
G2 X11.668 Y-45.107 I0.168 J4.172
G1 Y-16
G2 X12.598 Y-13.755 I3.175 J0
G1 X13.098 Y-13.255
G2 X15.343 Y-12.325 I2.245 J-2.245
G1 X22.843
G2 X27.018 Y-16.5 I0 J-4.175
G1 Y-28.5
G3 X30.843 Y-32.325 I3.825 J0
G1 X53.687
G2 X73.582 Y-52.22 I0 J-19.895
G1 Y-128.78
G2 X53.687 Y-148.675 I-19.895 J0
G1 X30.843
G3 X27.018 Y-152.5 I0 J-3.825
G1 Y-164.5
G2 X22.843 Y-168.675 I-4.175 J0
G1 X15.343
G2 X13.098 Y-167.745 I0 J3.175
G3 X12.2 Y-167.745 I-0.449 J-0.449
G1 X11.751 Y-168.194
X11.681 Y-168.264 Z-18.992
X11.612 Y-168.333 Z-18.969
X11.547 Y-168.398 Z-18.931
X11.487 Y-168.458 Z-18.879
X11.433 Y-168.512 Z-18.814
X11.388 Y-168.557 Z-18.738
X11.351 Y-168.594 Z-18.653
X11.324 Y-168.621 Z-18.561
X11.308 Y-168.638 Z-18.464
X11.302 Y-168.643 Z-18.365
G0 Z5
X12.2 Y-169.541
G1 Z-17.5 F2286
Z-18.865
X12.206 Y-169.536 Z-18.964 F1000
X12.222 Y-169.519 Z-19.061
X12.249 Y-169.492 Z-19.153
X12.286 Y-169.455 Z-19.238
X12.332 Y-169.41 Z-19.314
X12.385 Y-169.356 Z-19.379
X12.445 Y-169.296 Z-19.431
X12.51 Y-169.231 Z-19.469
X12.579 Y-169.162 Z-19.492
X12.649 Y-169.092 Z-19.5
X13.098 Y-168.643
G3 X13.098 Y-167.745 I-0.449 J0.449
G1 X12.598 Y-167.245
G2 X11.668 Y-165 I2.245 J2.245
G1 Y-135.893
G2 X15.675 Y-131.722 I4.175 J0
G3 X15.675 Y-49.278 I-1.661 J41.222
G2 X11.668 Y-45.107 I0.168 J4.172
G1 Y-16
G2 X12.598 Y-13.755 I3.175 J0
G1 X13.098 Y-13.255
G2 X15.343 Y-12.325 I2.245 J-2.245
G1 X22.843
G2 X27.018 Y-16.5 I0 J-4.175
G1 Y-28.5
G3 X30.843 Y-32.325 I3.825 J0
G1 X53.687
G2 X73.582 Y-52.22 I0 J-19.895
G1 Y-128.78
G2 X53.687 Y-148.675 I-19.895 J0
G1 X30.843
G3 X27.018 Y-152.5 I0 J-3.825
G1 Y-164.5
G2 X22.843 Y-168.675 I-4.175 J0
G1 X15.343
G2 X13.098 Y-167.745 I0 J3.175
G3 X12.2 Y-167.745 I-0.449 J-0.449
G1 X11.751 Y-168.194
X11.681 Y-168.264 Z-19.492
X11.612 Y-168.333 Z-19.469
X11.547 Y-168.398 Z-19.431
X11.487 Y-168.458 Z-19.379
X11.433 Y-168.512 Z-19.314
X11.388 Y-168.557 Z-19.238
X11.351 Y-168.594 Z-19.153
X11.324 Y-168.621 Z-19.061
X11.308 Y-168.638 Z-18.964
X11.302 Y-168.643 Z-18.865
G0 Z5
X12.2 Y-169.541
G1 Z-18 F2286
Z-19.365
X12.206 Y-169.536 Z-19.464 F1000
X12.222 Y-169.519 Z-19.561
X12.249 Y-169.492 Z-19.653
X12.286 Y-169.455 Z-19.738
X12.332 Y-169.41 Z-19.814
X12.385 Y-169.356 Z-19.879
X12.445 Y-169.296 Z-19.931
X12.51 Y-169.231 Z-19.969
X12.579 Y-169.162 Z-19.992
X12.649 Y-169.092 Z-20
X13.098 Y-168.643
G3 X13.098 Y-167.745 I-0.449 J0.449
G1 X12.598 Y-167.245
G2 X11.668 Y-165 I2.245 J2.245
G1 Y-135.893
G2 X15.675 Y-131.722 I4.175 J0
G3 X15.675 Y-49.278 I-1.661 J41.222
G2 X11.668 Y-45.107 I0.168 J4.172
G1 Y-16
G2 X12.598 Y-13.755 I3.175 J0
G1 X13.098 Y-13.255
G2 X15.343 Y-12.325 I2.245 J-2.245
G1 X22.843
G2 X27.018 Y-16.5 I0 J-4.175
G1 Y-28.5
G3 X30.843 Y-32.325 I3.825 J0
G1 X53.687
G2 X73.582 Y-52.22 I0 J-19.895
G1 Y-128.78
G2 X53.687 Y-148.675 I-19.895 J0
G1 X30.843
G3 X27.018 Y-152.5 I0 J-3.825
G1 Y-164.5
G2 X22.843 Y-168.675 I-4.175 J0
G1 X15.343
G2 X13.098 Y-167.745 I0 J3.175
G3 X12.2 Y-167.745 I-0.449 J-0.449
G1 X11.751 Y-168.194
X11.681 Y-168.264 Z-19.992
X11.612 Y-168.333 Z-19.969
X11.547 Y-168.398 Z-19.931
X11.487 Y-168.458 Z-19.879
X11.433 Y-168.512 Z-19.814
X11.388 Y-168.557 Z-19.738
X11.351 Y-168.594 Z-19.653
X11.324 Y-168.621 Z-19.561
X11.308 Y-168.638 Z-19.464
X11.302 Y-168.643 Z-19.365
G0 Z5
X12.2 Y-169.541
G1 Z-18.5 F2286
Z-19.865
X12.206 Y-169.536 Z-19.964 F1000
X12.222 Y-169.519 Z-20.061
X12.249 Y-169.492 Z-20.153
X12.286 Y-169.455 Z-20.238
X12.332 Y-169.41 Z-20.314
X12.385 Y-169.356 Z-20.379
X12.445 Y-169.296 Z-20.431
X12.51 Y-169.231 Z-20.469
X12.579 Y-169.162 Z-20.492
X12.649 Y-169.092 Z-20.5
X13.098 Y-168.643
G3 X13.098 Y-167.745 I-0.449 J0.449
G1 X12.598 Y-167.245
G2 X11.668 Y-165 I2.245 J2.245
G1 Y-135.893
G2 X15.675 Y-131.722 I4.175 J0
G3 X15.675 Y-49.278 I-1.661 J41.222
G2 X11.668 Y-45.107 I0.168 J4.172
G1 Y-16
G2 X12.598 Y-13.755 I3.175 J0
G1 X13.098 Y-13.255
G2 X15.343 Y-12.325 I2.245 J-2.245
G1 X22.843
G2 X27.018 Y-16.5 I0 J-4.175
G1 Y-28.5
G3 X30.843 Y-32.325 I3.825 J0
G1 X53.687
G2 X73.582 Y-52.22 I0 J-19.895
G1 Y-128.78
G2 X53.687 Y-148.675 I-19.895 J0
G1 X30.843
G3 X27.018 Y-152.5 I0 J-3.825
G1 Y-164.5
G2 X22.843 Y-168.675 I-4.175 J0
G1 X15.343
G2 X13.098 Y-167.745 I0 J3.175
G3 X12.2 Y-167.745 I-0.449 J-0.449
G1 X11.751 Y-168.194
X11.681 Y-168.264 Z-20.492
X11.612 Y-168.333 Z-20.469
X11.547 Y-168.398 Z-20.431
X11.487 Y-168.458 Z-20.379
X11.433 Y-168.512 Z-20.314
X11.388 Y-168.557 Z-20.238
X11.351 Y-168.594 Z-20.153
X11.324 Y-168.621 Z-20.061
X11.308 Y-168.638 Z-19.964
X11.302 Y-168.643 Z-19.865
G0 Z5
X12.2 Y-169.541
G1 Z-19 F2286
Z-20.365
X12.206 Y-169.536 Z-20.464 F1000
X12.222 Y-169.519 Z-20.561
X12.249 Y-169.492 Z-20.653
X12.286 Y-169.455 Z-20.738
X12.332 Y-169.41 Z-20.814
X12.385 Y-169.356 Z-20.879
X12.445 Y-169.296 Z-20.931
X12.51 Y-169.231 Z-20.969
X12.579 Y-169.162 Z-20.992
X12.649 Y-169.092 Z-21
X13.098 Y-168.643
G3 X13.098 Y-167.745 I-0.449 J0.449
G1 X12.598 Y-167.245
G2 X11.668 Y-165 I2.245 J2.245
G1 Y-135.893
G2 X15.675 Y-131.722 I4.175 J0
G3 X15.675 Y-49.278 I-1.661 J41.222
G2 X11.668 Y-45.107 I0.168 J4.172
G1 Y-16
G2 X12.598 Y-13.755 I3.175 J0
G1 X13.098 Y-13.255
G2 X15.343 Y-12.325 I2.245 J-2.245
G1 X22.843
G2 X27.018 Y-16.5 I0 J-4.175
G1 Y-28.5
G3 X30.843 Y-32.325 I3.825 J0
G1 X53.687
G2 X73.582 Y-52.22 I0 J-19.895
G1 Y-128.78
G2 X53.687 Y-148.675 I-19.895 J0
G1 X30.843
G3 X27.018 Y-152.5 I0 J-3.825
G1 Y-164.5
G2 X22.843 Y-168.675 I-4.175 J0
G1 X15.343
G2 X13.098 Y-167.745 I0 J3.175
G3 X12.2 Y-167.745 I-0.449 J-0.449
G1 X11.751 Y-168.194
X11.681 Y-168.264 Z-20.992
X11.612 Y-168.333 Z-20.969
X11.547 Y-168.398 Z-20.931
X11.487 Y-168.458 Z-20.879
X11.433 Y-168.512 Z-20.814
X11.388 Y-168.557 Z-20.738
X11.351 Y-168.594 Z-20.653
X11.324 Y-168.621 Z-20.561
X11.308 Y-168.638 Z-20.464
X11.302 Y-168.643 Z-20.365
G0 Z5
X12.2 Y-169.541
G1 Z-19.5 F2286
Z-20.865
X12.206 Y-169.536 Z-20.964 F1000
X12.222 Y-169.519 Z-21.061
X12.249 Y-169.492 Z-21.153
X12.286 Y-169.455 Z-21.238
X12.332 Y-169.41 Z-21.314
X12.385 Y-169.356 Z-21.379
X12.445 Y-169.296 Z-21.431
X12.51 Y-169.231 Z-21.469
X12.579 Y-169.162 Z-21.492
X12.649 Y-169.092 Z-21.5
X13.098 Y-168.643
G3 X13.098 Y-167.745 I-0.449 J0.449
G1 X12.598 Y-167.245
G2 X11.668 Y-165 I2.245 J2.245
G1 Y-135.893
G2 X15.675 Y-131.722 I4.175 J0
G3 X15.675 Y-49.278 I-1.661 J41.222
G2 X11.668 Y-45.107 I0.168 J4.172
G1 Y-16
G2 X12.598 Y-13.755 I3.175 J0
G1 X13.098 Y-13.255
G2 X15.343 Y-12.325 I2.245 J-2.245
G1 X22.843
G2 X27.018 Y-16.5 I0 J-4.175
G1 Y-28.5
G3 X30.843 Y-32.325 I3.825 J0
G1 X53.687
G2 X73.582 Y-52.22 I0 J-19.895
G1 Y-128.78
G2 X53.687 Y-148.675 I-19.895 J0
G1 X30.843
G3 X27.018 Y-152.5 I0 J-3.825
G1 Y-164.5
G2 X22.843 Y-168.675 I-4.175 J0
G1 X15.343
G2 X13.098 Y-167.745 I0 J3.175
G3 X12.2 Y-167.745 I-0.449 J-0.449
G1 X11.751 Y-168.194
X11.681 Y-168.264 Z-21.492
X11.612 Y-168.333 Z-21.469
X11.547 Y-168.398 Z-21.431
X11.487 Y-168.458 Z-21.379
X11.433 Y-168.512 Z-21.314
X11.388 Y-168.557 Z-21.238
X11.351 Y-168.594 Z-21.153
X11.324 Y-168.621 Z-21.061
X11.308 Y-168.638 Z-20.964
X11.302 Y-168.643 Z-20.865
G0 Z5
X12.2 Y-169.541
G1 Z-20 F2286
Z-21.365
X12.206 Y-169.536 Z-21.464 F1000
X12.222 Y-169.519 Z-21.561
X12.249 Y-169.492 Z-21.653
X12.286 Y-169.455 Z-21.738
X12.332 Y-169.41 Z-21.814
X12.385 Y-169.356 Z-21.879
X12.445 Y-169.296 Z-21.931
X12.51 Y-169.231 Z-21.969
X12.579 Y-169.162 Z-21.992
X12.649 Y-169.092 Z-22
X13.098 Y-168.643
G3 X13.098 Y-167.745 I-0.449 J0.449
G1 X12.598 Y-167.245
G2 X11.668 Y-165 I2.245 J2.245
G1 Y-135.893
G2 X15.675 Y-131.722 I4.175 J0
G3 X15.675 Y-49.278 I-1.661 J41.222
G2 X11.668 Y-45.107 I0.168 J4.172
G1 Y-16
G2 X12.598 Y-13.755 I3.175 J0
G1 X13.098 Y-13.255
G2 X15.343 Y-12.325 I2.245 J-2.245
G1 X22.843
G2 X27.018 Y-16.5 I0 J-4.175
G1 Y-28.5
G3 X30.843 Y-32.325 I3.825 J0
G1 X53.687
G2 X73.582 Y-52.22 I0 J-19.895
G1 Y-128.78
G2 X53.687 Y-148.675 I-19.895 J0
G1 X30.843
G3 X27.018 Y-152.5 I0 J-3.825
G1 Y-164.5
G2 X22.843 Y-168.675 I-4.175 J0
G1 X15.343
G2 X13.098 Y-167.745 I0 J3.175
G3 X12.2 Y-167.745 I-0.449 J-0.449
G1 X11.751 Y-168.194
X11.681 Y-168.264 Z-21.992
X11.612 Y-168.333 Z-21.969
X11.547 Y-168.398 Z-21.931
X11.487 Y-168.458 Z-21.879
X11.433 Y-168.512 Z-21.814
X11.388 Y-168.557 Z-21.738
X11.351 Y-168.594 Z-21.653
X11.324 Y-168.621 Z-21.561
X11.308 Y-168.638 Z-21.464
X11.302 Y-168.643 Z-21.365
G0 Z5
X12.2 Y-169.541
G1 Z-20.5 F2286
Z-21.865
X12.206 Y-169.536 Z-21.964 F1000
X12.222 Y-169.519 Z-22.061
X12.249 Y-169.492 Z-22.153
X12.286 Y-169.455 Z-22.238
X12.332 Y-169.41 Z-22.314
X12.385 Y-169.356 Z-22.379
X12.445 Y-169.296 Z-22.431
X12.51 Y-169.231 Z-22.469
X12.579 Y-169.162 Z-22.492
X12.649 Y-169.092 Z-22.5
X13.098 Y-168.643
G3 X13.098 Y-167.745 I-0.449 J0.449
G1 X12.598 Y-167.245
G2 X11.668 Y-165 I2.245 J2.245
G1 Y-135.893
G2 X15.675 Y-131.722 I4.175 J0
G3 X15.675 Y-49.278 I-1.661 J41.222
G2 X11.668 Y-45.107 I0.168 J4.172
G1 Y-16
G2 X12.598 Y-13.755 I3.175 J0
G1 X13.098 Y-13.255
G2 X15.343 Y-12.325 I2.245 J-2.245
G1 X22.843
G2 X27.018 Y-16.5 I0 J-4.175
G1 Y-28.5
G3 X30.843 Y-32.325 I3.825 J0
G1 X53.687
G2 X73.582 Y-52.22 I0 J-19.895
G1 Y-128.78
G2 X53.687 Y-148.675 I-19.895 J0
G1 X30.843
G3 X27.018 Y-152.5 I0 J-3.825
G1 Y-164.5
G2 X22.843 Y-168.675 I-4.175 J0
G1 X15.343
G2 X13.098 Y-167.745 I0 J3.175
G3 X12.2 Y-167.745 I-0.449 J-0.449
G1 X11.751 Y-168.194
X11.681 Y-168.264 Z-22.492
X11.612 Y-168.333 Z-22.469
X11.547 Y-168.398 Z-22.431
X11.487 Y-168.458 Z-22.379
X11.433 Y-168.512 Z-22.314
X11.388 Y-168.557 Z-22.238
X11.351 Y-168.594 Z-22.153
X11.324 Y-168.621 Z-22.061
X11.308 Y-168.638 Z-21.964
X11.302 Y-168.643 Z-21.865
G0 Z5
X12.2 Y-169.541
G1 Z-21 F2286
Z-22.365
X12.206 Y-169.536 Z-22.464 F1000
X12.222 Y-169.519 Z-22.561
X12.249 Y-169.492 Z-22.653
X12.286 Y-169.455 Z-22.738
X12.332 Y-169.41 Z-22.814
X12.385 Y-169.356 Z-22.879
X12.445 Y-169.296 Z-22.931
X12.51 Y-169.231 Z-22.969
X12.579 Y-169.162 Z-22.992
X12.649 Y-169.092 Z-23
X13.098 Y-168.643
G3 X13.098 Y-167.745 I-0.449 J0.449
G1 X12.598 Y-167.245
G2 X11.668 Y-165 I2.245 J2.245
G1 Y-135.893
G2 X15.675 Y-131.722 I4.175 J0
G3 X15.675 Y-49.278 I-1.661 J41.222
G2 X11.668 Y-45.107 I0.168 J4.172
G1 Y-16
G2 X12.598 Y-13.755 I3.175 J0
G1 X13.098 Y-13.255
G2 X15.343 Y-12.325 I2.245 J-2.245
G1 X22.843
G2 X27.018 Y-16.5 I0 J-4.175
G1 Y-28.5
G3 X30.843 Y-32.325 I3.825 J0
G1 X53.687
G2 X73.582 Y-52.22 I0 J-19.895
G1 Y-128.78
G2 X53.687 Y-148.675 I-19.895 J0
G1 X30.843
G3 X27.018 Y-152.5 I0 J-3.825
G1 Y-164.5
G2 X22.843 Y-168.675 I-4.175 J0
G1 X15.343
G2 X13.098 Y-167.745 I0 J3.175
G3 X12.2 Y-167.745 I-0.449 J-0.449
G1 X11.751 Y-168.194
X11.681 Y-168.264 Z-22.992
X11.612 Y-168.333 Z-22.969
X11.547 Y-168.398 Z-22.931
X11.487 Y-168.458 Z-22.879
X11.433 Y-168.512 Z-22.814
X11.388 Y-168.557 Z-22.738
X11.351 Y-168.594 Z-22.653
X11.324 Y-168.621 Z-22.561
X11.308 Y-168.638 Z-22.464
X11.302 Y-168.643 Z-22.365
G0 Z5
X12.2 Y-169.541
G1 Z-21.5 F2286
Z-22.865
X12.206 Y-169.536 Z-22.964 F1000
X12.222 Y-169.519 Z-23.061
X12.249 Y-169.492 Z-23.153
X12.286 Y-169.455 Z-23.238
X12.332 Y-169.41 Z-23.314
X12.385 Y-169.356 Z-23.379
X12.445 Y-169.296 Z-23.431
X12.51 Y-169.231 Z-23.469
X12.579 Y-169.162 Z-23.492
X12.649 Y-169.092 Z-23.5
X13.098 Y-168.643
G3 X13.098 Y-167.745 I-0.449 J0.449
G1 X12.598 Y-167.245
G2 X11.668 Y-165 I2.245 J2.245
G1 Y-135.893
G2 X15.675 Y-131.722 I4.175 J0
G3 X15.675 Y-49.278 I-1.661 J41.222
G2 X11.668 Y-45.107 I0.168 J4.172
G1 Y-16
G2 X12.598 Y-13.755 I3.175 J0
G1 X13.098 Y-13.255
G2 X15.343 Y-12.325 I2.245 J-2.245
G1 X22.843
G2 X27.018 Y-16.5 I0 J-4.175
G1 Y-28.5
G3 X30.843 Y-32.325 I3.825 J0
G1 X53.687
G2 X73.582 Y-52.22 I0 J-19.895
G1 Y-128.78
G2 X53.687 Y-148.675 I-19.895 J0
G1 X30.843
G3 X27.018 Y-152.5 I0 J-3.825
G1 Y-164.5
G2 X22.843 Y-168.675 I-4.175 J0
G1 X15.343
G2 X13.098 Y-167.745 I0 J3.175
G3 X12.2 Y-167.745 I-0.449 J-0.449
G1 X11.751 Y-168.194
X11.681 Y-168.264 Z-23.492
X11.612 Y-168.333 Z-23.469
X11.547 Y-168.398 Z-23.431
X11.487 Y-168.458 Z-23.379
X11.433 Y-168.512 Z-23.314
X11.388 Y-168.557 Z-23.238
X11.351 Y-168.594 Z-23.153
X11.324 Y-168.621 Z-23.061
X11.308 Y-168.638 Z-22.964
X11.302 Y-168.643 Z-22.865
G0 Z5
X12.2 Y-169.541
G1 Z-22 F2286
Z-23.365
X12.206 Y-169.536 Z-23.464 F1000
X12.222 Y-169.519 Z-23.561
X12.249 Y-169.492 Z-23.653
X12.286 Y-169.455 Z-23.738
X12.332 Y-169.41 Z-23.814
X12.385 Y-169.356 Z-23.879
X12.445 Y-169.296 Z-23.931
X12.51 Y-169.231 Z-23.969
X12.579 Y-169.162 Z-23.992
X12.649 Y-169.092 Z-24
X13.098 Y-168.643
G3 X13.098 Y-167.745 I-0.449 J0.449
G1 X12.598 Y-167.245
G2 X11.668 Y-165 I2.245 J2.245
G1 Y-156.797
Z-23.5
Y-144.097
Z-24 F2286
Y-135.893 F1000
G2 X15.675 Y-131.722 I4.175 J0
G3 X21.88 Y-130.998 I-1.661 J41.222
G1 Z-23.5
G3 X33.826 Y-126.686 I-7.866 J40.498
G1 Z-24 F2286
G3 X43.724 Y-119.123 I-19.812 J36.186 F1000
G1 Z-23.5
G3 X51.023 Y-108.729 I-29.711 J28.623
G1 Z-24 F2286
G3 X54.777 Y-96.85 I-37.009 J18.229 F1000
G1 Z-23.5
G3 X54.777 Y-84.15 I-40.763 J6.35
G1 Z-24 F2286
G3 X51.023 Y-72.271 I-40.763 J-6.35 F1000
G1 Z-23.5
G3 X43.724 Y-61.878 I-37.009 J-18.229
G1 Z-24 F2286
G3 X33.826 Y-54.314 I-29.711 J-28.622 F1000
G1 Z-23.5
G3 X21.88 Y-50.002 I-19.812 J-36.186
G1 Z-24 F2286
G3 X15.675 Y-49.278 I-7.866 J-40.498 F1000
G2 X11.668 Y-45.107 I0.168 J4.172
G1 Y-36.903
Z-23.5
Y-24.203
Z-24 F2286
Y-16 F1000
G2 X12.598 Y-13.755 I3.175 J0
G1 X13.098 Y-13.255
G2 X15.343 Y-12.325 I2.245 J-2.245
G1 X22.843
G2 X27.018 Y-16.5 I0 J-4.175
G1 Y-28.5
G3 X30.843 Y-32.325 I3.825 J0
G1 X53.687
G2 X62.529 Y-34.398 I0 J-19.895
G1 Z-23.5
G2 X71.509 Y-43.378 I-8.842 J-17.822
G1 Z-24 F2286
G2 X73.582 Y-52.22 I-17.822 J-8.842 F1000
G1 Y-58.63
Z-23.5
Y-71.33
Z-24 F2286
Y-84.15 F1000
Z-23.5
Y-96.85
Z-24 F2286
Y-109.67 F1000
Z-23.5
Y-122.37
Z-24 F2286
Y-128.78 F1000
G2 X71.509 Y-137.622 I-19.895 J0
G1 Z-23.5
G2 X62.529 Y-146.602 I-17.822 J8.842
G1 Z-24 F2286
G2 X53.687 Y-148.675 I-8.842 J17.822 F1000
G1 X30.843
G3 X27.018 Y-152.5 I0 J-3.825
G1 Y-164.5
G2 X22.843 Y-168.675 I-4.175 J0
G1 X15.343
G2 X13.098 Y-167.745 I0 J3.175
G3 X12.2 Y-167.745 I-0.449 J-0.449
G1 X11.751 Y-168.194
X11.681 Y-168.264 Z-23.992
X11.612 Y-168.333 Z-23.969
X11.547 Y-168.398 Z-23.931
X11.487 Y-168.458 Z-23.879
X11.433 Y-168.512 Z-23.814
X11.388 Y-168.557 Z-23.738
X11.351 Y-168.594 Z-23.653
X11.324 Y-168.621 Z-23.561
X11.308 Y-168.638 Z-23.464
X11.302 Y-168.643 Z-23.365
G0 Z5
X12.2 Y-169.541
G1 Z-22.5 F2286
Z-23.865
X12.206 Y-169.536 Z-23.964 F1000
X12.222 Y-169.519 Z-24.061
X12.249 Y-169.492 Z-24.153
X12.286 Y-169.455 Z-24.238
X12.332 Y-169.41 Z-24.314
X12.385 Y-169.356 Z-24.379
X12.445 Y-169.296 Z-24.431
X12.51 Y-169.231 Z-24.469
X12.579 Y-169.162 Z-24.492
X12.649 Y-169.092 Z-24.5
X13.098 Y-168.643
G3 X13.098 Y-167.745 I-0.449 J0.449
G1 X12.598 Y-167.245
G2 X11.668 Y-165 I2.245 J2.245
G1 Y-156.797
Z-23.5
Y-144.097
Z-24.5 F2286
Y-135.893 F1000
G2 X15.675 Y-131.722 I4.175 J0
G3 X21.88 Y-130.998 I-1.661 J41.222
G1 Z-23.5
G3 X33.826 Y-126.686 I-7.866 J40.498
G1 Z-24.5 F2286
G3 X43.724 Y-119.123 I-19.812 J36.186 F1000
G1 Z-23.5
G3 X51.023 Y-108.729 I-29.711 J28.623
G1 Z-24.5 F2286
G3 X54.777 Y-96.85 I-37.009 J18.229 F1000
G1 Z-23.5
G3 X54.777 Y-84.15 I-40.763 J6.35
G1 Z-24.5 F2286
G3 X51.023 Y-72.271 I-40.763 J-6.35 F1000
G1 Z-23.5
G3 X43.724 Y-61.878 I-37.009 J-18.229
G1 Z-24.5 F2286
G3 X33.826 Y-54.314 I-29.711 J-28.622 F1000
G1 Z-23.5
G3 X21.88 Y-50.002 I-19.812 J-36.186
G1 Z-24.5 F2286
G3 X15.675 Y-49.278 I-7.866 J-40.498 F1000
G2 X11.668 Y-45.107 I0.168 J4.172
G1 Y-36.903
Z-23.5
Y-24.203
Z-24.5 F2286
Y-16 F1000
G2 X12.598 Y-13.755 I3.175 J0
G1 X13.098 Y-13.255
G2 X15.343 Y-12.325 I2.245 J-2.245
G1 X22.843
G2 X27.018 Y-16.5 I0 J-4.175
G1 Y-28.5
G3 X30.843 Y-32.325 I3.825 J0
G1 X53.687
G2 X62.529 Y-34.398 I0 J-19.895
G1 Z-23.5
G2 X71.509 Y-43.378 I-8.842 J-17.822
G1 Z-24.5 F2286
G2 X73.582 Y-52.22 I-17.822 J-8.842 F1000
G1 Y-58.63
Z-23.5
Y-71.33
Z-24.5 F2286
Y-84.15 F1000
Z-23.5
Y-96.85
Z-24.5 F2286
Y-109.67 F1000
Z-23.5
Y-122.37
Z-24.5 F2286
Y-128.78 F1000
G2 X71.509 Y-137.622 I-19.895 J0
G1 Z-23.5
G2 X62.529 Y-146.602 I-17.822 J8.842
G1 Z-24.5 F2286
G2 X53.687 Y-148.675 I-8.842 J17.822 F1000
G1 X30.843
G3 X27.018 Y-152.5 I0 J-3.825
G1 Y-164.5
G2 X22.843 Y-168.675 I-4.175 J0
G1 X15.343
G2 X13.098 Y-167.745 I0 J3.175
G3 X12.2 Y-167.745 I-0.449 J-0.449
G1 X11.751 Y-168.194
X11.681 Y-168.264 Z-24.492
X11.612 Y-168.333 Z-24.469
X11.547 Y-168.398 Z-24.431
X11.487 Y-168.458 Z-24.379
X11.433 Y-168.512 Z-24.314
X11.388 Y-168.557 Z-24.238
X11.351 Y-168.594 Z-24.153
X11.324 Y-168.621 Z-24.061
X11.308 Y-168.638 Z-23.964
X11.302 Y-168.643 Z-23.865
G0 Z5
X12.2 Y-169.541
G1 Z-23 F2286
Z-24.365
X12.206 Y-169.536 Z-24.464 F1000
X12.222 Y-169.519 Z-24.561
X12.249 Y-169.492 Z-24.653
X12.286 Y-169.455 Z-24.738
X12.332 Y-169.41 Z-24.814
X12.385 Y-169.356 Z-24.879
X12.445 Y-169.296 Z-24.931
X12.51 Y-169.231 Z-24.969
X12.579 Y-169.162 Z-24.992
X12.649 Y-169.092 Z-25
X13.098 Y-168.643
G3 X13.098 Y-167.745 I-0.449 J0.449
G1 X12.598 Y-167.245
G2 X11.668 Y-165 I2.245 J2.245
G1 Y-156.797
Z-23.5
Y-144.097
Z-25 F2286
Y-135.893 F1000
G2 X15.675 Y-131.722 I4.175 J0
G3 X21.88 Y-130.998 I-1.661 J41.222
G1 Z-23.5
G3 X33.826 Y-126.686 I-7.866 J40.498
G1 Z-25 F2286
G3 X43.724 Y-119.123 I-19.812 J36.186 F1000
G1 Z-23.5
G3 X51.023 Y-108.729 I-29.711 J28.623
G1 Z-25 F2286
G3 X54.777 Y-96.85 I-37.009 J18.229 F1000
G1 Z-23.5
G3 X54.777 Y-84.15 I-40.763 J6.35
G1 Z-25 F2286
G3 X51.023 Y-72.271 I-40.763 J-6.35 F1000
G1 Z-23.5
G3 X43.724 Y-61.878 I-37.009 J-18.229
G1 Z-25 F2286
G3 X33.826 Y-54.314 I-29.711 J-28.622 F1000
G1 Z-23.5
G3 X21.88 Y-50.002 I-19.812 J-36.186
G1 Z-25 F2286
G3 X15.675 Y-49.278 I-7.866 J-40.498 F1000
G2 X11.668 Y-45.107 I0.168 J4.172
G1 Y-36.903
Z-23.5
Y-24.203
Z-25 F2286
Y-16 F1000
G2 X12.598 Y-13.755 I3.175 J0
G1 X13.098 Y-13.255
G2 X15.343 Y-12.325 I2.245 J-2.245
G1 X22.843
G2 X27.018 Y-16.5 I0 J-4.175
G1 Y-28.5
G3 X30.843 Y-32.325 I3.825 J0
G1 X53.687
G2 X62.529 Y-34.398 I0 J-19.895
G1 Z-23.5
G2 X71.509 Y-43.378 I-8.842 J-17.822
G1 Z-25 F2286
G2 X73.582 Y-52.22 I-17.822 J-8.842 F1000
G1 Y-58.63
Z-23.5
Y-71.33
Z-25 F2286
Y-84.15 F1000
Z-23.5
Y-96.85
Z-25 F2286
Y-109.67 F1000
Z-23.5
Y-122.37
Z-25 F2286
Y-128.78 F1000
G2 X71.509 Y-137.622 I-19.895 J0
G1 Z-23.5
G2 X62.529 Y-146.602 I-17.822 J8.842
G1 Z-25 F2286
G2 X53.687 Y-148.675 I-8.842 J17.822 F1000
G1 X30.843
G3 X27.018 Y-152.5 I0 J-3.825
G1 Y-164.5
G2 X22.843 Y-168.675 I-4.175 J0
G1 X15.343
G2 X13.098 Y-167.745 I0 J3.175
G3 X12.2 Y-167.745 I-0.449 J-0.449
G1 X11.751 Y-168.194
X11.681 Y-168.264 Z-24.992
X11.612 Y-168.333 Z-24.969
X11.547 Y-168.398 Z-24.931
X11.487 Y-168.458 Z-24.879
X11.433 Y-168.512 Z-24.814
X11.388 Y-168.557 Z-24.738
X11.351 Y-168.594 Z-24.653
X11.324 Y-168.621 Z-24.561
X11.308 Y-168.638 Z-24.464
X11.302 Y-168.643 Z-24.365
G0 Z5
X12.2 Y-169.541
G1 Z-23.5 F2286
Z-24.865
X12.206 Y-169.536 Z-24.964 F1000
X12.222 Y-169.519 Z-25.061
X12.249 Y-169.492 Z-25.153
X12.286 Y-169.455 Z-25.238
X12.332 Y-169.41 Z-25.314
X12.385 Y-169.356 Z-25.379
X12.445 Y-169.296 Z-25.431
X12.51 Y-169.231 Z-25.469
X12.579 Y-169.162 Z-25.492
X12.649 Y-169.092 Z-25.5
X13.098 Y-168.643
G3 X13.098 Y-167.745 I-0.449 J0.449
G1 X12.598 Y-167.245
G2 X11.668 Y-165 I2.245 J2.245
G1 Y-156.797
Z-23.5
Y-144.097
Z-25.5 F2286
Y-135.893 F1000
G2 X15.675 Y-131.722 I4.175 J0
G3 X21.88 Y-130.998 I-1.661 J41.222
G1 Z-23.5
G3 X33.826 Y-126.686 I-7.866 J40.498
G1 Z-25.5 F2286
G3 X43.724 Y-119.123 I-19.812 J36.186 F1000
G1 Z-23.5
G3 X51.023 Y-108.729 I-29.711 J28.623
G1 Z-25.5 F2286
G3 X54.777 Y-96.85 I-37.009 J18.229 F1000
G1 Z-23.5
G3 X54.777 Y-84.15 I-40.763 J6.35
G1 Z-25.5 F2286
G3 X51.023 Y-72.271 I-40.763 J-6.35 F1000
G1 Z-23.5
G3 X43.724 Y-61.878 I-37.009 J-18.229
G1 Z-25.5 F2286
G3 X33.826 Y-54.314 I-29.711 J-28.622 F1000
G1 Z-23.5
G3 X21.88 Y-50.002 I-19.812 J-36.186
G1 Z-25.5 F2286
G3 X15.675 Y-49.278 I-7.866 J-40.498 F1000
G2 X11.668 Y-45.107 I0.168 J4.172
G1 Y-36.903
Z-23.5
Y-24.203
Z-25.5 F2286
Y-16 F1000
G2 X12.598 Y-13.755 I3.175 J0
G1 X13.098 Y-13.255
G2 X15.343 Y-12.325 I2.245 J-2.245
G1 X22.843
G2 X27.018 Y-16.5 I0 J-4.175
G1 Y-28.5
G3 X30.843 Y-32.325 I3.825 J0
G1 X53.687
G2 X62.529 Y-34.398 I0 J-19.895
G1 Z-23.5
G2 X71.509 Y-43.378 I-8.842 J-17.822
G1 Z-25.5 F2286
G2 X73.582 Y-52.22 I-17.822 J-8.842 F1000
G1 Y-58.63
Z-23.5
Y-71.33
Z-25.5 F2286
Y-84.15 F1000
Z-23.5
Y-96.85
Z-25.5 F2286
Y-109.67 F1000
Z-23.5
Y-122.37
Z-25.5 F2286
Y-128.78 F1000
G2 X71.509 Y-137.622 I-19.895 J0
G1 Z-23.5
G2 X62.529 Y-146.602 I-17.822 J8.842
G1 Z-25.5 F2286
G2 X53.687 Y-148.675 I-8.842 J17.822 F1000
G1 X30.843
G3 X27.018 Y-152.5 I0 J-3.825
G1 Y-164.5
G2 X22.843 Y-168.675 I-4.175 J0
G1 X15.343
G2 X13.098 Y-167.745 I0 J3.175
G3 X12.2 Y-167.745 I-0.449 J-0.449
G1 X11.751 Y-168.194
X11.681 Y-168.264 Z-25.492
X11.612 Y-168.333 Z-25.469
X11.547 Y-168.398 Z-25.431
X11.487 Y-168.458 Z-25.379
X11.433 Y-168.512 Z-25.314
X11.388 Y-168.557 Z-25.238
X11.351 Y-168.594 Z-25.153
X11.324 Y-168.621 Z-25.061
X11.308 Y-168.638 Z-24.964
X11.302 Y-168.643 Z-24.865
G0 Z15
M9
G28 G91 Z0
G90
G28 G91 X0 Y0
G90
M5
M30
