(1001)
(T1  D=6.35 CR=0 - ZMIN=-28 - flat end mill)
G90 G94
G17
G21
G28 G91 Z0
G90

(2D Contour8)
T1
S18000 M3
G54
G0 X33.362 Y-163.865
Z15
Z5
G1 Z1 F20
Z-27.365
G18 G3 X32.727 Z-28 I-0.635 K0
G1 X32.092
G17 G3 X31.457 Y-164.5 I0 J-0.635
G2 X27.282 Y-168.675 I-4.175 J0
G1 X18.782
G2 X16.537 Y-167.745 I0 J3.175
G1 X16.037 Y-167.245
G2 X15.107 Y-165 I2.245 J2.245
G1 Y-135.915
G2 X19.174 Y-131.741 I4.175 J0
G3 X19.174 Y-49.259 I-1.063 J41.241
G2 X15.107 Y-45.085 I0.107 J4.174
G1 Y-16
G2 X16.037 Y-13.755 I3.175 J0
G1 X16.537 Y-13.255
G2 X18.782 Y-12.325 I2.245 J-2.245
G1 X27.282
G2 X31.457 Y-16.5 I0 J-4.175
G1 Y-28.5
G3 X35.282 Y-32.325 I3.825 J0
G1 X64.647
G2 X70.428 Y-34.719 I0 J-8.175
G1 X87.499 Y-51.79
G2 X89.893 Y-57.571 I-5.781 J-5.781
G1 Y-123.429
G2 X87.499 Y-129.209 I-8.175 J0
G1 X70.428 Y-146.281
G2 X64.647 Y-148.675 I-5.78 J5.781
G1 X35.282
G3 X31.457 Y-152.5 I0 J-3.825
G1 Y-164.5
G3 X32.092 Y-165.135 I0.635 J0
G1 X32.727
G18 G2 X33.362 Z-27.365 I0 K0.635
G0 Z15
G17
G28 G91 Z0
G90
G28 G91 X0 Y0
G90
M5
M30
