(1001)
(T7  D=3.175 CR=0 - ZMIN=-3.76 - flat end mill)
G90 G94
G17
G21
G28 G91 Z0
G90

(2D Contour3)
T7
S5000 M3
G54
M8
G0 X24.877 Y-26.399
Z15
Z5
G1 Z2.818 F333.3
X24.872 Y-26.405 Z2.747 F1000
X24.858 Y-26.424 Z2.68
X24.836 Y-26.455 Z2.62
X24.806 Y-26.495 Z2.569
X24.77 Y-26.544 Z2.531
X24.73 Y-26.598 Z2.508
X24.688 Y-26.654 Z2.5
X24.5 Y-26.91
G3 X24.566 Y-27.354 I0.255 J-0.189
X27.782 Y-28.413 Z2.38 I3.216 J4.354 F333.3
G1 X57.147 Z1.354
G2 X61.805 Y-30.342 Z1.174 I0 J-6.587
G1 X78.876 Y-47.413 Z0.331
G2 X80.806 Y-52.071 Z0.15 I-4.658 J-4.658
G1 Y-85 Z-1
Y-117.929 F1000
G2 X78.876 Y-122.587 I-6.587 J0
G1 X61.805 Y-139.659
G2 X57.147 Y-141.587 I-4.658 J4.659
G1 X27.782
G3 X22.369 Y-147 I0 J-5.413
G1 Y-159
G2 X19.782 Y-161.587 I-2.587 J0
G1 X11.282
G2 X10.159 Y-161.123 I0 J1.587
G1 X9.659 Y-160.623
G2 X9.194 Y-159.5 I1.123 J1.123
G1 Y-130.415
G2 X11.715 Y-127.828 I2.588 J0
G3 X11.715 Y-42.172 I-1.104 J42.828
G2 X9.194 Y-39.585 I0.067 J2.587
G1 Y-10.5
G2 X9.659 Y-9.377 I1.588 J0
G1 X10.159 Y-8.877
G2 X11.282 Y-8.413 I1.123 J-1.123
G1 X19.782
G2 X22.369 Y-11 I0 J-2.587
G1 Y-23
G3 X27.782 Y-28.413 I5.413 J0
G1 X57.147
G2 X61.805 Y-30.342 I0 J-6.587
G1 X78.876 Y-47.413
G2 X80.806 Y-52.071 I-4.658 J-4.658
G1 Y-85
Y-117.929 Z-1.9 F333.3
G2 X79.816 Y-121.402 Z-2 I-6.587 J0
X78.876 Y-122.587 I-5.597 J3.473 F1000
G1 X61.805 Y-139.659
G2 X57.147 Y-141.587 I-4.658 J4.659
G1 X27.782
G3 X22.369 Y-147 I0 J-5.413
G1 Y-159
G2 X19.782 Y-161.587 I-2.587 J0
G1 X11.282
G2 X10.159 Y-161.123 I0 J1.587
G1 X9.659 Y-160.623
G2 X9.194 Y-159.5 I1.123 J1.123
G1 Y-130.415
G2 X11.715 Y-127.828 I2.588 J0
G3 X11.715 Y-42.172 I-1.104 J42.828
G2 X9.194 Y-39.585 I0.067 J2.587
G1 Y-10.5
G2 X9.659 Y-9.377 I1.588 J0
G1 X10.159 Y-8.877
G2 X11.282 Y-8.413 I1.123 J-1.123
G1 X19.782
G2 X22.369 Y-11 I0 J-2.587
G1 Y-23
G3 X27.782 Y-28.413 I5.413 J0
G1 X57.147
G2 X61.805 Y-30.342 I0 J-6.587
G1 X78.876 Y-47.413
G2 X80.806 Y-52.071 I-4.658 J-4.658
G1 Y-117.929
G2 X79.816 Y-121.402 I-6.587 J0
X78.876 Y-122.587 Z-2.041 I-5.597 J3.473 F333.3
G1 X61.805 Y-139.659 Z-2.701
G2 X57.147 Y-141.587 Z-2.843 I-4.658 J4.659
G1 X51.392 Z-3
X27.782 F1000
G3 X22.369 Y-147 I0 J-5.413
G1 Y-159
G2 X19.782 Y-161.587 I-2.587 J0
G1 X11.282
G2 X10.159 Y-161.123 I0 J1.587
G1 X9.659 Y-160.623
G2 X9.194 Y-159.5 I1.123 J1.123
G1 Y-130.415
G2 X11.715 Y-127.828 I2.588 J0
G3 X11.715 Y-42.172 I-1.104 J42.828
G2 X9.194 Y-39.585 I0.067 J2.587
G1 Y-10.5
G2 X9.659 Y-9.377 I1.588 J0
G1 X10.159 Y-8.877
G2 X11.282 Y-8.413 I1.123 J-1.123
G1 X19.782
G2 X22.369 Y-11 I0 J-2.587
G1 Y-23
G3 X27.782 Y-28.413 I5.413 J0
G1 X57.147
G2 X61.805 Y-30.342 I0 J-6.587
G1 X78.876 Y-47.413
G2 X80.806 Y-52.071 I-4.658 J-4.658
G1 Y-117.929
G2 X78.876 Y-122.587 I-6.587 J0
G1 X61.805 Y-139.659
G2 X57.147 Y-141.587 I-4.658 J4.659
G1 X51.392
X27.782 Z-3.645 F333.3
G3 X23.994 Y-143.134 Z-3.76 I0 J-5.413
X22.369 Y-147 I3.788 J-3.866 F1000
G1 Y-159
G2 X19.782 Y-161.587 I-2.587 J0
G1 X11.282
G2 X10.159 Y-161.123 I0 J1.587
G1 X9.659 Y-160.623
G2 X9.194 Y-159.5 I1.123 J1.123
G1 Y-130.415
G2 X11.715 Y-127.828 I2.588 J0
G3 X11.715 Y-42.172 I-1.104 J42.828
G2 X9.194 Y-39.585 I0.067 J2.587
G1 Y-10.5
G2 X9.659 Y-9.377 I1.588 J0
G1 X10.159 Y-8.877
G2 X11.282 Y-8.413 I1.123 J-1.123
G1 X19.782
G2 X22.369 Y-11 I0 J-2.587
G1 Y-23
G3 X27.782 Y-28.413 I5.413 J0
G1 X57.147
G2 X61.805 Y-30.342 I0 J-6.587
G1 X78.876 Y-47.413
G2 X80.806 Y-52.071 I-4.658 J-4.658
G1 Y-117.929
G2 X78.876 Y-122.587 I-6.587 J0
G1 X61.805 Y-139.659
G2 X57.147 Y-141.587 I-4.658 J4.659
G1 X27.782
G3 X23.994 Y-143.134 I0 J-5.413
X23.989 Y-143.583 I0.222 J-0.227
G1 X24.211 Y-143.81
X24.261 Y-143.86 Z-3.752
X24.308 Y-143.908 Z-3.729
X24.35 Y-143.951 Z-3.691
X24.385 Y-143.987 Z-3.64
X24.412 Y-144.014 Z-3.58
X24.428 Y-144.031 Z-3.513
X24.434 Y-144.037 Z-3.443
G0 Z15
M9
G28 G91 Z0
G90
G28 G91 X0 Y0
G90
M5
M30
