(1001)
(T1  D=6.35 CR=0 - ZMIN=-24 - flat end mill)
G90 G94
G17
G21
G28 G91 Z0
G90

(2D Contour3)
T1
S18000 M3
G54
M8
G0 X75.762 Y-10.708
Z15
Z-12
G1 Z-15 F50
Z-17.365
X75.764 Y-10.716 Z-17.464 F300
X75.769 Y-10.739 Z-17.561
X75.777 Y-10.776 Z-17.653
X75.789 Y-10.827 Z-17.738
X75.803 Y-10.89 Z-17.814
X75.82 Y-10.964 Z-17.879
X75.838 Y-11.047 Z-17.931
X75.859 Y-11.136 Z-17.969
X75.88 Y-11.231 Z-17.992
X75.902 Y-11.328 Z-18
X76.041 Y-11.947
G3 X76.8 Y-12.427 I0.619 J0.14
G2 X77.718 Y-12.325 I0.918 J-4.073
G1 X85.218
G2 X87.463 Y-13.255 I0 J-3.175
G1 X87.963 Y-13.755
G2 X88.893 Y-16 I-2.245 J-2.245
G1 Y-45.122
G2 X84.918 Y-49.292 I-4.175 J0
G3 X84.918 Y-131.708 I1.971 J-41.208
G2 X88.893 Y-135.878 I-0.2 J-4.17
G1 Y-165
G2 X87.963 Y-167.245 I-3.175 J0
G1 X87.463 Y-167.745
G2 X85.218 Y-168.675 I-2.245 J2.245
G1 X77.718
G2 X73.543 Y-164.5 I0 J4.175
G1 Y-152.5
G3 X69.718 Y-148.675 I-3.825 J0
G1 X40.353
G2 X34.573 Y-146.281 I0 J8.175
G1 X17.501 Y-129.209
G2 X15.107 Y-123.429 I5.78 J5.781
G1 Y-57.571
G2 X17.501 Y-51.79 I8.175 J0
G1 X34.572 Y-34.719
G2 X40.353 Y-32.325 I5.781 J-5.781
G1 X69.718
G3 X73.543 Y-28.5 I0 J3.825
G1 Y-16.5
G2 X76.8 Y-12.427 I4.175 J0
G3 X77.28 Y-11.668 I-0.14 J0.619
G1 X77.141 Y-11.049
X77.119 Y-10.952 Z-17.992
X77.098 Y-10.857 Z-17.969
X77.077 Y-10.767 Z-17.931
X77.059 Y-10.684 Z-17.879
X77.042 Y-10.611 Z-17.814
X77.028 Y-10.547 Z-17.738
X77.016 Y-10.497 Z-17.653
X77.008 Y-10.459 Z-17.561
X77.003 Y-10.437 Z-17.464
X77.001 Y-10.429 Z-17.365
G0 Z5
X75.762 Y-10.708
Z-12
G1 Z-16 F50
Z-18.365
X75.764 Y-10.716 Z-18.464 F300
X75.769 Y-10.739 Z-18.561
X75.777 Y-10.776 Z-18.653
X75.789 Y-10.827 Z-18.738
X75.803 Y-10.89 Z-18.814
X75.82 Y-10.964 Z-18.879
X75.838 Y-11.047 Z-18.931
X75.859 Y-11.136 Z-18.969
X75.88 Y-11.231 Z-18.992
X75.902 Y-11.328 Z-19
X76.041 Y-11.947
G3 X76.8 Y-12.427 I0.619 J0.14
G2 X77.718 Y-12.325 I0.918 J-4.073
G1 X85.218
G2 X87.463 Y-13.255 I0 J-3.175
G1 X87.963 Y-13.755
G2 X88.893 Y-16 I-2.245 J-2.245
G1 Y-45.122
G2 X84.918 Y-49.292 I-4.175 J0
G3 X84.918 Y-131.708 I1.971 J-41.208
G2 X88.893 Y-135.878 I-0.2 J-4.17
G1 Y-165
G2 X87.963 Y-167.245 I-3.175 J0
G1 X87.463 Y-167.745
G2 X85.218 Y-168.675 I-2.245 J2.245
G1 X77.718
G2 X73.543 Y-164.5 I0 J4.175
G1 Y-152.5
G3 X69.718 Y-148.675 I-3.825 J0
G1 X40.353
G2 X34.573 Y-146.281 I0 J8.175
G1 X17.501 Y-129.209
G2 X15.107 Y-123.429 I5.78 J5.781
G1 Y-57.571
G2 X17.501 Y-51.79 I8.175 J0
G1 X34.572 Y-34.719
G2 X40.353 Y-32.325 I5.781 J-5.781
G1 X69.718
G3 X73.543 Y-28.5 I0 J3.825
G1 Y-16.5
G2 X76.8 Y-12.427 I4.175 J0
G3 X77.28 Y-11.668 I-0.14 J0.619
G1 X77.141 Y-11.049
X77.119 Y-10.952 Z-18.992
X77.098 Y-10.857 Z-18.969
X77.077 Y-10.767 Z-18.931
X77.059 Y-10.684 Z-18.879
X77.042 Y-10.611 Z-18.814
X77.028 Y-10.547 Z-18.738
X77.016 Y-10.497 Z-18.653
X77.008 Y-10.459 Z-18.561
X77.003 Y-10.437 Z-18.464
X77.001 Y-10.429 Z-18.365
G0 Z5
X75.762 Y-10.708
Z-12
G1 Z-17 F50
Z-19.365
X75.764 Y-10.716 Z-19.464 F300
X75.769 Y-10.739 Z-19.561
X75.777 Y-10.776 Z-19.653
X75.789 Y-10.827 Z-19.738
X75.803 Y-10.89 Z-19.814
X75.82 Y-10.964 Z-19.879
X75.838 Y-11.047 Z-19.931
X75.859 Y-11.136 Z-19.969
X75.88 Y-11.231 Z-19.992
X75.902 Y-11.328 Z-20
X76.041 Y-11.947
G3 X76.8 Y-12.427 I0.619 J0.14
G2 X77.718 Y-12.325 I0.918 J-4.073
G1 X85.218
G2 X87.463 Y-13.255 I0 J-3.175
G1 X87.963 Y-13.755
G2 X88.893 Y-16 I-2.245 J-2.245
G1 Y-45.122
G2 X84.918 Y-49.292 I-4.175 J0
G3 X84.918 Y-131.708 I1.971 J-41.208
G2 X88.893 Y-135.878 I-0.2 J-4.17
G1 Y-165
G2 X87.963 Y-167.245 I-3.175 J0
G1 X87.463 Y-167.745
G2 X85.218 Y-168.675 I-2.245 J2.245
G1 X77.718
G2 X73.543 Y-164.5 I0 J4.175
G1 Y-152.5
G3 X69.718 Y-148.675 I-3.825 J0
G1 X40.353
G2 X34.573 Y-146.281 I0 J8.175
G1 X17.501 Y-129.209
G2 X15.107 Y-123.429 I5.78 J5.781
G1 Y-57.571
G2 X17.501 Y-51.79 I8.175 J0
G1 X34.572 Y-34.719
G2 X40.353 Y-32.325 I5.781 J-5.781
G1 X69.718
G3 X73.543 Y-28.5 I0 J3.825
G1 Y-16.5
G2 X76.8 Y-12.427 I4.175 J0
G3 X77.28 Y-11.668 I-0.14 J0.619
G1 X77.141 Y-11.049
X77.119 Y-10.952 Z-19.992
X77.098 Y-10.857 Z-19.969
X77.077 Y-10.767 Z-19.931
X77.059 Y-10.684 Z-19.879
X77.042 Y-10.611 Z-19.814
X77.028 Y-10.547 Z-19.738
X77.016 Y-10.497 Z-19.653
X77.008 Y-10.459 Z-19.561
X77.003 Y-10.437 Z-19.464
X77.001 Y-10.429 Z-19.365
G0 Z5
X75.762 Y-10.708
Z-12
G1 Z-18 F50
Z-20.365
X75.764 Y-10.716 Z-20.464 F300
X75.769 Y-10.739 Z-20.561
X75.777 Y-10.776 Z-20.653
X75.789 Y-10.827 Z-20.738
X75.803 Y-10.89 Z-20.814
X75.82 Y-10.964 Z-20.879
X75.838 Y-11.047 Z-20.931
X75.859 Y-11.136 Z-20.969
X75.88 Y-11.231 Z-20.992
X75.902 Y-11.328 Z-21
X76.041 Y-11.947
G3 X76.8 Y-12.427 I0.619 J0.14
G2 X77.718 Y-12.325 I0.918 J-4.073
G1 X85.218
G2 X87.463 Y-13.255 I0 J-3.175
G1 X87.963 Y-13.755
G2 X88.893 Y-16 I-2.245 J-2.245
G1 Y-45.122
G2 X84.918 Y-49.292 I-4.175 J0
G3 X84.918 Y-131.708 I1.971 J-41.208
G2 X88.893 Y-135.878 I-0.2 J-4.17
G1 Y-165
G2 X87.963 Y-167.245 I-3.175 J0
G1 X87.463 Y-167.745
G2 X85.218 Y-168.675 I-2.245 J2.245
G1 X77.718
G2 X73.543 Y-164.5 I0 J4.175
G1 Y-152.5
G3 X69.718 Y-148.675 I-3.825 J0
G1 X40.353
G2 X34.573 Y-146.281 I0 J8.175
G1 X17.501 Y-129.209
G2 X15.107 Y-123.429 I5.78 J5.781
G1 Y-57.571
G2 X17.501 Y-51.79 I8.175 J0
G1 X34.572 Y-34.719
G2 X40.353 Y-32.325 I5.781 J-5.781
G1 X69.718
G3 X73.543 Y-28.5 I0 J3.825
G1 Y-16.5
G2 X76.8 Y-12.427 I4.175 J0
G3 X77.28 Y-11.668 I-0.14 J0.619
G1 X77.141 Y-11.049
X77.119 Y-10.952 Z-20.992
X77.098 Y-10.857 Z-20.969
X77.077 Y-10.767 Z-20.931
X77.059 Y-10.684 Z-20.879
X77.042 Y-10.611 Z-20.814
X77.028 Y-10.547 Z-20.738
X77.016 Y-10.497 Z-20.653
X77.008 Y-10.459 Z-20.561
X77.003 Y-10.437 Z-20.464
X77.001 Y-10.429 Z-20.365
G0 Z5
X75.762 Y-10.708
Z-12
G1 Z-19 F50
Z-21.365
X75.764 Y-10.716 Z-21.464 F300
X75.769 Y-10.739 Z-21.561
X75.777 Y-10.776 Z-21.653
X75.789 Y-10.827 Z-21.738
X75.803 Y-10.89 Z-21.814
X75.82 Y-10.964 Z-21.879
X75.838 Y-11.047 Z-21.931
X75.859 Y-11.136 Z-21.969
X75.88 Y-11.231 Z-21.992
X75.902 Y-11.328 Z-22
X76.041 Y-11.947
G3 X76.8 Y-12.427 I0.619 J0.14
G2 X77.718 Y-12.325 I0.918 J-4.073
G1 X85.218
G2 X87.463 Y-13.255 I0 J-3.175
G1 X87.963 Y-13.755
G2 X88.893 Y-16 I-2.245 J-2.245
G1 Y-45.122
G2 X84.918 Y-49.292 I-4.175 J0
G3 X84.918 Y-131.708 I1.971 J-41.208
G2 X88.893 Y-135.878 I-0.2 J-4.17
G1 Y-165
G2 X87.963 Y-167.245 I-3.175 J0
G1 X87.463 Y-167.745
G2 X85.218 Y-168.675 I-2.245 J2.245
G1 X77.718
G2 X73.543 Y-164.5 I0 J4.175
G1 Y-152.5
G3 X69.718 Y-148.675 I-3.825 J0
G1 X40.353
G2 X34.573 Y-146.281 I0 J8.175
G1 X17.501 Y-129.209
G2 X15.107 Y-123.429 I5.78 J5.781
G1 Y-57.571
G2 X17.501 Y-51.79 I8.175 J0
G1 X34.572 Y-34.719
G2 X40.353 Y-32.325 I5.781 J-5.781
G1 X69.718
G3 X73.543 Y-28.5 I0 J3.825
G1 Y-16.5
G2 X76.8 Y-12.427 I4.175 J0
G3 X77.28 Y-11.668 I-0.14 J0.619
G1 X77.141 Y-11.049
X77.119 Y-10.952 Z-21.992
X77.098 Y-10.857 Z-21.969
X77.077 Y-10.767 Z-21.931
X77.059 Y-10.684 Z-21.879
X77.042 Y-10.611 Z-21.814
X77.028 Y-10.547 Z-21.738
X77.016 Y-10.497 Z-21.653
X77.008 Y-10.459 Z-21.561
X77.003 Y-10.437 Z-21.464
X77.001 Y-10.429 Z-21.365
G0 Z5
X75.762 Y-10.708
Z-12
G1 Z-20 F50
Z-22.365
X75.764 Y-10.716 Z-22.464 F300
X75.769 Y-10.739 Z-22.561
X75.777 Y-10.776 Z-22.653
X75.789 Y-10.827 Z-22.738
X75.803 Y-10.89 Z-22.814
X75.82 Y-10.964 Z-22.879
X75.838 Y-11.047 Z-22.931
X75.859 Y-11.136 Z-22.969
X75.88 Y-11.231 Z-22.992
X75.902 Y-11.328 Z-23
X76.041 Y-11.947
G3 X76.8 Y-12.427 I0.619 J0.14
G2 X77.718 Y-12.325 I0.918 J-4.073
G1 X85.218
G2 X87.463 Y-13.255 I0 J-3.175
G1 X87.963 Y-13.755
G2 X88.893 Y-16 I-2.245 J-2.245
G1 Y-45.122
G2 X84.918 Y-49.292 I-4.175 J0
G3 X84.918 Y-131.708 I1.971 J-41.208
G2 X88.893 Y-135.878 I-0.2 J-4.17
G1 Y-165
G2 X87.963 Y-167.245 I-3.175 J0
G1 X87.463 Y-167.745
G2 X85.218 Y-168.675 I-2.245 J2.245
G1 X77.718
G2 X73.543 Y-164.5 I0 J4.175
G1 Y-152.5
G3 X69.718 Y-148.675 I-3.825 J0
G1 X40.353
G2 X34.573 Y-146.281 I0 J8.175
G1 X17.501 Y-129.209
G2 X15.107 Y-123.429 I5.78 J5.781
G1 Y-57.571
G2 X17.501 Y-51.79 I8.175 J0
G1 X34.572 Y-34.719
G2 X40.353 Y-32.325 I5.781 J-5.781
G1 X69.718
G3 X73.543 Y-28.5 I0 J3.825
G1 Y-16.5
G2 X76.8 Y-12.427 I4.175 J0
G3 X77.28 Y-11.668 I-0.14 J0.619
G1 X77.141 Y-11.049
X77.119 Y-10.952 Z-22.992
X77.098 Y-10.857 Z-22.969
X77.077 Y-10.767 Z-22.931
X77.059 Y-10.684 Z-22.879
X77.042 Y-10.611 Z-22.814
X77.028 Y-10.547 Z-22.738
X77.016 Y-10.497 Z-22.653
X77.008 Y-10.459 Z-22.561
X77.003 Y-10.437 Z-22.464
X77.001 Y-10.429 Z-22.365
G0 Z5
X75.762 Y-10.708
Z-12
G1 Z-21 F50
Z-23.365
X75.764 Y-10.716 Z-23.464 F300
X75.769 Y-10.739 Z-23.561
X75.777 Y-10.776 Z-23.653
X75.789 Y-10.827 Z-23.738
X75.803 Y-10.89 Z-23.814
X75.82 Y-10.964 Z-23.879
X75.838 Y-11.047 Z-23.931
X75.859 Y-11.136 Z-23.969
X75.88 Y-11.231 Z-23.992
X75.902 Y-11.328 Z-24
X76.041 Y-11.947
G3 X76.8 Y-12.427 I0.619 J0.14
G2 X77.718 Y-12.325 I0.918 J-4.073
G1 X85.218
G2 X87.463 Y-13.255 I0 J-3.175
G1 X87.963 Y-13.755
G2 X88.893 Y-16 I-2.245 J-2.245
G1 Y-45.122
G2 X84.918 Y-49.292 I-4.175 J0
G3 X84.918 Y-131.708 I1.971 J-41.208
G2 X88.893 Y-135.878 I-0.2 J-4.17
G1 Y-165
G2 X87.963 Y-167.245 I-3.175 J0
G1 X87.463 Y-167.745
G2 X85.218 Y-168.675 I-2.245 J2.245
G1 X77.718
G2 X73.543 Y-164.5 I0 J4.175
G1 Y-152.5
G3 X69.718 Y-148.675 I-3.825 J0
G1 X40.353
G2 X34.573 Y-146.281 I0 J8.175
G1 X17.501 Y-129.209
G2 X15.107 Y-123.429 I5.78 J5.781
G1 Y-57.571
G2 X17.501 Y-51.79 I8.175 J0
G1 X34.572 Y-34.719
G2 X40.353 Y-32.325 I5.781 J-5.781
G1 X69.718
G3 X73.543 Y-28.5 I0 J3.825
G1 Y-16.5
G2 X76.8 Y-12.427 I4.175 J0
G3 X77.28 Y-11.668 I-0.14 J0.619
G1 X77.141 Y-11.049
X77.119 Y-10.952 Z-23.992
X77.098 Y-10.857 Z-23.969
X77.077 Y-10.767 Z-23.931
X77.059 Y-10.684 Z-23.879
X77.042 Y-10.611 Z-23.814
X77.028 Y-10.547 Z-23.738
X77.016 Y-10.497 Z-23.653
X77.008 Y-10.459 Z-23.561
X77.003 Y-10.437 Z-23.464
X77.001 Y-10.429 Z-23.365
G0 Z15
M9
G28 G91 Z0
G90
G28 G91 X0 Y0
G90
M5
M30
