(1001)
(T1  D=6.35 CR=0 - ZMIN=-28 - flat end mill)
G90 G94
G17
G21
G28 G91 Z0
G90

(2D Contour4)
T1
S18000 M3
G54
G0 X74.762 Y-10.708
Z15
Z5
G1 Z1 F15
Z-27.365
X74.764 Y-10.716 Z-27.464
X74.769 Y-10.739 Z-27.561
X74.777 Y-10.776 Z-27.653
X74.789 Y-10.827 Z-27.738
X74.803 Y-10.89 Z-27.814
X74.82 Y-10.964 Z-27.879
X74.838 Y-11.047 Z-27.931
X74.859 Y-11.136 Z-27.969
X74.88 Y-11.231 Z-27.992
X74.902 Y-11.328 Z-28
X75.041 Y-11.947
G3 X75.8 Y-12.427 I0.619 J0.14
G2 X76.718 Y-12.325 I0.918 J-4.073
G1 X84.218
G2 X86.463 Y-13.255 I0 J-3.175
G1 X86.963 Y-13.755
G2 X87.893 Y-16 I-2.245 J-2.245
G1 Y-45.122
G2 X83.918 Y-49.292 I-4.175 J0
G3 X83.918 Y-131.708 I1.971 J-41.208
G2 X87.893 Y-135.878 I-0.2 J-4.17
G1 Y-165
G2 X86.963 Y-167.245 I-3.175 J0
G1 X86.463 Y-167.745
G2 X84.218 Y-168.675 I-2.245 J2.245
G1 X76.718
G2 X72.543 Y-164.5 I0 J4.175
G1 Y-152.5
G3 X68.718 Y-148.675 I-3.825 J0
G1 X39.353
G2 X33.573 Y-146.281 I0 J8.175
G1 X16.501 Y-129.209
G2 X14.107 Y-123.429 I5.78 J5.781
G1 Y-57.571
G2 X16.501 Y-51.79 I8.175 J0
G1 X33.572 Y-34.719
G2 X39.353 Y-32.325 I5.781 J-5.781
G1 X68.718
G3 X72.543 Y-28.5 I0 J3.825
G1 Y-16.5
G2 X75.8 Y-12.427 I4.175 J0
G3 X76.28 Y-11.668 I-0.14 J0.619
G1 X76.141 Y-11.049
X76.119 Y-10.952 Z-27.992
X76.098 Y-10.857 Z-27.969
X76.077 Y-10.767 Z-27.931
X76.059 Y-10.684 Z-27.879
X76.042 Y-10.611 Z-27.814
X76.028 Y-10.547 Z-27.738
X76.016 Y-10.497 Z-27.653
X76.008 Y-10.459 Z-27.561
X76.003 Y-10.437 Z-27.464
X76.001 Y-10.429 Z-27.365
G0 Z15
G28 G91 Z0
G90
G28 G91 X0 Y0
G90
M5
M30
