(1001)
(T7  D=3.175 CR=0 - ZMIN=-3.76 - flat end mill)
G90 G94
G17
G21
G28 G91 Z0
G90

(2D Contour3)
T7
S5000 M3
G54
M8
G0 X-24.877 Y26.399
Z15
Z5
G1 Z2.818 F333.3
X-24.872 Y26.405 Z2.747 F1000
X-24.858 Y26.424 Z2.68
X-24.836 Y26.455 Z2.62
X-24.806 Y26.495 Z2.569
X-24.77 Y26.544 Z2.531
X-24.73 Y26.598 Z2.508
X-24.688 Y26.654 Z2.5
X-24.5 Y26.91
G3 X-24.566 Y27.354 I-0.255 J0.189
X-27.782 Y28.413 Z2.38 I-3.216 J-4.354 F333.3
G1 X-57.147 Z1.354
G2 X-61.805 Y30.342 Z1.174 I0 J6.587
G1 X-78.876 Y47.413 Z0.331
G2 X-80.806 Y52.071 Z0.15 I4.658 J4.658
G1 Y85 Z-1
Y117.929 F1000
G2 X-78.876 Y122.587 I6.587 J0
G1 X-61.805 Y139.659
G2 X-57.147 Y141.587 I4.658 J-4.659
G1 X-27.782
G3 X-22.369 Y147 I0 J5.413
G1 Y159
G2 X-19.782 Y161.587 I2.587 J0
G1 X-11.282
G2 X-10.159 Y161.123 I0 J-1.587
G1 X-9.659 Y160.623
G2 X-9.194 Y159.5 I-1.123 J-1.123
G1 Y130.415
G2 X-11.715 Y127.828 I-2.588 J0
G3 X-11.715 Y42.172 I1.104 J-42.828
G2 X-9.194 Y39.585 I-0.067 J-2.587
G1 Y10.5
G2 X-9.659 Y9.377 I-1.588 J0
G1 X-10.159 Y8.877
G2 X-11.282 Y8.413 I-1.123 J1.123
G1 X-19.782
G2 X-22.369 Y11 I0 J2.587
G1 Y23
G3 X-27.782 Y28.413 I-5.413 J0
G1 X-57.147
G2 X-61.805 Y30.342 I0 J6.587
G1 X-78.876 Y47.413
G2 X-80.806 Y52.071 I4.658 J4.658
G1 Y85
Y117.929 Z-1.9 F333.3
G2 X-79.816 Y121.402 Z-2 I6.587 J0
X-78.876 Y122.587 I5.597 J-3.473 F1000
G1 X-61.805 Y139.659
G2 X-57.147 Y141.587 I4.658 J-4.659
G1 X-27.782
G3 X-22.369 Y147 I0 J5.413
G1 Y159
G2 X-19.782 Y161.587 I2.587 J0
G1 X-11.282
G2 X-10.159 Y161.123 I0 J-1.587
G1 X-9.659 Y160.623
G2 X-9.194 Y159.5 I-1.123 J-1.123
G1 Y130.415
G2 X-11.715 Y127.828 I-2.588 J0
G3 X-11.715 Y42.172 I1.104 J-42.828
G2 X-9.194 Y39.585 I-0.067 J-2.587
G1 Y10.5
G2 X-9.659 Y9.377 I-1.588 J0
G1 X-10.159 Y8.877
G2 X-11.282 Y8.413 I-1.123 J1.123
G1 X-19.782
G2 X-22.369 Y11 I0 J2.587
G1 Y23
G3 X-27.782 Y28.413 I-5.413 J0
G1 X-57.147
G2 X-61.805 Y30.342 I0 J6.587
G1 X-78.876 Y47.413
G2 X-80.806 Y52.071 I4.658 J4.658
G1 Y117.929
G2 X-79.816 Y121.402 I6.587 J0
X-78.876 Y122.587 Z-2.041 I5.597 J-3.473 F333.3
G1 X-61.805 Y139.659 Z-2.701
G2 X-57.147 Y141.587 Z-2.843 I4.658 J-4.659
G1 X-51.392 Z-3
X-27.782 F1000
G3 X-22.369 Y147 I0 J5.413
G1 Y159
G2 X-19.782 Y161.587 I2.587 J0
G1 X-11.282
G2 X-10.159 Y161.123 I0 J-1.587
G1 X-9.659 Y160.623
G2 X-9.194 Y159.5 I-1.123 J-1.123
G1 Y130.415
G2 X-11.715 Y127.828 I-2.588 J0
G3 X-11.715 Y42.172 I1.104 J-42.828
G2 X-9.194 Y39.585 I-0.067 J-2.587
G1 Y10.5
G2 X-9.659 Y9.377 I-1.588 J0
G1 X-10.159 Y8.877
G2 X-11.282 Y8.413 I-1.123 J1.123
G1 X-19.782
G2 X-22.369 Y11 I0 J2.587
G1 Y23
G3 X-27.782 Y28.413 I-5.413 J0
G1 X-57.147
G2 X-61.805 Y30.342 I0 J6.587
G1 X-78.876 Y47.413
G2 X-80.806 Y52.071 I4.658 J4.658
G1 Y117.929
G2 X-78.876 Y122.587 I6.587 J0
G1 X-61.805 Y139.659
G2 X-57.147 Y141.587 I4.658 J-4.659
G1 X-51.392
X-27.782 Z-3.645 F333.3
G3 X-23.994 Y143.134 Z-3.76 I0 J5.413
X-22.369 Y147 I-3.788 J3.866 F1000
G1 Y159
G2 X-19.782 Y161.587 I2.587 J0
G1 X-11.282
G2 X-10.159 Y161.123 I0 J-1.587
G1 X-9.659 Y160.623
G2 X-9.194 Y159.5 I-1.123 J-1.123
G1 Y130.415
G2 X-11.715 Y127.828 I-2.588 J0
G3 X-11.715 Y42.172 I1.104 J-42.828
G2 X-9.194 Y39.585 I-0.067 J-2.587
G1 Y10.5
G2 X-9.659 Y9.377 I-1.588 J0
G1 X-10.159 Y8.877
G2 X-11.282 Y8.413 I-1.123 J1.123
G1 X-19.782
G2 X-22.369 Y11 I0 J2.587
G1 Y23
G3 X-27.782 Y28.413 I-5.413 J0
G1 X-57.147
G2 X-61.805 Y30.342 I0 J6.587
G1 X-78.876 Y47.413
G2 X-80.806 Y52.071 I4.658 J4.658
G1 Y117.929
G2 X-78.876 Y122.587 I6.587 J0
G1 X-61.805 Y139.659
G2 X-57.147 Y141.587 I4.658 J-4.659
G1 X-27.782
G3 X-23.994 Y143.134 I0 J5.413
X-23.989 Y143.583 I-0.222 J0.227
G1 X-24.211 Y143.81
X-24.261 Y143.86 Z-3.752
X-24.308 Y143.908 Z-3.729
X-24.35 Y143.951 Z-3.691
X-24.385 Y143.987 Z-3.64
X-24.412 Y144.014 Z-3.58
X-24.428 Y144.031 Z-3.513
X-24.434 Y144.037 Z-3.443
G0 Z15
M9
G28 G91 Z0
G90
G28 G91 X0 Y0
G90
M5
M30
