(bikeRackOutter_v2)
(T9 D=3.175 CR=0 - ZMIN=-6.26 - flat end mill)
G90 G94
G17
G21
G28 G91 Z0
G90

(2D Contour4)
T9
S18000 M3
G17 G90 G94
G54
G0 X101.857 Y-22.284
Z15
G0 Z5
G1 Z1 F16.7
Z-5.943
X101.86 Y-22.292 Z-6.013 F50
X101.869 Y-22.313 Z-6.08
X101.883 Y-22.348 Z-6.14
X101.902 Y-22.395 Z-6.191
X101.925 Y-22.451 Z-6.229
X101.95 Y-22.513 Z-6.252
X101.977 Y-22.578 Z-6.26
X102.096 Y-22.873
G3 X102.51 Y-23.047 I0.294 J0.12
G2 X106.875 Y-22.194 I4.365 J-10.734
G1 X111.835 Y-22.195
G2 X114.423 Y-24.782 I0 J-2.588
G1 Y-25.783
G3 X115.835 Y-27.195 I1.412 J0
G1 X119.835
G3 X121.247 Y-25.783 I0 J1.413
G1 Y-24.783
G2 X123.835 Y-22.195 I2.588 J0
G1 X131.835
G2 X134.423 Y-24.783 I0 J-2.587
G1 Y-25.783
G3 X135.835 Y-27.195 I1.413 J0
G1 X139.835
G3 X141.247 Y-25.783 I0 J1.413
G1 Y-24.783
G2 X143.835 Y-22.195 I2.588 J0
G1 X161.835
G2 X164.423 Y-24.783 I0 J-2.587
G1 Y-25.783
G3 X165.835 Y-27.195 I1.413 J0
G1 X169.835
G3 X171.247 Y-25.783 I0 J1.413
G1 Y-24.783
G2 X173.835 Y-22.195 I2.588 J0
G1 X191.835
G2 X194.423 Y-24.783 I0 J-2.587
G1 Y-25.783
G3 X195.835 Y-27.195 I1.413 J0
G1 X199.835
G3 X201.247 Y-25.783 I0 J1.413
G1 Y-24.783
G2 X203.835 Y-22.195 I2.588 J0
G1 X211.835
G2 X214.423 Y-24.783 I0 J-2.587
G1 Y-25.783
G3 X215.835 Y-27.195 I1.413 J0
G1 X219.835
G3 X221.247 Y-25.783 I0 J1.413
G1 Y-24.769
G2 X223.794 Y-22.182 I2.587 J0
G1 X223.795
G3 X250.752 Y-20.209 I-3.589 J234.121
G1 X415.426 Y1.459
G2 X430.744 Y-6.549 I1.961 J-14.903
G1 X450.074 Y-43.996
G2 X451.587 Y-50.23 I-12.078 J-6.234
G1 Y-127.535
G2 X450.074 Y-133.769 I-13.592 J0
G1 X430.744 Y-171.216
G2 X415.426 Y-179.224 I-13.357 J6.895
G1 X250.752 Y-157.556
G3 X223.795 Y-155.582 I-30.547 J-232.148
G1 X223.794
G2 X221.247 Y-152.995 I0.042 J2.587
G1 Y-151.982
G3 X219.835 Y-150.57 I-1.412 J0
G1 X215.835
G3 X214.423 Y-151.982 I0 J-1.412
G1 Y-152.982
G2 X211.835 Y-155.57 I-2.587 J0
G1 X203.835
G2 X201.247 Y-152.982 I0 J2.588
G1 Y-151.982
G3 X199.835 Y-150.57 I-1.412 J0
G1 X195.835
G3 X194.423 Y-151.982 I0 J-1.412
G1 Y-152.982
G2 X191.835 Y-155.57 I-2.587 J0
G1 X173.835
G2 X171.247 Y-152.982 I0 J2.588
G1 Y-151.982
G3 X169.835 Y-150.57 I-1.412 J0
G1 X165.835
G3 X164.423 Y-151.982 I0 J-1.412
G1 Y-152.982
G2 X161.835 Y-155.57 I-2.587 J0
G1 X143.835
G2 X141.247 Y-152.982 I0 J2.588
G1 Y-151.982
G3 X139.835 Y-150.57 I-1.412 J0
G1 X135.835
G3 X134.423 Y-151.982 I0 J-1.412
G1 Y-152.982
G2 X131.835 Y-155.57 I-2.587 J0
G1 X123.835
G2 X121.247 Y-152.982 I0 J2.588
G1 Y-151.982
G3 X119.835 Y-150.57 I-1.412 J0
G1 X115.835
G3 X114.423 Y-151.982 I0 J-1.412
G1 Y-152.983
G2 X111.835 Y-155.57 I-2.588 J0
G1 X106.875 Y-155.572
G2 X98.706 Y-152.203 I-0.001 J11.588
G1 X91.432 Y-145.046
G2 X91.417 Y-141.372 I1.815 J1.844
G1 X92.118 Y-140.67
G3 X92.119 Y-138.672 I-0.998 J0.999
G1 X89.29 Y-135.843
G3 X87.293 Y-135.843 I-0.999 J-0.999
G1 X86.587 Y-136.55
G2 X82.925 Y-136.548 I-1.83 J1.829
G1 X76.804 Y-130.417
G3 X70.873 Y-127.969 I-5.931 J-5.965
G1 X67.751 Y-127.968
G2 X65.164 Y-125.381 I0.001 J2.588
G1 Y-124.381
G3 X63.752 Y-122.968 I-1.412 J0
G1 X59.752
G3 X58.339 Y-124.381 I0 J-1.412
G1 Y-125.381
G2 X55.752 Y-127.968 I-2.587 J0
G1 X42.752
G2 X40.164 Y-125.381 I0 J2.588
G1 Y-124.381
G3 X38.752 Y-122.968 I-1.412 J0
G1 X34.752
G3 X33.339 Y-124.381 I0 J-1.412
G1 Y-125.381
G2 X30.752 Y-127.968 I-2.587 J0
G1 X17.752
G2 X15.164 Y-125.381 I0 J2.588
G1 Y-124.381
G3 X13.752 Y-122.968 I-1.412 J0
G1 X9.752
G3 X8.339 Y-124.381 I0 J-1.412
G1 Y-125.382
G2 X5.753 Y-127.969 I-2.587 J0
G1 X4
G2 X-1.587 Y-122.382 I0 J5.587
G1 Y-55.382
G2 X4 Y-49.795 I5.587 J0
G1 X5.753 Y-49.796
G2 X8.339 Y-52.383 I-0.001 J-2.588
G1 Y-53.384
G3 X9.752 Y-54.796 I1.413 J0
G1 X13.752
G3 X15.164 Y-53.384 I0 J1.412
G1 Y-52.384
G2 X17.752 Y-49.796 I2.587 J0
G1 X30.752
G2 X33.339 Y-52.384 I0 J-2.588
G1 Y-53.384
G3 X34.752 Y-54.796 I1.413 J0
G1 X38.752
G3 X40.164 Y-53.384 I0 J1.412
G1 Y-52.384
G2 X42.752 Y-49.796 I2.588 J0
G1 X55.752
G2 X58.339 Y-52.384 I0 J-2.588
G1 Y-53.384
G3 X59.752 Y-54.796 I1.413 J0
G1 X63.752
G3 X65.164 Y-53.384 I0 J1.412
G1 Y-52.383
G2 X67.751 Y-49.796 I2.588 J0
G1 X70.873 Y-49.795
G3 X76.804 Y-47.349 I0.001 J8.413
G1 X82.925 Y-41.216
G2 X86.586 Y-41.215 I1.831 J-1.828
G1 X87.293 Y-41.921
G3 X89.29 Y-41.921 I0.999 J0.999
G1 X92.119 Y-39.093
G3 X92.119 Y-37.095 I-0.999 J0.999
G1 X91.418 Y-36.394
G2 X91.432 Y-32.72 I1.83 J1.83
G1 X98.706 Y-25.563
G2 X102.51 Y-23.047 I8.169 J-8.219
G3 X102.684 Y-22.633 I-0.12 J0.294
G1 X102.565 Y-22.339
X102.538 Y-22.274 Z-6.252
X102.513 Y-22.212 Z-6.229
X102.49 Y-22.156 Z-6.191
X102.471 Y-22.109 Z-6.14
X102.457 Y-22.074 Z-6.08
X102.448 Y-22.052 Z-6.013
X102.445 Y-22.045 Z-5.943
G0 Z15
G28 G91 Z0
G90
G28 G91 X0 Y0
G90
M5
M30
