(1001)
(T4  D=3.175 CR=0 - ZMIN=-7.5 - flat end mill)
G90 G94
G17
G21
G28 G91 Z0
G90

(Bore1)
T4
S5000 M3
G54
M8
G0 X23.794 Y-74.73
Z15
Z2
G1 Z0.317 F1000
G19 G2 Y-75.048 Z0 J-0.317 K0
G1 Y-75.206
G17 G3 X24 Y-75.412 I0.206 J0
X24 Y-74.588 Z-0.5 I0 J0.412
X24 Y-75.412 Z-1 I0 J-0.412
X24 Y-74.588 Z-1.5 I0 J0.412
X24 Y-75.412 Z-2 I0 J-0.412
X24 Y-74.588 Z-2.5 I0 J0.412
X24 Y-75.412 Z-3 I0 J-0.412
X24 Y-74.588 Z-3.5 I0 J0.412
X24 Y-75.412 Z-4 I0 J-0.412
X24 Y-74.588 Z-4.5 I0 J0.412
X24 Y-75.412 Z-5 I0 J-0.412
X24 Y-74.588 Z-5.5 I0 J0.412
X24 Y-75.412 Z-6 I0 J-0.412
X24 Y-74.588 Z-6.5 I0 J0.412
X24 Y-75.412 Z-7 I0 J-0.412
X24 Y-74.588 Z-7.5 I0 J0.412
X24 Y-75.412 I0 J-0.412
X24 Y-74.588 I0 J0.412
X23.794 Y-74.794 I0 J-0.206
G1 Y-74.952
G19 G2 Y-75.27 Z-7.182 J0 K0.318
G0 Z5
Y-24.73
Z2
G1 Z0.317 F1000
G2 Y-25.048 Z0 J-0.318 K0
G1 Y-25.206
G17 G3 X24 Y-25.413 I0.206 J0
X24 Y-24.587 Z-0.5 I0 J0.413
X24 Y-25.413 Z-1 I0 J-0.413
X24 Y-24.587 Z-1.5 I0 J0.413
X24 Y-25.413 Z-2 I0 J-0.413
X24 Y-24.587 Z-2.5 I0 J0.413
X24 Y-25.413 Z-3 I0 J-0.413
X24 Y-24.587 Z-3.5 I0 J0.413
X24 Y-25.413 Z-4 I0 J-0.413
X24 Y-24.587 Z-4.5 I0 J0.413
X24 Y-25.413 Z-5 I0 J-0.413
X24 Y-24.587 Z-5.5 I0 J0.413
X24 Y-25.413 Z-6 I0 J-0.413
X24 Y-24.587 Z-6.5 I0 J0.413
X24 Y-25.413 Z-7 I0 J-0.413
X24 Y-24.587 Z-7.5 I0 J0.413
X24 Y-25.413 I0 J-0.413
X24 Y-24.587 I0 J0.413
X23.794 Y-24.794 I0 J-0.206
G1 Y-24.952
G19 G2 Y-25.27 Z-7.182 J0 K0.318
G0 Z15
G17
M9
G28 G91 Z0
G90
G28 G91 X0 Y0
G90
M5
M30
