(1001)
(T4  D=3.175 CR=0 - ZMIN=-24.836 - flat end mill)
G90 G94
G17
G21
G28 G91 Z0
G90

(Bore1)
T4
S5000 M3
G54
M8
G0 X7.73 Y-13.206
Z15
Z2
G1 Z0.317 F50
G18 G2 X8.047 Z0 I0.317 K0
G1 X8.206
G17 G3 X8.413 Y-13 I0 J0.206
X7.587 Y-13 Z-0.5 I-0.413 J0
X8.413 Y-13 Z-1 I0.413 J0
X7.587 Y-13 Z-1.5 I-0.413 J0
X8.413 Y-13 Z-2 I0.413 J0
X7.587 Y-13 Z-2.5 I-0.413 J0
X8.413 Y-13 Z-3 I0.413 J0
X7.587 Y-13 Z-3.5 I-0.413 J0
X8.413 Y-13 Z-4 I0.413 J0
X7.587 Y-13 Z-4.5 I-0.413 J0
X8.413 Y-13 Z-5 I0.413 J0
X7.587 Y-13 Z-5.5 I-0.413 J0
X8.413 Y-13 Z-6 I0.413 J0
X7.587 Y-13 Z-6.5 I-0.413 J0
X8.413 Y-13 Z-7 I0.413 J0
X7.587 Y-13 Z-7.5 I-0.413 J0
X8.413 Y-13 Z-8 I0.413 J0
X7.587 Y-13 Z-8.5 I-0.413 J0
X8.413 Y-13 Z-9 I0.413 J0
X7.587 Y-13 Z-9.5 I-0.413 J0
X8.413 Y-13 Z-10 I0.413 J0
X7.587 Y-13 Z-10.5 I-0.413 J0
X8.413 Y-13 Z-11 I0.413 J0
X7.587 Y-13 Z-11.5 I-0.413 J0
X8.413 Y-13 Z-12 I0.413 J0
X7.587 Y-13 Z-12.5 I-0.413 J0
X8.413 Y-13 Z-13 I0.413 J0
X7.587 Y-13 Z-13.5 I-0.413 J0
X8.413 Y-13 Z-14 I0.413 J0
X7.587 Y-13 Z-14.5 I-0.413 J0
X8.413 Y-13 Z-15 I0.413 J0
X7.587 Y-13 Z-15.5 I-0.413 J0
X8.413 Y-13 Z-16 I0.413 J0
X7.587 Y-13 Z-16.5 I-0.413 J0
X8.413 Y-13 Z-17 I0.413 J0
X7.587 Y-13 Z-17.5 I-0.413 J0
X8.413 Y-13 Z-18 I0.413 J0
X7.587 Y-13 Z-18.5 I-0.413 J0
X8.413 Y-13 Z-19 I0.413 J0
X7.587 Y-13 Z-19.5 I-0.413 J0
X8.413 Y-13 Z-20 I0.413 J0
X7.587 Y-13 Z-20.5 I-0.413 J0
X8.413 Y-13 Z-21 I0.413 J0
X7.587 Y-13 Z-21.5 I-0.413 J0
X8.413 Y-13 Z-22 I0.413 J0
X7.587 Y-13 Z-22.5 I-0.413 J0
X8.413 Y-13 Z-23 I0.413 J0
X7.587 Y-13 Z-23.5 I-0.413 J0
X8.413 Y-13 Z-24 I0.413 J0
X7.587 Y-13 Z-24.5 I-0.413 J0
X8.213 Y-13.353 Z-24.836 I0.413 J0
X7.787 Y-12.647 I-0.213 J0.353
X8.213 Y-13.353 I0.213 J-0.353
X8.283 Y-13.07 I-0.106 J0.177
G1 X8.201 Y-12.934
X8.165 Y-12.874 Z-24.828
X8.13 Y-12.816 Z-24.805
X8.099 Y-12.765 Z-24.767
X8.073 Y-12.722 Z-24.717
X8.054 Y-12.689 Z-24.656
X8.042 Y-12.669 Z-24.589
X8.038 Y-12.662 Z-24.519
G0 Z5
X57.73 Y-13.206
Z2
G1 Z0.317 F50
G18 G2 X58.048 Z0 I0.318 K0
G1 X58.206
G17 G3 X58.412 Y-13 I0 J0.206
X57.588 Y-13 Z-0.5 I-0.412 J0
X58.412 Y-13 Z-1 I0.412 J0
X57.588 Y-13 Z-1.5 I-0.412 J0
X58.412 Y-13 Z-2 I0.412 J0
X57.588 Y-13 Z-2.5 I-0.412 J0
X58.412 Y-13 Z-3 I0.412 J0
X57.588 Y-13 Z-3.5 I-0.412 J0
X58.412 Y-13 Z-4 I0.412 J0
X57.588 Y-13 Z-4.5 I-0.412 J0
X58.412 Y-13 Z-5 I0.412 J0
X57.588 Y-13 Z-5.5 I-0.412 J0
X58.412 Y-13 Z-6 I0.412 J0
X57.588 Y-13 Z-6.5 I-0.412 J0
X58.412 Y-13 Z-7 I0.412 J0
X57.588 Y-13 Z-7.5 I-0.412 J0
X58.412 Y-13 Z-8 I0.412 J0
X57.588 Y-13 Z-8.5 I-0.412 J0
X58.412 Y-13 Z-9 I0.412 J0
X57.588 Y-13 Z-9.5 I-0.412 J0
X58.412 Y-13 Z-10 I0.412 J0
X57.588 Y-13 Z-10.5 I-0.412 J0
X58.412 Y-13 Z-11 I0.412 J0
X57.588 Y-13 Z-11.5 I-0.412 J0
X58.412 Y-13 Z-12 I0.412 J0
X57.588 Y-13 Z-12.5 I-0.412 J0
X58.412 Y-13 Z-13 I0.412 J0
X57.588 Y-13 Z-13.5 I-0.412 J0
X58.412 Y-13 Z-14 I0.412 J0
X57.588 Y-13 Z-14.5 I-0.412 J0
X58.412 Y-13 Z-15 I0.412 J0
X57.588 Y-13 Z-15.5 I-0.412 J0
X58.412 Y-13 Z-16 I0.412 J0
X57.588 Y-13 Z-16.5 I-0.412 J0
X58.412 Y-13 Z-17 I0.412 J0
X57.588 Y-13 Z-17.5 I-0.412 J0
X58.412 Y-13 Z-18 I0.412 J0
X57.588 Y-13 Z-18.5 I-0.412 J0
X58.412 Y-13 Z-19 I0.412 J0
X57.588 Y-13 Z-19.5 I-0.412 J0
X58.412 Y-13 Z-20 I0.412 J0
X57.588 Y-13 Z-20.5 I-0.412 J0
X58.412 Y-13 Z-21 I0.412 J0
X57.588 Y-13 Z-21.5 I-0.412 J0
X58.412 Y-13 Z-22 I0.412 J0
X57.588 Y-13 Z-22.5 I-0.412 J0
X58.413 Y-13 Z-23 I0.412 J0
X57.587 Y-13 Z-23.5 I-0.413 J0
X58.413 Y-13 Z-24 I0.413 J0
X57.587 Y-13 Z-24.5 I-0.413 J0
X58.213 Y-13.353 Z-24.836 I0.413 J0
X57.787 Y-12.647 I-0.213 J0.353
X58.213 Y-13.353 I0.213 J-0.353
X58.283 Y-13.07 I-0.106 J0.177
G1 X58.201 Y-12.934
X58.165 Y-12.874 Z-24.828
X58.13 Y-12.816 Z-24.805
X58.099 Y-12.765 Z-24.767
X58.073 Y-12.722 Z-24.717
X58.054 Y-12.689 Z-24.656
X58.042 Y-12.669 Z-24.589
X58.038 Y-12.662 Z-24.519
G0 Z15
M9
G28 G91 Z0
G90
G28 G91 X0 Y0
G90
M5
M30
