(1001)
(T1  D=3.175 CR=0 - ZMIN=-5 - flat end mill)
G90 G94
G17
G21
G28 G91 Z0
G90

(Bore1)
T1
S18000 M3
G54
M8
G0 X7.73 Y-13.206
Z15
Z2
G1 Z0.317 F300
G18 G2 X8.047 Z0 I0.317 K0
G1 X8.206
G17 G3 X8.413 Y-13 I0 J0.206
X7.587 Y-13 Z-0.5 I-0.413 J0
X8.413 Y-13 Z-1 I0.413 J0
X7.587 Y-13 Z-1.5 I-0.413 J0
X8.413 Y-13 Z-2 I0.413 J0
X7.587 Y-13 Z-2.5 I-0.413 J0
X8.413 Y-13 Z-3 I0.413 J0
X7.587 Y-13 Z-3.5 I-0.413 J0
X8.413 Y-13 Z-4 I0.413 J0
X7.587 Y-13 Z-4.5 I-0.413 J0
X8.413 Y-13 Z-5 I0.413 J0
X7.587 Y-13 I-0.413 J0
X8.413 Y-13 I0.413 J0
X8.206 Y-12.794 I-0.206 J0
G1 X8.047
G18 G3 X7.73 Z-4.682 I0 K0.318
G0 Z5
X57.73 Y-13.206
Z2
G1 Z0.317 F300
G2 X58.048 Z0 I0.318 K0
G1 X58.206
G17 G3 X58.412 Y-13 I0 J0.206
X57.588 Y-13 Z-0.5 I-0.412 J0
X58.412 Y-13 Z-1 I0.412 J0
X57.588 Y-13 Z-1.5 I-0.412 J0
X58.412 Y-13 Z-2 I0.412 J0
X57.588 Y-13 Z-2.5 I-0.412 J0
X58.412 Y-13 Z-3 I0.412 J0
X57.588 Y-13 Z-3.5 I-0.412 J0
X58.412 Y-13 Z-4 I0.412 J0
X57.588 Y-13 Z-4.5 I-0.412 J0
X58.412 Y-13 Z-5 I0.412 J0
X57.588 Y-13 I-0.412 J0
X58.412 Y-13 I0.412 J0
X58.206 Y-12.794 I-0.206 J0
G1 X58.048
G18 G3 X57.73 Z-4.682 I0 K0.318
G0 Z15
G17
M9
G28 G91 Z0
G90
G28 G91 X0 Y0
G90
M5
M30
