(1001)
(T1 D=6.35 CR=0 - ZMIN=-0.5 - flat end mill)
G90 G94
G17
G21
G28 G91 Z0
G90

(2D Adaptive2)
T1
S150 M3
G17 G90 G94
G54
G0 X34.814 Y-38.41
Z15
G0 Z5
Z2.5
G3 X39.063 Y-40.439 Z2.313 I2.971 J0.757 F50
X40.294 Y-35.899 Z2.125 I-1.277 J2.783
X35.612 Y-35.505 Z1.938 I-2.505 J-1.755
X36.065 Y-40.177 Z1.75 I2.174 J-2.147
X40.575 Y-38.892 Z1.563 I1.719 J2.522
X38.503 Y-34.692 Z1.375 I-2.787 J1.236
X34.747 Y-37.482 Z1.188 I-0.714 J-2.961
X38.164 Y-40.671 Z1 I3.038 J-0.17
X40.684 Y-36.742 Z0.813 I-0.378 J3.016
X36.37 Y-34.971 Z0.625 I-2.895 J-0.913
X35.404 Y-39.528 Z0.438 I1.417 J-2.681
X40.056 Y-39.658 Z0.25 I2.38 J1.874
X39.349 Y-35.064 Z0.063 I-2.269 J2.002
X34.961 Y-36.584 Z-0.125 I-1.56 J-2.589
X37.243 Y-40.623 Z-0.313 I2.824 J-1.068
X40.801 Y-37.655 Z-0.5 I0.542 J2.967
X34.769 Y-37.655 I-3.016 J0
X40.801 Y-37.655 I3.016 J0
S7519
G1 X40.805 Y-37.427 F150
X40.96 Y-36.529
X41.014 Y-36.389
X41.052 Y-36.244
X41.074 Y-36.095
X41.084 Y-35.946
X41.08 Y-35.787
X41.063 Y-35.618
X41.031 Y-35.439
X40.981 Y-35.253
X40.912 Y-35.059
X40.823 Y-34.862
X40.713 Y-34.662
X40.582 Y-34.463
X40.428 Y-34.266
X40.252 Y-34.074
X40.053 Y-33.89
X39.833 Y-33.717
X39.592 Y-33.557
X39.331 Y-33.412
X39.051 Y-33.286
X38.755 Y-33.179
X38.445 Y-33.095
X38.122 Y-33.035
X37.789 Y-33
X37.449 Y-32.992
X37.104 Y-33.011
X36.757 Y-33.059
X36.411 Y-33.135
X36.068 Y-33.24
X35.732 Y-33.374
X35.405 Y-33.535
X35.089 Y-33.724
X34.788 Y-33.938
X34.503 Y-34.178
X34.237 Y-34.441
X33.991 Y-34.726
X33.769 Y-35.03
X33.571 Y-35.353
X33.399 Y-35.692
X33.254 Y-36.044
X33.138 Y-36.407
X33.052 Y-36.78
X32.995 Y-37.159
X32.969 Y-37.542
X32.973 Y-37.926
X33.009 Y-38.309
X33.075 Y-38.689
X33.172 Y-39.062
X33.298 Y-39.426
X33.453 Y-39.78
X33.637 Y-40.12
X33.847 Y-40.445
X34.082 Y-40.751
X34.342 Y-41.038
X34.624 Y-41.303
X34.926 Y-41.545
X35.247 Y-41.762
X35.584 Y-41.953
X35.935 Y-42.116
X36.299 Y-42.25
X36.672 Y-42.354
X37.053 Y-42.429
X37.438 Y-42.472
X37.825 Y-42.484
X38.213 Y-42.466
X38.597 Y-42.416
X38.976 Y-42.336
X39.348 Y-42.225
X39.71 Y-42.085
X40.059 Y-41.916
X40.394 Y-41.72
X40.711 Y-41.498
X41.01 Y-41.25
X41.288 Y-40.98
X41.544 Y-40.688
X41.775 Y-40.377
X42.016 Y-39.992
X42.42 Y-39.211
X42.683 Y-38.587
X42.859 Y-38.049
X42.977 Y-37.562
X43.05 Y-37.098
X43.085 Y-36.648
X43.083 Y-36.212
X43.047 Y-35.788
X42.978 Y-35.373
X42.877 Y-34.967
X42.743 Y-34.571
X42.578 Y-34.186
X42.381 Y-33.814
X42.153 Y-33.455
X41.895 Y-33.113
X41.607 Y-32.79
X41.291 Y-32.487
X40.947 Y-32.208
X40.577 Y-31.953
X40.181 Y-31.725
X39.763 Y-31.527
X39.325 Y-31.361
X38.869 Y-31.229
X38.398 Y-31.133
X37.915 Y-31.075
X37.423 Y-31.055
X36.926 Y-31.075
X36.428 Y-31.135
X35.932 Y-31.236
X35.443 Y-31.377
X34.962 Y-31.559
X34.495 Y-31.78
X34.044 Y-32.04
X33.612 Y-32.336
X33.204 Y-32.668
X32.822 Y-33.033
X32.469 Y-33.43
X32.148 Y-33.856
X31.86 Y-34.307
X31.609 Y-34.782
X31.397 Y-35.277
X31.224 Y-35.788
X31.092 Y-36.313
X31.003 Y-36.848
X30.958 Y-37.389
X30.955 Y-37.934
X30.997 Y-38.477
X31.082 Y-39.016
X31.21 Y-39.547
X31.38 Y-40.067
X31.592 Y-40.571
X31.844 Y-41.058
X32.134 Y-41.523
X32.461 Y-41.963
X32.822 Y-42.376
X33.216 Y-42.759
X33.639 Y-43.109
X34.089 Y-43.424
X34.563 Y-43.702
X35.058 Y-43.941
X35.57 Y-44.14
X36.097 Y-44.297
X36.635 Y-44.411
X37.181 Y-44.482
X37.73 Y-44.509
X38.28 Y-44.491
X38.827 Y-44.43
X39.367 Y-44.324
X39.897 Y-44.176
X40.413 Y-43.986
X40.913 Y-43.754
X41.392 Y-43.484
X41.848 Y-43.176
X42.288 Y-42.824
X42.767 Y-42.374
X43.221 Y-41.872
X43.648 Y-41.316
X44.033 Y-40.721
X44.364 Y-40.107
X44.639 Y-39.483
X44.856 Y-38.856
X45.019 Y-38.229
X45.128 Y-37.603
X45.186 Y-36.98
X45.194 Y-36.363
X45.152 Y-35.752
X45.063 Y-35.152
X44.926 Y-34.564
X44.743 Y-33.991
X44.515 Y-33.434
X44.242 Y-32.897
X43.927 Y-32.383
X43.57 Y-31.893
X43.173 Y-31.431
X42.737 Y-31
X42.264 Y-30.603
X41.757 Y-30.241
X41.218 Y-29.919
X40.651 Y-29.639
X40.057 Y-29.403
X39.442 Y-29.215
X38.808 Y-29.074
X38.161 Y-28.985
X37.503 Y-28.948
X36.84 Y-28.963
X36.176 Y-29.033
X35.515 Y-29.156
X34.862 Y-29.333
X34.222 Y-29.563
X33.599 Y-29.845
X32.997 Y-30.178
X32.421 Y-30.56
X31.875 Y-30.99
X31.363 Y-31.463
X30.889 Y-31.978
X30.457 Y-32.532
X30.068 Y-33.12
X29.728 Y-33.74
X29.437 Y-34.386
X29.199 Y-35.056
X29.014 Y-35.744
X28.886 Y-36.446
X28.814 Y-37.157
X28.799 Y-37.873
X28.841 Y-38.588
X28.942 Y-39.299
X29.099 Y-40
X29.312 Y-40.687
X29.579 Y-41.355
X29.9 Y-42
X30.271 Y-42.618
X30.692 Y-43.204
X31.158 Y-43.755
X31.667 Y-44.267
X32.216 Y-44.736
X32.8 Y-45.16
X33.417 Y-45.536
X34.063 Y-45.861
X34.733 Y-46.134
X35.422 Y-46.352
X36.127 Y-46.514
X36.843 Y-46.618
X37.564 Y-46.665
X38.288 Y-46.654
X39.008 Y-46.585
X39.721 Y-46.458
X40.421 Y-46.275
X41.104 Y-46.036
X41.768 Y-45.741
X42.429 Y-45.382
X43.079 Y-44.959
X43.713 Y-44.469
X44.32 Y-43.916
X44.89 Y-43.307
X45.413 Y-42.649
X45.881 Y-41.951
X46.291 Y-41.221
X46.638 Y-40.465
X46.921 Y-39.69
X47.139 Y-38.902
X47.292 Y-38.106
X47.38 Y-37.306
X47.403 Y-36.508
X47.362 Y-35.715
X47.258 Y-34.932
X47.093 Y-34.163
X46.866 Y-33.411
X46.581 Y-32.68
X46.237 Y-31.975
X45.838 Y-31.298
X45.384 Y-30.654
X44.878 Y-30.047
X44.323 Y-29.479
X43.721 Y-28.956
X43.076 Y-28.48
X42.391 Y-28.055
X41.67 Y-27.684
X40.917 Y-27.37
X40.136 Y-27.116
X39.333 Y-26.925
X38.512 Y-26.798
X37.679 Y-26.737
X36.839 Y-26.743
X35.998 Y-26.817
X35.161 Y-26.958
X34.334 Y-27.168
X33.522 Y-27.445
X32.732 Y-27.787
X31.968 Y-28.193
X31.237 Y-28.662
X30.542 Y-29.189
X29.891 Y-29.773
X29.286 Y-30.409
X28.732 Y-31.094
X28.234 Y-31.823
X27.795 Y-32.591
X27.417 Y-33.395
X27.105 Y-34.227
X26.861 Y-35.084
X26.685 Y-35.959
X26.58 Y-36.847
X26.547 Y-37.742
X26.586 Y-38.637
X26.696 Y-39.528
X26.878 Y-40.408
X27.13 Y-41.271
X27.451 Y-42.112
X27.839 Y-42.925
X28.291 Y-43.704
X28.804 Y-44.446
X29.375 Y-45.144
X30.001 Y-45.794
X30.677 Y-46.392
X31.4 Y-46.934
X32.163 Y-47.417
X32.964 Y-47.837
X33.795 Y-48.191
X34.652 Y-48.478
X35.53 Y-48.694
X36.423 Y-48.84
X37.324 Y-48.914
X38.229 Y-48.915
X39.13 Y-48.843
X40.024 Y-48.699
X40.908 Y-48.483
X41.773 Y-48.196
X42.613 Y-47.841
X43.422 Y-47.421
X44.197 Y-46.939
X44.932 Y-46.4
X45.625 Y-45.808
X46.273 Y-45.166
X46.873 Y-44.48
X47.422 Y-43.752
X47.918 Y-42.986
X48.357 Y-42.187
X48.737 Y-41.358
X49.055 Y-40.504
X49.309 Y-39.628
X49.498 Y-38.736
X49.619 Y-37.832
X49.674 Y-36.922
X49.66 Y-36.011
X49.579 Y-35.102
X49.43 Y-34.203
X49.213 Y-33.317
X48.931 Y-32.45
X48.585 Y-31.607
X48.175 Y-30.792
X47.706 Y-30.01
X47.18 Y-29.265
X46.599 Y-28.562
X45.967 Y-27.905
X45.287 Y-27.298
X44.563 Y-26.744
X43.8 Y-26.245
X43.002 Y-25.803
X42.174 Y-25.422
X41.32 Y-25.102
X40.445 Y-24.845
X39.554 Y-24.651
X38.652 Y-24.521
X37.742 Y-24.457
X36.83 Y-24.458
X35.921 Y-24.527
X35.019 Y-24.66
X34.129 Y-24.857
X33.254 Y-25.115
X32.4 Y-25.434
X31.57 Y-25.811
X30.768 Y-26.245
X29.999 Y-26.735
X29.266 Y-27.278
X28.573 Y-27.871
X27.923 Y-28.509
X27.317 Y-29.191
X26.759 Y-29.912
X26.251 Y-30.67
X25.798 Y-31.461
X25.402 Y-32.282
X25.062 Y-33.128
X24.78 Y-33.995
X24.557 Y-34.879
X24.393 Y-35.776
X24.291 Y-36.682
X24.253 Y-37.593
X24.277 Y-38.505
X24.363 Y-39.413
X24.509 Y-40.313
X24.714 Y-41.201
X24.978 Y-42.074
X25.303 Y-42.926
X25.685 Y-43.754
X26.122 Y-44.554
X26.611 Y-45.323
X27.15 Y-46.059
X27.737 Y-46.757
X28.37 Y-47.412
X29.048 Y-48.023
X29.764 Y-48.587
X30.517 Y-49.101
X31.302 Y-49.565
X32.116 Y-49.976
X32.956 Y-50.33
X33.819 Y-50.625
X34.7 Y-50.862
X35.594 Y-51.039
X36.498 Y-51.157
X37.408 Y-51.215
X38.32 Y-51.21
X39.229 Y-51.143
X40.132 Y-51.015
X41.024 Y-50.827
X41.902 Y-50.581
X42.763 Y-50.278
X43.601 Y-49.919
X44.413 Y-49.504
X45.196 Y-49.038
X45.949 Y-48.523
X46.667 Y-47.962
X47.351 Y-47.358
X47.995 Y-46.713
X48.598 Y-46.029
X49.156 Y-45.308
X49.67 Y-44.555
X50.137 Y-43.772
X50.556 Y-42.962
X50.925 Y-42.128
X51.24 Y-41.272
X51.501 Y-40.398
X51.706 Y-39.51
X51.856 Y-38.611
X51.95 Y-37.704
X51.989 Y-36.793
X51.97 Y-35.881
X51.893 Y-34.973
X51.757 Y-34.071
X51.566 Y-33.179
X51.32 Y-32.301
X51.02 Y-31.44
X50.666 Y-30.6
X50.259 Y-29.784
X49.8 Y-28.996
X49.292 Y-28.239
X48.738 Y-27.514
X48.141 Y-26.826
X47.501 Y-26.176
X46.821 Y-25.568
X46.103 Y-25.006
X45.352 Y-24.49
X44.57 Y-24.021
X43.761 Y-23.6
X42.928 Y-23.229
X42.073 Y-22.911
X41.201 Y-22.648
X40.313 Y-22.438
X39.415 Y-22.283
X38.508 Y-22.182
X37.598 Y-22.135
X36.686 Y-22.144
X35.777 Y-22.21
X34.873 Y-22.332
X33.978 Y-22.507
X33.095 Y-22.735
X32.227 Y-23.014
X31.377 Y-23.343
X30.548 Y-23.723
X29.744 Y-24.153
X28.967 Y-24.631
X28.22 Y-25.154
X27.505 Y-25.719
X26.823 Y-26.325
X26.178 Y-26.969
X25.571 Y-27.65
X25.007 Y-28.366
X24.486 Y-29.115
X24.01 Y-29.892
X23.579 Y-30.696
X23.195 Y-31.523
X22.86 Y-32.371
X22.575 Y-33.237
X22.341 Y-34.118
X22.159 Y-35.012
X22.029 Y-35.914
X21.951 Y-36.823
X21.925 Y-37.734
X21.952 Y-38.645
X22.032 Y-39.554
X22.165 Y-40.456
X22.35 Y-41.349
X22.586 Y-42.229
X22.871 Y-43.095
X23.205 Y-43.944
X23.588 Y-44.771
X24.019 Y-45.575
X24.496 Y-46.352
X25.016 Y-47.101
X25.578 Y-47.819
X26.18 Y-48.504
X26.82 Y-49.153
X27.498 Y-49.764
X28.209 Y-50.334
X28.952 Y-50.862
X29.724 Y-51.348
X30.522 Y-51.788
X31.344 Y-52.183
X32.188 Y-52.53
X33.05 Y-52.826
X33.928 Y-53.072
X34.819 Y-53.268
X35.719 Y-53.412
X36.626 Y-53.506
X37.537 Y-53.547
X38.448 Y-53.537
X39.358 Y-53.473
X40.262 Y-53.356
X41.158 Y-53.188
X42.044 Y-52.97
X42.916 Y-52.703
X43.771 Y-52.387
X44.608 Y-52.024
X45.422 Y-51.614
X46.212 Y-51.158
X46.976 Y-50.661
X47.712 Y-50.122
X48.418 Y-49.546
X49.093 Y-48.932
X49.734 Y-48.284
X50.338 Y-47.601
X50.905 Y-46.887
X51.432 Y-46.143
X51.92 Y-45.373
X52.367 Y-44.578
X52.771 Y-43.76
X53.132 Y-42.923
X53.446 Y-42.067
X53.713 Y-41.195
X53.932 Y-40.31
X54.104 Y-39.415
X54.228 Y-38.511
X54.305 Y-37.603
X54.332 Y-36.691
X54.31 Y-35.78
X54.237 Y-34.871
X54.115 Y-33.967
X53.944 Y-33.072
X53.726 Y-32.186
X53.461 Y-31.314
X53.149 Y-30.457
X52.791 Y-29.618
X52.387 Y-28.801
X51.938 Y-28.007
X51.447 Y-27.239
X50.916 Y-26.498
X50.346 Y-25.786
X49.738 Y-25.106
X49.095 Y-24.46
X48.416 Y-23.851
X47.705 Y-23.281
X46.964 Y-22.749
X46.196 Y-22.257
X45.404 Y-21.807
X44.588 Y-21.399
X43.753 Y-21.034
X42.898 Y-20.715
X42.028 Y-20.444
X41.144 Y-20.219
X40.25 Y-20.04
X39.348 Y-19.909
X38.44 Y-19.824
X37.529 Y-19.787
X36.617 Y-19.798
X35.707 Y-19.859
X34.802 Y-19.967
X33.903 Y-20.123
X33.014 Y-20.324
X32.136 Y-20.57
X31.272 Y-20.86
X30.424 Y-21.195
X29.594 Y-21.574
X28.786 Y-21.996
X28.001 Y-22.46
X27.241 Y-22.963
X26.507 Y-23.504
X25.801 Y-24.081
X25.125 Y-24.693
X24.481 Y-25.339
X23.872 Y-26.017
X23.299 Y-26.726
X22.762 Y-27.464
X22.264 Y-28.228
X21.805 Y-29.015
X21.385 Y-29.825
X21.006 Y-30.654
X20.67 Y-31.502
X20.379 Y-32.366
X20.132 Y-33.244
X19.93 Y-34.133
X19.773 Y-35.031
X19.66 Y-35.936
X19.592 Y-36.845
X19.57 Y-37.756
X19.594 Y-38.668
X19.666 Y-39.577
X19.783 Y-40.481
X19.946 Y-41.378
X20.152 Y-42.266
X20.403 Y-43.143
X20.696 Y-44.007
X21.032 Y-44.854
X21.412 Y-45.683
X21.833 Y-46.492
X22.294 Y-47.278
X22.794 Y-48.041
X23.331 Y-48.778
X23.904 Y-49.487
X24.511 Y-50.168
X25.151 Y-50.817
X25.824 Y-51.432
X26.528 Y-52.012
X27.259 Y-52.556
X28.017 Y-53.064
X28.799 Y-53.533
X29.602 Y-53.964
X30.426 Y-54.354
X31.269 Y-54.701
X32.129 Y-55.005
X33.003 Y-55.265
X33.889 Y-55.482
X34.784 Y-55.654
X35.687 Y-55.782
X36.595 Y-55.866
X37.506 Y-55.904
X38.418 Y-55.896
X39.328 Y-55.841
X40.234 Y-55.741
X41.134 Y-55.596
X42.026 Y-55.407
X42.908 Y-55.175
X43.778 Y-54.901
X44.633 Y-54.584
X45.471 Y-54.224
X46.29 Y-53.824
X47.089 Y-53.384
X47.865 Y-52.906
X48.618 Y-52.392
X49.347 Y-51.844
X50.049 Y-51.262
X50.723 Y-50.648
X51.366 Y-50.001
X51.977 Y-49.325
X52.556 Y-48.62
X53.101 Y-47.889
X53.612 Y-47.134
X54.087 Y-46.356
X54.526 Y-45.557
X54.928 Y-44.738
X55.29 Y-43.901
X55.611 Y-43.048
X55.891 Y-42.18
X56.13 Y-41.3
X56.327 Y-40.41
X56.483 Y-39.512
X56.598 Y-38.607
X56.67 Y-37.698
X56.698 Y-36.787
X56.682 Y-35.875
X56.622 Y-34.965
X56.519 Y-34.059
X56.374 Y-33.159
X56.186 Y-32.267
X55.957 Y-31.384
X55.688 Y-30.513
X55.376 Y-29.656
X55.023 Y-28.815
X54.63 Y-27.993
X54.198 Y-27.19
X53.728 Y-26.408
X53.223 Y-25.649
X52.682 Y-24.915
X52.108 Y-24.207
X51.501 Y-23.527
X50.86 Y-22.877
X50.19 Y-22.26
X49.49 Y-21.675
X48.764 Y-21.123
X48.013 Y-20.606
X47.239 Y-20.124
X46.444 Y-19.679
X45.628 Y-19.27
X44.794 Y-18.902
X43.943 Y-18.574
X43.078 Y-18.287
X42.2 Y-18.04
X41.312 Y-17.833
X40.415 Y-17.668
X39.512 Y-17.543
X38.604 Y-17.46
X37.693 Y-17.42
X36.781 Y-17.423
X35.871 Y-17.469
X34.963 Y-17.557
X34.061 Y-17.686
X33.165 Y-17.856
X32.277 Y-18.065
X31.4 Y-18.314
X30.535 Y-18.603
X29.685 Y-18.933
X28.851 Y-19.302
X28.035 Y-19.708
X27.238 Y-20.151
X26.462 Y-20.63
X25.708 Y-21.142
X24.977 Y-21.687
X24.271 Y-22.264
X23.592 Y-22.874
X22.943 Y-23.514
X22.323 Y-24.182
X21.735 Y-24.879
X21.178 Y-25.601
X20.653 Y-26.347
X20.162 Y-27.115
X19.705 Y-27.904
X19.283 Y-28.712
X18.9 Y-29.539
X18.554 Y-30.383
X18.247 Y-31.242
X17.979 Y-32.113
X17.75 Y-32.996
X17.559 Y-33.887
X17.408 Y-34.787
X17.295 Y-35.691
X17.224 Y-36.601
X17.195 Y-37.512
X17.207 Y-38.424
X17.26 Y-39.334
X17.353 Y-40.241
X17.485 Y-41.143
X17.657 Y-42.039
X17.868 Y-42.926
X18.117 Y-43.803
X18.407 Y-44.667
X18.735 Y-45.518
X19.101 Y-46.353
X19.503 Y-47.171
X19.942 Y-47.971
X20.415 Y-48.75
X20.921 Y-49.509
X21.46 Y-50.244
X22.031 Y-50.955
X22.633 Y-51.64
X23.266 Y-52.296
X23.928 Y-52.923
X24.617 Y-53.521
X25.331 Y-54.088
X26.069 Y-54.623
X26.83 Y-55.125
X27.612 Y-55.594
X28.414 Y-56.028
X29.235 Y-56.424
X30.073 Y-56.783
X30.927 Y-57.105
X31.793 Y-57.388
X32.671 Y-57.634
X33.559 Y-57.841
X34.456 Y-58.009
X35.358 Y-58.139
X36.266 Y-58.227
X37.176 Y-58.274
X38.088 Y-58.28
X38.999 Y-58.246
X39.908 Y-58.172
X40.813 Y-58.058
X41.712 Y-57.906
X42.603 Y-57.715
X43.486 Y-57.485
X44.357 Y-57.217
X45.216 Y-56.909
X46.06 Y-56.565
X46.888 Y-56.184
X47.7 Y-55.768
X48.493 Y-55.318
X49.266 Y-54.835
X50.019 Y-54.321
X50.749 Y-53.775
X51.455 Y-53.198
X52.136 Y-52.591
X52.79 Y-51.955
X53.417 Y-51.293
X54.015 Y-50.605
X54.585 Y-49.893
X55.124 Y-49.158
X55.633 Y-48.402
X56.111 Y-47.625
X56.555 Y-46.829
X56.964 Y-46.014
X57.339 Y-45.182
X57.678 Y-44.336
X57.981 Y-43.476
X58.249 Y-42.605
X58.48 Y-41.723
X58.675 Y-40.832
X58.833 Y-39.934
X58.953 Y-39.03
X59.033 Y-38.122
X59.075 Y-37.211
X59.078 Y-36.299
X59.042 Y-35.388
X58.969 Y-34.479
X58.857 Y-33.574
X58.709 Y-32.674
X58.523 Y-31.782
X58.299 Y-30.898
X58.037 Y-30.024
X57.738 Y-29.163
X57.402 Y-28.315
X57.031 Y-27.483
X56.625 Y-26.666
X56.186 Y-25.867
X55.713 Y-25.087
X55.209 Y-24.328
X54.673 Y-23.59
X54.105 Y-22.877
X53.507 Y-22.188
X52.88 Y-21.526
X52.226 Y-20.891
X51.546 Y-20.284
X50.841 Y-19.705
X50.113 Y-19.156
X49.363 Y-18.638
X48.591 Y-18.152
X47.8 Y-17.699
X46.99 Y-17.28
X46.163 Y-16.895
X45.321 Y-16.546
X44.465 Y-16.232
X43.597 Y-15.953
X42.718 Y-15.71
X41.83 Y-15.502
X40.934 Y-15.332
X40.032 Y-15.2
X39.125 Y-15.106
X38.215 Y-15.05
X37.304 Y-15.031
X36.392 Y-15.05
X35.482 Y-15.107
X34.575 Y-15.2
X33.672 Y-15.329
X32.776 Y-15.495
X31.887 Y-15.698
X31.007 Y-15.937
X30.138 Y-16.213
X29.281 Y-16.524
X28.437 Y-16.87
X27.608 Y-17.25
X26.795 Y-17.663
X25.999 Y-18.108
X25.222 Y-18.584
X24.464 Y-19.091
X23.728 Y-19.63
X23.015 Y-20.198
X22.325 Y-20.794
X21.66 Y-21.418
X21.021 Y-22.068
X20.408 Y-22.743
X19.823 Y-23.443
X19.265 Y-24.164
X18.737 Y-24.907
X18.24 Y-25.672
X17.774 Y-26.455
X17.34 Y-27.257
X16.939 Y-28.076
X16.571 Y-28.91
X16.237 Y-29.759
X15.936 Y-30.62
X15.67 Y-31.492
X15.438 Y-32.373
X15.241 Y-33.264
X15.081 Y-34.161
X14.957 Y-35.065
X14.87 Y-35.972
X14.819 Y-36.883
X14.805 Y-37.795
X14.826 Y-38.706
X14.884 Y-39.616
X14.977 Y-40.523
X15.105 Y-41.426
X15.27 Y-42.323
X15.471 Y-43.212
X15.708 Y-44.093
X15.979 Y-44.963
X16.285 Y-45.822
X16.625 Y-46.668
X16.998 Y-47.5
X17.403 Y-48.317
X17.84 Y-49.117
X18.308 Y-49.9
X18.807 Y-50.663
X19.337 Y-51.405
X19.896 Y-52.126
X20.483 Y-52.823
X21.097 Y-53.497
X21.738 Y-54.146
X22.403 Y-54.769
X23.093 Y-55.366
X23.805 Y-55.935
X24.539 Y-56.476
X25.295 Y-56.986
X26.07 Y-57.466
X26.864 Y-57.914
X27.675 Y-58.331
X28.502 Y-58.715
X29.344 Y-59.066
X30.198 Y-59.384
X31.065 Y-59.669
X31.942 Y-59.919
X32.828 Y-60.133
X33.722 Y-60.312
X34.622 Y-60.456
X35.528 Y-60.563
X36.437 Y-60.634
X37.348 Y-60.669
X38.26
X39.171 Y-60.632
X40.08 Y-60.561
X40.985 Y-60.453
X41.886 Y-60.31
X42.78 Y-60.131
X43.666 Y-59.917
X44.543 Y-59.668
X45.41 Y-59.385
X46.265 Y-59.069
X47.108 Y-58.719
X47.936 Y-58.338
X48.749 Y-57.926
X49.545 Y-57.482
X50.324 Y-57.007
X51.084 Y-56.503
X51.824 Y-55.971
X52.543 Y-55.41
X53.24 Y-54.822
X53.914 Y-54.208
X54.565 Y-53.57
X55.191 Y-52.907
X55.793 Y-52.221
X56.367 Y-51.513
X56.915 Y-50.784
X57.434 Y-50.035
X57.925 Y-49.266
X58.386 Y-48.48
X58.817 Y-47.676
X59.217 Y-46.857
X59.587 Y-46.023
X59.925 Y-45.177
X60.232 Y-44.318
X60.505 Y-43.448
X60.745 Y-42.568
X60.952 Y-41.68
X61.125 Y-40.785
X61.264 Y-39.884
X61.368 Y-38.978
X61.438 Y-38.069
X61.474 Y-37.158
X61.476 Y-36.246
X61.443 Y-35.335
X61.375 Y-34.426
X61.273 Y-33.519
X61.137 Y-32.618
X60.966 Y-31.722
X60.761 Y-30.834
X60.522 Y-29.954
X60.25 Y-29.083
X59.946 Y-28.224
X59.609 Y-27.377
X59.24 Y-26.543
X58.84 Y-25.723
X58.409 Y-24.92
X57.947 Y-24.134
X57.455 Y-23.366
X56.935 Y-22.617
X56.386 Y-21.889
X55.811 Y-21.182
X55.208 Y-20.497
X54.581 Y-19.836
X53.929 Y-19.198
X53.253 Y-18.586
X52.554 Y-18.001
X51.834 Y-17.442
X51.093 Y-16.911
X50.332 Y-16.408
X49.553 Y-15.934
X48.756 Y-15.49
X47.944 Y-15.077
X47.116 Y-14.693
X46.275 Y-14.341
X45.421 Y-14.021
X44.556 Y-13.734
X43.681 Y-13.479
X42.796 Y-13.257
X41.904 Y-13.069
X41.005 Y-12.914
X40.102 Y-12.792
X39.194 Y-12.704
X38.284 Y-12.65
X37.372 Y-12.63
X36.461 Y-12.643
X35.55 Y-12.691
X34.642 Y-12.772
X33.737 Y-12.887
X32.838 Y-13.036
X31.944 Y-13.217
X31.058 Y-13.432
X30.18 Y-13.678
X29.312 Y-13.957
X28.455 Y-14.268
X27.609 Y-14.609
X26.777 Y-14.982
X25.96 Y-15.386
X25.157 Y-15.819
X24.371 Y-16.281
X23.602 Y-16.771
X22.852 Y-17.29
X22.122 Y-17.835
X21.411 Y-18.407
X20.722 Y-19.003
X20.055 Y-19.625
X19.411 Y-20.271
X18.791 Y-20.94
X18.197 Y-21.631
X17.627 Y-22.343
X17.084 Y-23.075
X16.568 Y-23.827
X16.079 Y-24.597
X15.619 Y-25.384
X15.187 Y-26.187
X14.785 Y-27.005
X14.412 Y-27.838
X14.07 Y-28.683
X13.76 Y-29.54
X13.48 Y-30.408
X13.232 Y-31.285
X13.016 Y-32.171
X12.832 Y-33.064
X12.68 Y-33.963
X12.56 Y-34.867
X12.473 Y-35.775
X12.419 Y-36.685
X12.398 Y-37.597
X12.41 Y-38.508
X12.455 Y-39.419
X12.533 Y-40.328
X12.643 Y-41.233
X12.786 Y-42.133
X12.962 Y-43.028
X13.169 Y-43.916
X13.407 Y-44.796
X13.678 Y-45.667
X13.979 Y-46.527
X14.312 Y-47.376
X14.675 Y-48.213
X15.068 Y-49.036
X15.49 Y-49.844
X15.941 Y-50.636
X16.42 Y-51.412
X16.926 Y-52.17
X17.459 Y-52.91
X18.019 Y-53.63
X18.604 Y-54.33
X19.214 Y-55.008
X19.848 Y-55.663
X20.505 Y-56.295
X21.184 Y-56.903
X21.885 Y-57.486
X22.606 Y-58.044
X23.347 Y-58.576
X24.106 Y-59.081
X24.883 Y-59.558
X25.676 Y-60.008
X26.485 Y-60.428
X27.309 Y-60.819
X28.147 Y-61.18
X28.997 Y-61.51
X29.858 Y-61.81
X30.729 Y-62.079
X31.609 Y-62.317
X32.497 Y-62.523
X33.392 Y-62.697
X34.293 Y-62.839
X35.198 Y-62.949
X36.107 Y-63.025
X37.018 Y-63.069
X37.929 Y-63.081
X38.841 Y-63.059
X39.751 Y-63.005
X40.659 Y-62.919
X41.563 Y-62.801
X42.462 Y-62.65
X43.356 Y-62.468
X44.242 Y-62.254
X45.12 Y-62.01
X45.989 Y-61.733
X46.848 Y-61.426
X47.695 Y-61.089
X48.53 Y-60.722
X49.351 Y-60.326
X50.158 Y-59.902
X50.95 Y-59.449
X51.726 Y-58.97
X52.484 Y-58.464
X53.225 Y-57.932
X53.947 Y-57.375
X54.648 Y-56.793
X55.33 Y-56.187
X55.989 Y-55.557
X56.627 Y-54.905
X57.242 Y-54.232
X57.833 Y-53.538
X58.401 Y-52.825
X58.944 Y-52.092
X59.461 Y-51.341
X59.952 Y-50.573
X60.417 Y-49.789
X60.855 Y-48.989
X61.264 Y-48.174
X61.645 Y-47.345
X61.997 Y-46.504
X62.321 Y-45.652
X62.615 Y-44.789
X62.879 Y-43.916
X63.114 Y-43.035
X63.318 Y-42.146
X63.492 Y-41.251
X63.635 Y-40.351
X63.746 Y-39.446
X63.826 Y-38.537
X63.874 Y-37.627
X63.891 Y-36.715
X63.877 Y-35.804
X63.831 Y-34.893
X63.754 Y-33.984
X63.646 Y-33.079
X63.507 Y-32.178
X63.337 Y-31.282
X63.136 Y-30.393
X62.905 Y-29.511
X62.642 Y-28.638
X62.349 Y-27.774
X62.027 Y-26.921
X61.676 Y-26.08
X61.295 Y-25.251
X60.887 Y-24.436
X60.451 Y-23.635
X59.987 Y-22.85
X59.497 Y-22.081
X58.98 Y-21.33
X58.437 Y-20.597
X57.869 Y-19.884
X57.277 Y-19.191
X56.661 Y-18.518
X56.022 Y-17.868
X55.361 Y-17.239
X54.68 Y-16.634
X53.978 Y-16.052
X53.256 Y-15.495
X52.516 Y-14.962
X51.758 Y-14.456
X50.982 Y-13.976
X50.191 Y-13.523
X49.384 Y-13.098
X48.564 Y-12.7
X47.73 Y-12.331
X46.884 Y-11.991
X46.027 Y-11.679
X45.16 Y-11.396
X44.284 Y-11.143
X43.4 Y-10.92
X42.509 Y-10.727
X41.612 Y-10.565
X40.709 Y-10.434
X39.803 Y-10.334
X38.894 Y-10.264
X37.983 Y-10.226
X37.071 Y-10.218
X36.16 Y-10.24
X35.249 Y-10.294
X34.341 Y-10.377
X33.437 Y-10.492
X32.536 Y-10.636
X31.642 Y-10.811
X30.753 Y-11.017
X29.872 Y-11.252
X29 Y-11.517
X28.137 Y-11.811
X27.284 Y-12.133
X26.442 Y-12.484
X25.613 Y-12.863
X24.796 Y-13.269
X23.994 Y-13.702
X23.206 Y-14.161
X22.435 Y-14.647
X21.68 Y-15.159
X20.942 Y-15.695
X20.223 Y-16.256
X19.524 Y-16.84
X18.843 Y-17.448
X18.184 Y-18.077
X17.545 Y-18.728
X16.929 Y-19.4
X16.335 Y-20.092
X15.764 Y-20.803
X15.217 Y-21.532
X14.695 Y-22.28
X14.198 Y-23.044
X13.726 Y-23.825
X13.281 Y-24.62
X12.863 Y-25.43
X12.471 Y-26.254
X12.107 Y-27.09
X11.77 Y-27.937
X11.461 Y-28.795
X11.181 Y-29.663
X10.929 Y-30.539
X10.707 Y-31.423
X10.514 Y-32.314
X10.351 Y-33.212
X10.217 Y-34.114
X10.114 Y-35.02
X10.04 Y-35.928
X9.996 Y-36.839
X9.982 Y-37.751
X9.998 Y-38.662
X10.043 Y-39.573
X10.119 Y-40.482
X10.224 Y-41.388
X10.359 Y-42.289
X10.525 Y-43.186
X10.719 Y-44.077
X10.943 Y-44.961
X11.196 Y-45.837
X11.477 Y-46.704
X11.787 Y-47.562
X12.124 Y-48.409
X12.489 Y-49.244
X12.881 Y-50.068
X13.299 Y-50.878
X13.745 Y-51.673
X14.216 Y-52.454
X14.713 Y-53.218
X15.235 Y-53.966
X15.781 Y-54.696
X16.351 Y-55.408
X16.943 Y-56.101
X17.558 Y-56.775
X18.195 Y-57.427
X18.852 Y-58.059
X19.53 Y-58.669
X20.227 Y-59.257
X20.944 Y-59.82
X21.679 Y-60.36
X22.431 Y-60.876
X23.2 Y-61.366
X23.984 Y-61.831
X24.783 Y-62.27
X25.596 Y-62.683
X26.422 Y-63.069
X27.26 Y-63.428
X28.11 Y-63.76
X28.969 Y-64.064
X29.839 Y-64.339
X30.717 Y-64.585
X31.602 Y-64.802
X32.495 Y-64.989
X33.393 Y-65.148
X34.295 Y-65.277
X35.202 Y-65.377
X36.111 Y-65.447
X37.022 Y-65.487
X37.933 Y-65.498
X38.845 Y-65.479
X39.755 Y-65.431
X40.664 Y-65.352
X41.569 Y-65.243
X42.471 Y-65.105
X43.367 Y-64.938
X44.257 Y-64.742
X45.141 Y-64.517
X46.017 Y-64.264
X46.884 Y-63.982
X47.742 Y-63.673
X48.589 Y-63.337
X49.426 Y-62.973
X50.25 Y-62.583
X51.061 Y-62.166
X51.858 Y-61.723
X52.64 Y-61.255
X53.408 Y-60.763
X54.159 Y-60.246
X54.893 Y-59.706
X55.61 Y-59.142
X56.309 Y-58.557
X56.989 Y-57.949
X57.65 Y-57.321
X58.29 Y-56.672
X58.91 Y-56.003
X59.508 Y-55.314
X60.084 Y-54.607
X60.637 Y-53.883
X61.167 Y-53.141
X61.674 Y-52.383
X62.157 Y-51.609
X62.615 Y-50.821
X63.048 Y-50.019
X63.456 Y-49.203
X63.838 Y-48.375
X64.194 Y-47.536
X64.523 Y-46.686
X64.826 Y-45.825
X65.1 Y-44.956
X65.347 Y-44.078
X65.567 Y-43.193
X65.759 Y-42.302
X65.922 Y-41.405
X66.057 Y-40.503
X66.164 Y-39.597
X66.242 Y-38.689
X66.292 Y-37.779
X66.313 Y-36.867
X66.305 Y-35.955
X66.268 Y-35.044
X66.202 Y-34.135
X66.107 Y-33.228
X65.984 Y-32.324
X65.833 Y-31.425
X65.653 Y-30.531
X65.444 Y-29.644
X65.208 Y-28.763
X64.945 Y-27.89
X64.654 Y-27.026
X64.336 Y-26.171
X63.99 Y-25.328
X63.618 Y-24.495
X63.22 Y-23.675
X62.795 Y-22.868
X62.346 Y-22.075
X61.872 Y-21.296
X61.373 Y-20.532
X60.85 Y-19.785
X60.304 Y-19.055
X59.736 Y-18.342
X59.145 Y-17.648
X58.533 Y-16.972
X57.899 Y-16.317
X57.244 Y-15.682
X56.57 Y-15.068
X55.877 Y-14.475
X55.166 Y-13.905
X54.437 Y-13.357
X53.691 Y-12.832
X52.929 Y-12.331
X52.152 Y-11.855
X51.36 Y-11.402
X50.555 Y-10.975
X49.736 Y-10.573
X48.905 Y-10.198
X48.063 Y-9.849
X47.21 Y-9.526
X46.348 Y-9.23
X45.476 Y-8.962
X44.597 Y-8.72
X43.711 Y-8.506
X42.818 Y-8.32
X41.92 Y-8.162
X41.018 Y-8.031
X40.112 Y-7.929
X39.203 Y-7.855
X38.292 Y-7.809
X37.38 Y-7.792
X36.469 Y-7.804
X35.558 Y-7.843
X34.648 Y-7.911
X33.742 Y-8.007
X32.838 Y-8.13
X31.939 Y-8.282
X31.045 Y-8.461
X30.157 Y-8.667
X29.276 Y-8.901
X28.402 Y-9.162
X27.537 Y-9.45
X26.681 Y-9.764
X25.835 Y-10.105
X25.001 Y-10.472
X24.177 Y-10.864
X23.366 Y-11.281
X22.569 Y-11.723
X21.785 Y-12.189
X21.016 Y-12.679
X20.262 Y-13.192
X19.524 Y-13.727
X18.803 Y-14.285
X18.099 Y-14.865
X17.414 Y-15.467
X16.748 Y-16.089
X16.1 Y-16.731
X15.473 Y-17.393
X14.866 Y-18.073
X14.28 Y-18.772
X13.715 Y-19.488
X13.173 Y-20.221
X12.653 Y-20.97
X12.156 Y-21.734
X11.682 Y-22.513
X11.233 Y-23.307
X10.808 Y-24.113
X10.408 Y-24.933
X10.033 Y-25.764
X9.683 Y-26.606
X9.36 Y-27.459
X9.061 Y-28.32
X8.79 Y-29.191
X8.544 Y-30.069
X8.326 Y-30.954
X8.134 Y-31.845
X7.969 Y-32.742
X7.831 Y-33.644
X7.722 Y-34.549
X7.639 Y-35.457
X7.585 Y-36.367
X7.558 Y-37.278
X7.559 Y-38.19
X7.587 Y-39.102
X7.642 Y-40.012
X7.725 Y-40.92
X7.835 Y-41.825
X7.973 Y-42.726
X8.138 Y-43.623
X8.329 Y-44.515
X8.548 Y-45.4
X8.793 Y-46.278
X9.065 Y-47.148
X9.364 Y-48.01
X9.688 Y-48.862
X10.038 Y-49.704
X10.412 Y-50.535
X10.812 Y-51.355
X11.236 Y-52.162
X11.685 Y-52.956
X12.157 Y-53.736
X12.652 Y-54.502
X13.17 Y-55.252
X13.711 Y-55.986
X14.273 Y-56.704
X14.858 Y-57.404
X15.463 Y-58.086
X16.089 Y-58.749
X16.734 Y-59.394
X17.398 Y-60.018
X18.08 Y-60.623
X18.781 Y-61.207
X19.498 Y-61.769
X20.233 Y-62.31
X20.983 Y-62.828
X21.748 Y-63.323
X22.529 Y-63.795
X23.323 Y-64.242
X24.131 Y-64.666
X24.951 Y-65.065
X25.782 Y-65.439
X26.624 Y-65.789
X27.477 Y-66.112
X28.338 Y-66.41
X29.209 Y-66.682
X30.087 Y-66.928
X30.972 Y-67.147
X31.863 Y-67.34
X32.76 Y-67.505
X33.661 Y-67.643
X34.566 Y-67.753
X35.474 Y-67.836
X36.384 Y-67.892
X37.296 Y-67.921
X38.208 Y-67.923
X39.119 Y-67.897
X40.029 Y-67.844
X40.938 Y-67.763
X41.843 Y-67.656
X42.745 Y-67.522
X43.642 Y-67.36
X44.534 Y-67.171
X45.42 Y-66.956
X46.299 Y-66.714
X47.171 Y-66.446
X48.034 Y-66.153
X48.889 Y-65.834
X49.733 Y-65.49
X50.567 Y-65.121
X51.39 Y-64.728
X52.2 Y-64.311
X52.999 Y-63.87
X53.783 Y-63.406
X54.554 Y-62.918
X55.31 Y-62.408
X56.05 Y-61.876
X56.775 Y-61.323
X57.483 Y-60.748
X58.174 Y-60.154
X58.848 Y-59.539
X59.503 Y-58.905
X60.14 Y-58.253
X60.758 Y-57.582
X61.355 Y-56.893
X61.933 Y-56.188
X62.49 Y-55.466
X63.026 Y-54.728
X63.539 Y-53.975
X64.031 Y-53.206
X64.499 Y-52.424
X64.945 Y-51.629
X65.368 Y-50.821
X65.768 Y-50.002
X66.143 Y-49.171
X66.495 Y-48.329
X66.821 Y-47.478
X67.124 Y-46.618
X67.401 Y-45.749
X67.652 Y-44.873
X67.878 Y-43.989
X68.078 Y-43.1
X68.252 Y-42.205
X68.399 Y-41.305
X68.521 Y-40.401
X68.616 Y-39.494
X68.685 Y-38.585
X68.728 Y-37.674
X68.744 Y-36.763
X68.733 Y-35.851
X68.696 Y-34.94
X68.633 Y-34.03
X68.543 Y-33.123
X68.427 Y-32.218
X68.284 Y-31.318
X68.114 Y-30.422
X67.919 Y-29.531
X67.697 Y-28.647
X67.45 Y-27.769
X67.178 Y-26.899
X66.881 Y-26.037
X66.558 Y-25.184
X66.211 Y-24.341
X65.839 Y-23.508
X65.444 Y-22.687
X65.024 Y-21.877
X64.581 Y-21.081
X64.114 Y-20.297
X63.625 Y-19.528
X63.113 Y-18.773
X62.58 Y-18.034
X62.025 Y-17.31
X61.45 Y-16.602
X60.854 Y-15.912
X60.238 Y-15.239
X59.604 Y-14.585
X58.95 Y-13.949
X58.543 Y-13.576
X58.496 Y-13.536
X56.727 Y-12.104
X56.702 Y-12.085
X56.313 Y-11.805
X56.106 Y-11.662
X54.036 Y-10.318
X53.884 Y-10.222
X53.208 Y-9.849
X52.722 Y-9.6
X51.138 Y-8.793
X51.095 Y-8.772
X50.517 Y-8.511
X50.309 Y-8.424
X47.982 Y-7.53
X47.618 Y-7.393
X47.367 Y-7.323
X44.927 Y-6.669
X44.72 Y-6.618
X44.099 Y-6.481
X43.684 Y-6.415
X41.407 Y-6.054
X41.2 Y-6.029
X40.579 Y-5.979
X37.888 Y-5.838
X37.68
X34.989 Y-5.979
X34.368 Y-6.029
X34.161 Y-6.054
X31.677 Y-6.448
X31.47 Y-6.481
X30.848 Y-6.618
X30.641 Y-6.669
X28.157 Y-7.335
X27.95 Y-7.393
X27.536 Y-7.549
X25.259 Y-8.424
X25.051 Y-8.511
X24.473 Y-8.772
X24.43 Y-8.793
X22.44 Y-9.807
X22.36 Y-9.849
X21.684 Y-10.222
X21.532 Y-10.318
X19.449 Y-11.671
X19.255 Y-11.805
X18.866 Y-12.085
X18.841 Y-12.104
X16.77 Y-13.781
X16.563 Y-13.968
X16.142 Y-14.362
X15.929 Y-14.569
X14.686 Y-15.811
X14.486 Y-16.018
X14.079 Y-16.454
X13.911 Y-16.64
X12.235 Y-18.71
X12.215 Y-18.735
X11.936 Y-19.124
X11.793 Y-19.331
X10.448 Y-21.401
X10.352 Y-21.553
X9.979 Y-22.229
X9.731 Y-22.715
X8.924 Y-24.3
X8.903 Y-24.342
X8.642 Y-24.921
X8.554 Y-25.128
X7.661 Y-27.456
X7.524 Y-27.819
X7.454 Y-28.071
X6.8 Y-30.511
X6.748 Y-30.718
X6.612 Y-31.339
X6.545 Y-31.753
X6.185 Y-34.03
X6.159 Y-34.237
X6.11 Y-34.858
X5.969 Y-37.55
Y-37.757
X6.11 Y-40.448
X6.159 Y-41.069
X6.185 Y-41.276
X6.578 Y-43.761
X6.612 Y-43.968
X6.748 Y-44.589
X6.8 Y-44.796
X7.466 Y-47.28
X7.524 Y-47.487
X7.68 Y-47.902
X8.554 Y-50.179
X8.642 Y-50.386
X8.903 Y-50.964
X8.924 Y-51.007
X9.938 Y-52.998
X9.979 Y-53.077
X10.352 Y-53.754
X10.448 Y-53.905
X11.801 Y-55.989
X11.936 Y-56.183
X12.215 Y-56.572
X12.235 Y-56.597
X13.911 Y-58.667
X14.099 Y-58.874
X14.493 Y-59.296
X14.7 Y-59.509
X15.942 Y-60.751
X16.149 Y-60.952
X16.584 Y-61.359
X16.77 Y-61.526
X18.841 Y-63.203
X18.866 Y-63.222
X19.255 Y-63.501
X19.462 Y-63.644
X21.532 Y-64.989
X21.684 Y-65.085
X22.36 Y-65.458
X22.846 Y-65.706
X24.43 Y-66.514
X24.473 Y-66.534
X25.051 Y-66.795
X25.259 Y-66.883
X27.586 Y-67.777
X27.95 Y-67.914
X28.201 Y-67.984
X30.641 Y-68.637
X30.848 Y-68.689
X31.47 Y-68.825
X31.884 Y-68.892
X34.161 Y-69.253
X34.368 Y-69.278
X34.989 Y-69.327
X37.68 Y-69.469
X37.888
X40.579 Y-69.327
X41.2 Y-69.278
X41.407 Y-69.253
X43.891 Y-68.859
X44.099 Y-68.825
X44.72 Y-68.689
X44.927 Y-68.637
X47.411 Y-67.972
X47.618 Y-67.914
X48.032 Y-67.757
X50.309 Y-66.883
X50.517 Y-66.795
X51.095 Y-66.534
X51.138 Y-66.514
X53.128 Y-65.499
X53.208 Y-65.458
X53.884 Y-65.085
X54.036 Y-64.989
X56.119 Y-63.636
X56.313 Y-63.501
X56.702 Y-63.222
X56.727 Y-63.203
X58.798 Y-61.526
X59.005 Y-61.339
X59.426 Y-60.945
X59.639 Y-60.738
X60.882 Y-59.495
X61.082 Y-59.288
X61.489 Y-58.853
X61.657 Y-58.667
X63.333 Y-56.597
X63.353 Y-56.572
X63.632 Y-56.183
X63.775 Y-55.976
X65.12 Y-53.905
X65.216 Y-53.754
X65.589 Y-53.077
X65.837 Y-52.591
X66.644 Y-51.007
X66.665 Y-50.964
X66.926 Y-50.386
X67.014 Y-50.179
X67.907 Y-47.851
X68.044 Y-47.487
X68.114 Y-47.236
X68.768 Y-44.796
X68.82 Y-44.589
X68.956 Y-43.968
X69.023 Y-43.554
X69.383 Y-41.276
X69.409 Y-41.069
X69.458 Y-40.448
X69.599 Y-37.757
Y-37.55
X69.458 Y-34.858
X69.409 Y-34.237
X69.383 Y-34.03
X68.99 Y-31.546
X68.956 Y-31.339
X68.82 Y-30.718
X68.768 Y-30.511
X68.102 Y-28.026
X68.044 Y-27.819
X67.888 Y-27.405
X67.014 Y-25.128
X66.926 Y-24.921
X66.665 Y-24.342
X66.644 Y-24.3
X65.63 Y-22.309
X65.589 Y-22.229
X65.216 Y-21.553
X65.12 Y-21.401
X63.767 Y-19.318
X63.632 Y-19.124
X63.353 Y-18.735
X63.333 Y-18.71
X61.657 Y-16.64
X61.469 Y-16.433
X61.075 Y-16.011
X60.868 Y-15.798
X59.626 Y-14.556
X59.419 Y-14.355
X58.984 Y-13.948
X58.798 Y-13.781
X58.496 Y-13.536
G3 X58.114 Y-13.408 I-0.382 J-0.507
X57.76 Y-13.516 I0 J-0.635
G1 X57.678 Y-13.571 Z-0.492
X57.597 Y-13.625 Z-0.469
X57.521 Y-13.677 Z-0.431
X57.45 Y-13.724 Z-0.379
X57.387 Y-13.766 Z-0.314
X57.333 Y-13.802 Z-0.238
X57.29 Y-13.831 Z-0.153
X57.259 Y-13.853 Z-0.061
X57.239 Y-13.866 Z0.036
X57.233 Y-13.87 Z0.135
G0 Z15

G28 G91 Z0
G90
G28 G91 X0 Y0
G90
M5
M30
