(1001)
(T1 D=6.35 CR=0 - ZMIN=-0.5 - flat end mill)
G90 G94
G17
G21
G28 G91 Z0
G90

(2D Adaptive1)
T1
S100 M3
G17 G90 G94
G54
G0 X34.813 Y-38.41
Z15
G0 Z5
Z2.5
G3 X39.063 Y-40.439 Z2.313 I2.971 J0.757 F33.3
X40.294 Y-35.9 Z2.125 I-1.277 J2.783
X35.611 Y-35.505 Z1.938 I-2.505 J-1.755
X36.065 Y-40.177 Z1.75 I2.174 J-2.147
X40.574 Y-38.893 Z1.563 I1.719 J2.522
X38.502 Y-34.692 Z1.375 I-2.787 J1.236
X34.747 Y-37.483 Z1.188 I-0.714 J-2.961
X38.163 Y-40.672 Z1 I3.038 J-0.17
X40.683 Y-36.742 Z0.813 I-0.378 J3.016
X36.369 Y-34.971 Z0.625 I-2.895 J-0.913
X35.404 Y-39.528 Z0.438 I1.417 J-2.681
X40.055 Y-39.659 Z0.25 I2.38 J1.874
X39.348 Y-35.064 Z0.063 I-2.269 J2.002
X34.96 Y-36.584 Z-0.125 I-1.56 J-2.589
X37.242 Y-40.623 Z-0.313 I2.824 J-1.068
X40.801 Y-37.656 Z-0.5 I0.542 J2.967
X34.768 Y-37.656 I-3.016 J0
X40.801 Y-37.656 I3.016 J0
S5013
G1 X40.805 Y-37.41 F100
X40.983 Y-36.445
X41.028 Y-36.302
X41.057 Y-36.155
X41.072 Y-36.006
X41.075 Y-35.853
X41.064 Y-35.689
X41.038 Y-35.515
X40.996 Y-35.332
X40.936 Y-35.143
X40.857 Y-34.947
X40.757 Y-34.749
X40.635 Y-34.55
X40.492 Y-34.352
X40.326 Y-34.158
X40.138 Y-33.971
X39.928 Y-33.793
X39.696 Y-33.627
X39.444 Y-33.475
X39.173 Y-33.34
X38.884 Y-33.225
X38.58 Y-33.131
X38.263 Y-33.06
X37.935 Y-33.013
X37.598 Y-32.993
X37.255 Y-33.001
X36.909 Y-33.036
X36.562 Y-33.099
X36.218 Y-33.192
X35.878 Y-33.312
X35.547 Y-33.461
X35.226 Y-33.638
X34.918 Y-33.841
X34.626 Y-34.07
X34.351 Y-34.322
X34.097 Y-34.598
X33.864 Y-34.894
X33.655 Y-35.209
X33.471 Y-35.54
X33.315 Y-35.887
X33.186 Y-36.246
X33.086 Y-36.614
X33.016 Y-36.991
X32.976 Y-37.372
X32.967 Y-37.756
X32.989 Y-38.14
X33.041 Y-38.521
X33.125 Y-38.898
X33.238 Y-39.266
X33.38 Y-39.625
X33.551 Y-39.971
X33.75 Y-40.303
X33.974 Y-40.618
X34.223 Y-40.914
X34.495 Y-41.189
X34.789 Y-41.441
X35.102 Y-41.67
X35.432 Y-41.872
X35.777 Y-42.047
X36.136 Y-42.194
X36.505 Y-42.312
X36.883 Y-42.4
X37.266 Y-42.457
X37.653 Y-42.483
X38.04 Y-42.478
X38.426 Y-42.442
X38.808 Y-42.375
X39.184 Y-42.278
X39.55 Y-42.151
X39.905 Y-41.995
X40.247 Y-41.811
X40.572 Y-41.6
X40.88 Y-41.363
X41.167 Y-41.103
X41.433 Y-40.82
X41.675 Y-40.518
X41.892 Y-40.196
X42.235 Y-39.588
X42.572 Y-38.86
X42.782 Y-38.291
X42.924 Y-37.78
X43.017 Y-37.307
X43.068 Y-36.849
X43.082 Y-36.406
X43.061 Y-35.976
X43.007 Y-35.556
X42.92 Y-35.146
X42.8 Y-34.746
X42.649 Y-34.356
X42.466 Y-33.978
X42.252 Y-33.613
X42.008 Y-33.264
X41.733 Y-32.932
X41.429 Y-32.62
X41.098 Y-32.33
X40.739 Y-32.064
X40.355 Y-31.824
X39.947 Y-31.613
X39.518 Y-31.433
X39.069 Y-31.285
X38.605 Y-31.173
X38.127 Y-31.098
X37.639 Y-31.061
X37.145 Y-31.063
X36.647 Y-31.105
X36.15 Y-31.188
X35.657 Y-31.312
X35.172 Y-31.475
X34.699 Y-31.679
X34.24 Y-31.921
X33.8 Y-32.202
X33.381 Y-32.518
X32.987 Y-32.869
X32.621 Y-33.252
X32.285 Y-33.665
X31.983 Y-34.105
X31.715 Y-34.57
X31.486 Y-35.056
X31.295 Y-35.56
X31.145 Y-36.08
X31.037 Y-36.611
X30.972 Y-37.149
X30.95 Y-37.693
X30.972 Y-38.237
X31.038 Y-38.778
X31.147 Y-39.313
X31.299 Y-39.838
X31.493 Y-40.35
X31.727 Y-40.845
X32 Y-41.32
X32.311 Y-41.771
X32.657 Y-42.197
X33.037 Y-42.593
X33.447 Y-42.958
X33.886 Y-43.289
X34.349 Y-43.584
X34.835 Y-43.84
X35.34 Y-44.057
X35.861 Y-44.233
X36.395 Y-44.366
X36.937 Y-44.456
X37.485 Y-44.503
X38.036 Y-44.505
X38.584 Y-44.463
X39.128 Y-44.377
X39.663 Y-44.247
X40.185 Y-44.076
X40.693 Y-43.862
X41.181 Y-43.609
X41.648 Y-43.317
X42.09 Y-42.989
X42.55 Y-42.586
X43.018 Y-42.104
X43.457 Y-41.574
X43.862 Y-40.995
X44.218 Y-40.387
X44.518 Y-39.766
X44.761 Y-39.139
X44.948 Y-38.511
X45.081 Y-37.884
X45.162 Y-37.259
X45.191 Y-36.638
X45.172 Y-36.024
X45.103 Y-35.419
X44.987 Y-34.825
X44.825 Y-34.244
X44.616 Y-33.68
X44.363 Y-33.134
X44.067 Y-32.609
X43.728 Y-32.108
X43.348 Y-31.634
X42.929 Y-31.189
X42.473 Y-30.776
X41.981 Y-30.399
X41.456 Y-30.059
X40.902 Y-29.76
X40.319 Y-29.504
X39.714 Y-29.295
X39.088 Y-29.133
X38.446 Y-29.021
X37.793 Y-28.96
X37.132 Y-28.952
X36.468 Y-28.998
X35.805 Y-29.097
X35.148 Y-29.25
X34.502 Y-29.456
X33.871 Y-29.715
X33.259 Y-30.026
X32.672 Y-30.387
X32.112 Y-30.795
X31.585 Y-31.249
X31.094 Y-31.746
X30.642 Y-32.283
X30.234 Y-32.856
X29.872 Y-33.463
X29.559 Y-34.098
X29.297 Y-34.757
X29.089 Y-35.438
X28.935 Y-36.134
X28.838 Y-36.842
X28.798 Y-37.556
X28.815 Y-38.272
X28.89 Y-38.985
X29.021 Y-39.691
X29.21 Y-40.385
X29.453 Y-41.062
X29.751 Y-41.718
X30.1 Y-42.348
X30.499 Y-42.949
X30.945 Y-43.516
X31.435 Y-44.045
X31.967 Y-44.534
X32.536 Y-44.978
X33.139 Y-45.376
X33.773 Y-45.724
X34.432 Y-46.02
X35.114 Y-46.262
X35.812 Y-46.449
X36.524 Y-46.579
X37.243 Y-46.652
X37.967 Y-46.667
X38.689 Y-46.623
X39.405 Y-46.522
X40.111 Y-46.363
X40.803 Y-46.149
X41.474 Y-45.879
X42.136 Y-45.55
X42.79 Y-45.156
X43.431 Y-44.696
X44.05 Y-44.172
X44.637 Y-43.587
X45.182 Y-42.95
X45.675 Y-42.269
X46.111 Y-41.552
X46.487 Y-40.807
X46.798 Y-40.04
X47.046 Y-39.256
X47.227 Y-38.463
X47.344 Y-37.664
X47.396 Y-36.864
X47.383 Y-36.068
X47.307 Y-35.28
X47.169 Y-34.504
X46.969 Y-33.743
X46.709 Y-33.003
X46.391 Y-32.285
X46.016 Y-31.596
X45.586 Y-30.937
X45.104 Y-30.313
X44.57 Y-29.727
X43.989 Y-29.184
X43.363 Y-28.687
X42.695 Y-28.239
X41.99 Y-27.843
X41.25 Y-27.504
X40.481 Y-27.224
X39.688 Y-27.004
X38.875 Y-26.849
X38.047 Y-26.758
X37.209 Y-26.734
X36.368 Y-26.778
X35.529 Y-26.89
X34.697 Y-27.069
X33.878 Y-27.316
X33.078 Y-27.629
X32.302 Y-28.007
X31.555 Y-28.449
X30.844 Y-28.95
X30.173 Y-29.509
X29.547 Y-30.122
X28.97 Y-30.786
X28.447 Y-31.496
X27.981 Y-32.247
X27.576 Y-33.036
X27.235 Y-33.856
X26.96 Y-34.703
X26.754 Y-35.57
X26.618 Y-36.453
X26.553 Y-37.345
X26.559 Y-38.241
X26.638 Y-39.135
X26.788 Y-40.02
X27.01 Y-40.891
X27.3 Y-41.743
X27.658 Y-42.569
X28.082 Y-43.364
X28.568 Y-44.123
X29.114 Y-44.84
X29.717 Y-45.512
X30.371 Y-46.134
X31.073 Y-46.701
X31.819 Y-47.211
X32.604 Y-47.659
X33.422 Y-48.043
X34.269 Y-48.359
X35.138 Y-48.607
X36.025 Y-48.785
X36.923 Y-48.89
X37.827 Y-48.923
X38.731 Y-48.884
X39.628 Y-48.772
X40.517 Y-48.588
X41.394 Y-48.332
X42.257 Y-48.002
X43.102 Y-47.598
X43.925 Y-47.121
X44.722 Y-46.568
X45.482 Y-45.946
X46.189 Y-45.266
X46.84 Y-44.531
X47.432 Y-43.748
X47.961 Y-42.922
X48.424 Y-42.056
X48.819 Y-41.158
X49.141 Y-40.231
X49.39 Y-39.281
X49.563 Y-38.315
X49.658 Y-37.338
X49.675 Y-36.358
X49.613 Y-35.382
X49.474 Y-34.418
X49.258 Y-33.47
X48.967 Y-32.544
X48.603 Y-31.644
X48.168 Y-30.776
X47.664 Y-29.945
X47.094 Y-29.156
X46.461 Y-28.413
X45.767 Y-27.721
X45.019 Y-27.085
X44.223 Y-26.512
X43.383 Y-26.004
X42.506 Y-25.564
X41.596 Y-25.194
X40.661 Y-24.898
X39.705 Y-24.675
X38.734 Y-24.528
X37.755 Y-24.456
X36.774 Y-24.46
X35.796 Y-24.539
X34.826 Y-24.692
X33.871 Y-24.918
X32.936 Y-25.216
X32.026 Y-25.584
X31.147 Y-26.02
X30.303 Y-26.522
X29.499 Y-27.086
X28.741 Y-27.708
X28.03 Y-28.385
X27.372 Y-29.114
X26.769 Y-29.888
X26.225 Y-30.705
X25.742 Y-31.56
X25.323 Y-32.447
X24.97 Y-33.363
X24.684 Y-34.302
X24.468 Y-35.259
X24.325 Y-36.23
X24.253 Y-37.209
Y-38.191
X24.325 Y-39.17
X24.468 Y-40.141
X24.68 Y-41.099
X24.961 Y-42.039
X25.309 Y-42.957
X25.723 Y-43.847
X26.199 Y-44.706
X26.737 Y-45.526
X27.335 Y-46.305
X27.987 Y-47.038
X28.691 Y-47.722
X29.443 Y-48.353
X30.238 Y-48.928
X31.073 Y-49.445
X31.942 Y-49.901
X32.842 Y-50.293
X33.768 Y-50.619
X34.715 Y-50.877
X35.678 Y-51.064
X36.653 Y-51.181
X37.633 Y-51.226
X38.615 Y-51.201
X39.591 Y-51.105
X40.559 Y-50.939
X41.512 Y-50.706
X42.447 Y-50.406
X43.358 Y-50.04
X44.24 Y-49.61
X45.089 Y-49.118
X45.903 Y-48.57
X46.678 Y-47.968
X47.412 Y-47.316
X48.101 Y-46.617
X48.741 Y-45.873
X49.329 Y-45.087
X49.863 Y-44.263
X50.343 Y-43.407
X50.765 Y-42.521
X51.13 Y-41.61
X51.432 Y-40.676
X51.67 Y-39.724
X51.843 Y-38.758
X51.951 Y-37.782
X51.995 Y-36.801
X51.973 Y-35.82
X51.886 Y-34.843
X51.731 Y-33.873
X51.509 Y-32.917
X51.223 Y-31.978
X50.874 Y-31.061
X50.464 Y-30.169
X49.997 Y-29.306
X49.47 Y-28.478
X48.888 Y-27.688
X48.252 Y-26.94
X47.568 Y-26.236
X46.838 Y-25.579
X46.067 Y-24.972
X45.257 Y-24.418
X44.411 Y-23.921
X43.533 Y-23.483
X42.627 Y-23.104
X41.699 Y-22.785
X40.752 Y-22.527
X39.79 Y-22.33
X38.818 Y-22.199
X37.838 Y-22.133
X36.857 Y-22.131
X35.877 Y-22.193
X34.904 Y-22.317
X33.94 Y-22.502
X32.99 Y-22.748
X32.058 Y-23.058
X31.149 Y-23.427
X30.265 Y-23.854
X29.41 Y-24.336
X28.587 Y-24.871
X27.799 Y-25.457
X27.051 Y-26.092
X26.345 Y-26.774
X25.685 Y-27.5
X25.07 Y-28.265
X24.505 Y-29.068
X23.99 Y-29.903
X23.527 Y-30.768
X23.12 Y-31.662
X22.771 Y-32.579
X22.48 Y-33.516
X22.249 Y-34.47
X22.077 Y-35.437
X21.964 Y-36.412
X21.912 Y-37.392
X21.924 Y-38.373
X21.997 Y-39.352
X22.13 Y-40.324
X22.323 Y-41.287
X22.574 Y-42.236
X22.882 Y-43.168
X23.247 Y-44.079
X23.669 Y-44.965
X24.146 Y-45.823
X24.676 Y-46.649
X25.256 Y-47.441
X25.882 Y-48.196
X26.554 Y-48.912
X27.269 Y-49.585
X28.025 Y-50.21
X28.819 Y-50.788
X29.646 Y-51.316
X30.504 Y-51.793
X31.389 Y-52.217
X32.298 Y-52.587
X33.229 Y-52.898
X34.178 Y-53.15
X35.14 Y-53.341
X36.113 Y-53.473
X37.092 Y-53.546
X38.073 Y-53.559
X39.054 Y-53.513
X40.029 Y-53.405
X40.996 Y-53.237
X41.951 Y-53.01
X42.891 Y-52.726
X43.811 Y-52.386
X44.71 Y-51.991
X45.584 Y-51.544
X46.429 Y-51.044
X47.242 Y-50.495
X48.022 Y-49.9
X48.767 Y-49.26
X49.473 Y-48.578
X50.139 Y-47.858
X50.763 Y-47.1
X51.342 Y-46.307
X51.874 Y-45.482
X52.357 Y-44.628
X52.791 Y-43.748
X53.175 Y-42.844
X53.506 Y-41.92
X53.785 Y-40.979
X54.008 Y-40.023
X54.174 Y-39.056
X54.284 Y-38.081
X54.338 Y-37.101
X54.335 Y-36.119
X54.276 Y-35.139
X54.161 Y-34.165
X53.989 Y-33.198
X53.759 Y-32.244
X53.472 Y-31.305
X53.132 Y-30.385
X52.74 Y-29.485
X52.296 Y-28.609
X51.803 Y-27.761
X51.261 Y-26.943
X50.67 Y-26.159
X50.034 Y-25.411
X49.356 Y-24.702
X48.638 Y-24.032
X47.884 Y-23.405
X47.094 Y-22.821
X46.272 Y-22.284
X45.42 Y-21.797
X44.541 Y-21.361
X43.638 Y-20.976
X42.715 Y-20.643
X41.775 Y-20.361
X40.82 Y-20.134
X39.854 Y-19.96
X38.88 Y-19.842
X37.9 Y-19.781
X36.919 Y-19.776
X35.938 Y-19.826
X34.962 Y-19.93
X33.993 Y-20.087
X33.035 Y-20.298
X32.089 Y-20.561
X31.161 Y-20.879
X30.252 Y-21.249
X29.365 Y-21.669
X28.502 Y-22.137
X27.666 Y-22.652
X26.859 Y-23.211
X26.084 Y-23.813
X25.344 Y-24.458
X24.642 Y-25.144
X23.979 Y-25.868
X23.356 Y-26.626
X22.775 Y-27.417
X22.237 Y-28.238
X21.743 Y-29.086
X21.296 Y-29.96
X20.899 Y-30.858
X20.552 Y-31.776
X20.257 Y-32.712
X20.012 Y-33.662
X19.818 Y-34.624
X19.676 Y-35.596
X19.586 Y-36.573
X19.55 Y-37.554
X19.569 Y-38.535
X19.641 Y-39.514
X19.766 Y-40.488
X19.943 Y-41.453
X20.17 Y-42.408
X20.448 Y-43.349
X20.775 Y-44.275
X21.153 Y-45.181
X21.58 Y-46.064
X22.055 Y-46.923
X22.576 Y-47.755
X23.141 Y-48.558
X23.747 Y-49.33
X24.393 Y-50.069
X25.077 Y-50.772
X25.8 Y-51.437
X26.558 Y-52.06
X27.348 Y-52.642
X28.169 Y-53.181
X29.016 Y-53.676
X29.889 Y-54.125
X30.784 Y-54.528
X31.699 Y-54.882
X32.633 Y-55.184
X33.582 Y-55.434
X34.544 Y-55.633
X35.514 Y-55.78
X36.491 Y-55.876
X37.471 Y-55.92
X38.453 Y-55.912
X39.432 Y-55.852
X40.407 Y-55.738
X41.374 Y-55.571
X42.331 Y-55.352
X43.276 Y-55.084
X44.204 Y-54.767
X45.116 Y-54.402
X46.007 Y-53.991
X46.875 Y-53.533
X47.718 Y-53.03
X48.533 Y-52.483
X49.319 Y-51.895
X50.073 Y-51.268
X50.796 Y-50.603
X51.484 Y-49.904
X52.137 Y-49.171
X52.752 Y-48.405
X53.325 Y-47.609
X53.858 Y-46.784
X54.348 Y-45.934
X54.795 Y-45.06
X55.197 Y-44.165
X55.555 Y-43.251
X55.868 Y-42.32
X56.133 Y-41.375
X56.348 Y-40.418
X56.513 Y-39.45
X56.629 Y-38.476
X56.696 Y-37.496
X56.713 Y-36.515
X56.681 Y-35.534
X56.6 Y-34.556
X56.47 Y-33.583
X56.288 Y-32.618
X56.056 Y-31.665
X55.776 Y-30.724
X55.448 Y-29.799
X55.073 Y-28.892
X54.654 Y-28.005
X54.19 Y-27.139
X53.683 Y-26.299
X53.132 Y-25.486
X52.54 Y-24.704
X51.908 Y-23.953
X51.239 Y-23.235
X50.534 Y-22.551
X49.797 Y-21.904
X49.027 Y-21.294
X48.229 Y-20.724
X47.401 Y-20.196
X46.548 Y-19.712
X45.67 Y-19.272
X44.772 Y-18.876
X43.855 Y-18.526
X42.922 Y-18.222
X41.975 Y-17.963
X41.016 Y-17.752
X40.049 Y-17.589
X39.073 Y-17.477
X38.094 Y-17.414
X37.113 Y-17.399
X36.132 Y-17.433
X35.154 Y-17.515
X34.181 Y-17.644
X33.215 Y-17.82
X32.259 Y-18.043
X31.316 Y-18.314
X30.387 Y-18.633
X29.476 Y-18.997
X28.583 Y-19.405
X27.712 Y-19.856
X26.862 Y-20.348
X26.038 Y-20.881
X25.24 Y-21.452
X24.471 Y-22.062
X23.734 Y-22.71
X23.029 Y-23.393
X22.359 Y-24.11
X21.723 Y-24.858
X21.124 Y-25.636
X20.562 Y-26.441
X20.039 Y-27.271
X19.556 Y-28.126
X19.116 Y-29.003
X18.72 Y-29.901
X18.369 Y-30.817
X18.061 Y-31.749
X17.798 Y-32.695
X17.58 Y-33.652
X17.408 Y-34.618
X17.281 Y-35.592
X17.201 Y-36.57
X17.17 Y-37.551
X17.187 Y-38.532
X17.251 Y-39.512
X17.361 Y-40.487
X17.518 Y-41.456
X17.719 Y-42.417
X17.964 Y-43.367
X18.254 Y-44.305
X18.59 Y-45.227
X18.971 Y-46.132
X19.395 Y-47.017
X19.861 Y-47.881
X20.367 Y-48.722
X20.912 Y-49.538
X21.495 Y-50.328
X22.114 Y-51.089
X22.768 Y-51.821
X23.458 Y-52.519
X24.181 Y-53.183
X24.935 Y-53.812
X25.718 Y-54.404
X26.528 Y-54.958
X27.362 Y-55.474
X28.22 Y-55.951
X29.099 Y-56.388
X29.999 Y-56.781
X30.916 Y-57.13
X31.849 Y-57.434
X32.796 Y-57.692
X33.754 Y-57.905
X34.721 Y-58.074
X35.695 Y-58.196
X36.674 Y-58.274
X37.655 Y-58.306
X38.636 Y-58.29
X39.615 Y-58.227
X40.591 Y-58.116
X41.56 Y-57.959
X42.52 Y-57.757
X43.47 Y-57.511
X44.408 Y-57.222
X45.332 Y-56.89
X46.239 Y-56.515
X47.127 Y-56.098
X47.995 Y-55.639
X48.84 Y-55.14
X49.662 Y-54.603
X50.458 Y-54.029
X51.227 Y-53.419
X51.969 Y-52.776
X52.681 Y-52.101
X53.362 Y-51.394
X54.01 Y-50.657
X54.623 Y-49.891
X55.201 Y-49.097
X55.741 Y-48.278
X56.245 Y-47.435
X56.711 Y-46.571
X57.138 Y-45.688
X57.526 Y-44.786
X57.874 Y-43.869
X58.18 Y-42.936
X58.442 Y-41.99
X58.66 Y-41.033
X58.835 Y-40.067
X58.965 Y-39.094
X59.053 Y-38.117
X59.097 Y-37.136
Y-36.155
X59.054 Y-35.174
X58.965 Y-34.197
X58.831 Y-33.224
X58.652 Y-32.259
X58.429 Y-31.303
X58.163 Y-30.359
X57.854 Y-29.427
X57.504 Y-28.51
X57.114 Y-27.609
X56.684 Y-26.727
X56.214 Y-25.865
X55.704 Y-25.027
X55.155 Y-24.213
X54.57 Y-23.425
X53.95 Y-22.664
X53.296 Y-21.932
X52.61 Y-21.23
X51.894 Y-20.559
X51.148 Y-19.921
X50.375 Y-19.316
X49.574 Y-18.749
X48.748 Y-18.219
X47.898 Y-17.728
X47.027 Y-17.275
X46.137 Y-16.861
X45.23 Y-16.487
X44.307 Y-16.154
X43.37 Y-15.86
X42.421 Y-15.609
X41.462 Y-15.402
X40.494 Y-15.239
X39.52 Y-15.119
X38.541 Y-15.043
X37.56 Y-15.01
X36.579 Y-15.02
X35.599 Y-15.072
X34.622 Y-15.167
X33.65 Y-15.304
X32.685 Y-15.484
X31.729 Y-15.708
X30.785 Y-15.975
X29.853 Y-16.283
X28.935 Y-16.632
X28.034 Y-17.02
X27.15 Y-17.446
X26.285 Y-17.91
X25.44 Y-18.411
X24.619 Y-18.948
X23.822 Y-19.521
X23.052 Y-20.129
X22.309 Y-20.771
X21.595 Y-21.444
X20.91 Y-22.147
X20.256 Y-22.879
X19.634 Y-23.638
X19.044 Y-24.422
X18.487 Y-25.231
X17.968 Y-26.064
X17.485 Y-26.919
X17.041 Y-27.794
X16.634 Y-28.687
X16.267 Y-29.597
X15.939 Y-30.522
X15.65 Y-31.46
X15.401 Y-32.41
X15.192 Y-33.369
X15.024 Y-34.336
X14.9 Y-35.309
X14.818 Y-36.288
X14.779 Y-37.268
X14.782 Y-38.25
X14.827 Y-39.23
X14.914 Y-40.208
X15.041 Y-41.181
X15.208 Y-42.148
X15.416 Y-43.108
X15.666 Y-44.057
X15.957 Y-44.994
X16.289 Y-45.918
X16.66 Y-46.827
X17.07 Y-47.718
X17.517 Y-48.592
X18.001 Y-49.446
X18.519 Y-50.279
X19.073 Y-51.09
X19.66 Y-51.877
X20.281 Y-52.637
X20.935 Y-53.369
X21.619 Y-54.072
X22.334 Y-54.745
X23.076 Y-55.387
X23.845 Y-55.998
X24.638 Y-56.575
X25.455 Y-57.119
X26.294 Y-57.629
X27.154 Y-58.102
X28.034 Y-58.537
X28.932 Y-58.933
X29.846 Y-59.29
X30.775 Y-59.608
X31.716 Y-59.886
X32.668 Y-60.124
X33.63 Y-60.322
X34.599 Y-60.479
X35.573 Y-60.596
X36.552 Y-60.671
X37.533 Y-60.703
X38.514 Y-60.692
X39.494 Y-60.64
X40.471 Y-60.546
X41.444 Y-60.411
X42.409 Y-60.236
X43.367 Y-60.02
X44.315 Y-59.766
X45.251 Y-59.472
X46.174 Y-59.138
X47.082 Y-58.766
X47.974 Y-58.355
X48.847 Y-57.907
X49.701 Y-57.423
X50.535 Y-56.905
X51.347 Y-56.353
X52.135 Y-55.769
X52.9 Y-55.154
X53.639 Y-54.508
X54.351 Y-53.832
X55.033 Y-53.127
X55.686 Y-52.394
X56.309 Y-51.635
X56.9 Y-50.852
X57.459 Y-50.045
X57.985 Y-49.217
X58.478 Y-48.368
X58.937 Y-47.5
X59.361 Y-46.615
X59.748 Y-45.713
X60.097 Y-44.795
X60.408 Y-43.865
X60.681 Y-42.922
X60.915 Y-41.969
X61.111 Y-41.007
X61.268 Y-40.038
X61.385 Y-39.063
X61.464 Y-38.085
X61.504 Y-37.104
X61.503 Y-36.123
X61.461 Y-35.142
X61.378 Y-34.164
X61.255 Y-33.19
X61.092 Y-32.222
X60.89 Y-31.262
X60.649 Y-30.31
X60.37 Y-29.369
X60.054 Y-28.44
X59.7 Y-27.525
X59.309 Y-26.625
X58.88 Y-25.742
X58.415 Y-24.877
X57.915 Y-24.033
X57.38 Y-23.21
X56.813 Y-22.409
X56.213 Y-21.632
X55.583 Y-20.88
X54.923 Y-20.153
X54.234 Y-19.454
X53.517 Y-18.783
X52.773 Y-18.144
X52.003 Y-17.535
X51.208 Y-16.958
X50.391 Y-16.415
X49.553 Y-15.905
X48.694 Y-15.429
X47.818 Y-14.987
X46.924 Y-14.581
X46.015 Y-14.211
X45.092 Y-13.878
X44.156 Y-13.583
X43.208 Y-13.327
X42.251 Y-13.109
X41.286 Y-12.93
X40.314 Y-12.79
X39.338 Y-12.689
X38.359 Y-12.626
X37.377 Y-12.602
X36.396 Y-12.616
X35.416 Y-12.67
X34.439 Y-12.764
X33.466 Y-12.896
X32.5 Y-13.068
X31.541 Y-13.278
X30.592 Y-13.526
X29.653 Y-13.812
X28.725 Y-14.133
X27.811 Y-14.491
X26.912 Y-14.884
X26.029 Y-15.313
X25.164 Y-15.776
X24.318 Y-16.274
X23.492 Y-16.805
X22.688 Y-17.368
X21.907 Y-17.962
X21.15 Y-18.587
X20.418 Y-19.24
X19.711 Y-19.922
X19.032 Y-20.63
X18.38 Y-21.364
X17.757 Y-22.123
X17.166 Y-22.906
X16.605 Y-23.711
X16.077 Y-24.538
X15.581 Y-25.386
X15.119 Y-26.252
X14.691 Y-27.135
X14.297 Y-28.034
X13.938 Y-28.947
X13.614 Y-29.874
X13.327 Y-30.812
X13.076 Y-31.761
X12.864 Y-32.72
X12.689 Y-33.685
X12.551 Y-34.657
X12.452 Y-35.634
X12.391 Y-36.613
X12.368 Y-37.595
X12.382 Y-38.576
X12.433 Y-39.556
X12.523 Y-40.534
X12.65 Y-41.507
X12.815 Y-42.474
X13.018 Y-43.435
X13.258 Y-44.387
X13.535 Y-45.328
X13.848 Y-46.258
X14.196 Y-47.176
X14.58 Y-48.079
X14.998 Y-48.967
X15.45 Y-49.839
X15.935 Y-50.692
X16.452 Y-51.526
X17.002 Y-52.339
X17.584 Y-53.13
X18.195 Y-53.898
X18.836 Y-54.641
X19.505 Y-55.359
X20.201 Y-56.051
X20.923 Y-56.716
X21.67 Y-57.353
X22.441 Y-57.961
X23.234 Y-58.538
X24.05 Y-59.084
X24.886 Y-59.599
X25.741 Y-60.08
X26.615 Y-60.527
X27.505 Y-60.941
X28.41 Y-61.32
X29.33 Y-61.664
X30.261 Y-61.972
X31.204 Y-62.245
X32.157 Y-62.482
X33.118 Y-62.681
X34.086 Y-62.842
X35.06 Y-62.966
X36.037 Y-63.052
X37.018 Y-63.101
X37.999 Y-63.111
X38.98 Y-63.084
X39.96 Y-63.02
X40.936 Y-62.919
X41.908 Y-62.78
X42.873 Y-62.604
X43.832 Y-62.391
X44.781 Y-62.142
X45.72 Y-61.857
X46.647 Y-61.536
X47.562 Y-61.179
X48.463 Y-60.789
X49.348 Y-60.365
X50.216 Y-59.908
X51.068 Y-59.419
X51.9 Y-58.899
X52.712 Y-58.347
X53.502 Y-57.766
X54.271 Y-57.155
X55.016 Y-56.516
X55.737 Y-55.85
X56.432 Y-55.158
X57.102 Y-54.44
X57.744 Y-53.698
X58.359 Y-52.933
X58.946 Y-52.146
X59.503 Y-51.338
X60.029 Y-50.509
X60.525 Y-49.662
X60.989 Y-48.797
X61.421 Y-47.916
X61.82 Y-47.019
X62.185 Y-46.108
X62.517 Y-45.184
X62.814 Y-44.249
X63.078 Y-43.303
X63.306 Y-42.349
X63.499 Y-41.386
X63.656 Y-40.418
X63.777 Y-39.444
X63.861 Y-38.466
X63.91 Y-37.485
X63.922 Y-36.504
X63.897 Y-35.523
X63.836 Y-34.543
X63.739 Y-33.566
X63.606 Y-32.594
X63.437 Y-31.627
X63.233 Y-30.667
X62.992 Y-29.715
X62.717 Y-28.773
X62.406 Y-27.842
X62.061 Y-26.923
X61.682 Y-26.018
X61.27 Y-25.127
X60.824 Y-24.253
X60.347 Y-23.395
X59.838 Y-22.556
X59.299 Y-21.736
X58.729 Y-20.936
X58.13 Y-20.159
X57.503 Y-19.404
X56.847 Y-18.673
X56.166 Y-17.967
X55.458 Y-17.287
X54.726 Y-16.634
X53.97 Y-16.008
X53.191 Y-15.41
X52.391 Y-14.841
X51.571 Y-14.302
X50.731 Y-13.794
X49.873 Y-13.317
X48.998 Y-12.873
X48.108 Y-12.46
X47.202 Y-12.081
X46.284 Y-11.735
X45.353 Y-11.424
X44.412 Y-11.146
X43.461 Y-10.903
X42.501 Y-10.695
X41.535 Y-10.522
X40.563 Y-10.384
X39.587 Y-10.282
X38.608 Y-10.216
X37.627 Y-10.186
X36.645 Y-10.191
X35.665 Y-10.232
X34.686 Y-10.308
X33.711 Y-10.42
X32.741 Y-10.567
X31.776 Y-10.749
X30.819 Y-10.965
X29.87 Y-11.216
X28.931 Y-11.502
X28.003 Y-11.821
X27.087 Y-12.173
X26.184 Y-12.559
X25.296 Y-12.976
X24.423 Y-13.425
X23.567 Y-13.906
X22.729 Y-14.416
X21.909 Y-14.957
X21.11 Y-15.526
X20.331 Y-16.124
X19.574 Y-16.749
X18.841 Y-17.401
X18.131 Y-18.079
X17.446 Y-18.781
X16.786 Y-19.508
X16.153 Y-20.258
X15.546 Y-21.03
X14.968 Y-21.823
X14.418 Y-22.636
X13.897 Y-23.467
X13.406 Y-24.317
X12.945 Y-25.184
X12.516 Y-26.067
X12.119 Y-26.964
X11.754 Y-27.876
X11.421 Y-28.799
X11.122 Y-29.734
X10.856 Y-30.678
X10.623 Y-31.632
X10.424 Y-32.593
X10.259 Y-33.561
X10.129 Y-34.534
X10.033 Y-35.51
X9.972 Y-36.49
X9.946 Y-37.471
X9.955 Y-38.453
X9.999 Y-39.433
X10.077 Y-40.412
X10.189 Y-41.387
X10.336 Y-42.357
X10.517 Y-43.322
X10.731 Y-44.28
X10.98 Y-45.229
X11.261 Y-46.169
X11.576 Y-47.099
X11.924 Y-48.017
X12.304 Y-48.922
X12.716 Y-49.813
X13.159 Y-50.689
X13.632 Y-51.548
X14.136 Y-52.391
X14.669 Y-53.215
X15.23 Y-54.02
X15.82 Y-54.805
X16.436 Y-55.569
X17.079 Y-56.31
X17.749 Y-57.028
X18.443 Y-57.722
X19.162 Y-58.39
X19.903 Y-59.034
X20.667 Y-59.65
X21.451 Y-60.24
X22.256 Y-60.801
X23.081 Y-61.334
X23.923 Y-61.838
X24.783 Y-62.312
X25.658 Y-62.755
X26.549 Y-63.167
X27.454 Y-63.547
X28.372 Y-63.894
X29.302 Y-64.209
X30.242 Y-64.492
X31.191 Y-64.741
X32.149 Y-64.956
X33.113 Y-65.138
X34.084 Y-65.286
X35.059 Y-65.399
X36.037 Y-65.479
X37.017 Y-65.524
X37.999 Y-65.534
X38.98 Y-65.51
X39.96 Y-65.451
X40.937 Y-65.357
X41.91 Y-65.23
X42.878 Y-65.069
X43.84 Y-64.874
X44.795 Y-64.646
X45.741 Y-64.385
X46.678 Y-64.091
X47.603 Y-63.765
X48.517 Y-63.408
X49.418 Y-63.018
X50.305 Y-62.597
X51.176 Y-62.146
X52.032 Y-61.665
X52.871 Y-61.155
X53.691 Y-60.616
X54.493 Y-60.05
X55.276 Y-59.457
X56.037 Y-58.838
X56.777 Y-58.194
X57.495 Y-57.524
X58.19 Y-56.831
X58.86 Y-56.114
X59.505 Y-55.374
X60.125 Y-54.613
X60.719 Y-53.832
X61.286 Y-53.031
X61.826 Y-52.211
X62.338 Y-51.373
X62.821 Y-50.519
X63.276 Y-49.649
X63.701 Y-48.765
X64.096 Y-47.866
X64.46 Y-46.955
X64.793 Y-46.031
X65.094 Y-45.097
X65.363 Y-44.153
X65.6 Y-43.201
X65.805 Y-42.241
X65.978 Y-41.275
X66.117 Y-40.303
X66.224 Y-39.327
X66.298 Y-38.349
X66.339 Y-37.368
X66.347 Y-36.387
X66.321 Y-35.405
X66.261 Y-34.426
X66.168 Y-33.449
X66.042 Y-32.475
X65.882 Y-31.507
X65.69 Y-30.544
X65.465 Y-29.589
X65.208 Y-28.642
X64.919 Y-27.704
X64.599 Y-26.776
X64.247 Y-25.859
X63.865 Y-24.956
X63.451 Y-24.065
X63.007 Y-23.19
X62.533 Y-22.33
X62.031 Y-21.487
X61.5 Y-20.662
X60.941 Y-19.855
X60.355 Y-19.068
X59.743 Y-18.3
X59.105 Y-17.554
X58.443 Y-16.83
X57.756 Y-16.129
X57.046 Y-15.451
X56.313 Y-14.798
X55.558 Y-14.171
X54.783 Y-13.569
X53.987 Y-12.995
X53.172 Y-12.447
X52.339 Y-11.928
X51.49 Y-11.436
X50.624 Y-10.974
X49.743 Y-10.541
X48.848 Y-10.137
X47.941 Y-9.764
X47.021 Y-9.421
X46.09 Y-9.111
X45.149 Y-8.831
X44.199 Y-8.584
X43.241 Y-8.369
X42.277 Y-8.186
X41.307 Y-8.035
X40.333 Y-7.917
X39.355 Y-7.831
X38.375 Y-7.778
X37.394 Y-7.757
X36.412 Y-7.769
X35.432 Y-7.813
X34.453 Y-7.891
X33.478 Y-8.001
X32.507 Y-8.144
X31.541 Y-8.319
X30.582 Y-8.526
X29.63 Y-8.765
X28.686 Y-9.035
X27.752 Y-9.336
X26.828 Y-9.668
X25.916 Y-10.03
X25.016 Y-10.422
X24.13 Y-10.843
X23.258 Y-11.294
X22.401 Y-11.773
X21.561 Y-12.281
X20.738 Y-12.816
X19.934 Y-13.378
X19.148 Y-13.966
X18.382 Y-14.58
X17.636 Y-15.218
X16.912 Y-15.88
X16.21 Y-16.566
X15.53 Y-17.274
X14.874 Y-18.004
X14.242 Y-18.755
X13.635 Y-19.527
X13.055 Y-20.318
X12.5 Y-21.128
X11.973 Y-21.956
X11.472 Y-22.8
X11 Y-23.661
X10.556 Y-24.536
X10.14 Y-25.425
X9.754 Y-26.327
X9.397 Y-27.242
X9.07 Y-28.167
X8.773 Y-29.103
X8.508 Y-30.048
X8.273 Y-31.001
X8.07 Y-31.961
X7.899 Y-32.927
X7.759 Y-33.899
X7.651 Y-34.874
X7.574 Y-35.853
X7.53 Y-36.833
X7.517 Y-37.815
X7.535 Y-38.796
X7.586 Y-39.776
X7.668 Y-40.755
X7.782 Y-41.729
X7.928 Y-42.7
X8.106 Y-43.665
X8.315 Y-44.624
X8.555 Y-45.576
X8.826 Y-46.519
X9.127 Y-47.453
X9.459 Y-48.377
X9.82 Y-49.29
X10.21 Y-50.19
X10.629 Y-51.078
X11.077 Y-51.951
X11.553 Y-52.81
X12.057 Y-53.652
X12.588 Y-54.478
X13.145 Y-55.285
X13.729 Y-56.075
X14.338 Y-56.844
X14.972 Y-57.594
X15.629 Y-58.323
X16.31 Y-59.03
X17.013 Y-59.714
X17.738 Y-60.376
X18.484 Y-61.014
X19.25 Y-61.628
X20.035 Y-62.217
X20.84 Y-62.779
X21.662 Y-63.315
X22.501 Y-63.824
X23.357 Y-64.305
X24.227 Y-64.758
X25.112 Y-65.183
X26.01 Y-65.579
X26.92 Y-65.946
X27.842 Y-66.284
X28.774 Y-66.591
X29.716 Y-66.869
X30.666 Y-67.115
X31.623 Y-67.331
X32.587 Y-67.515
X33.557 Y-67.667
X34.531 Y-67.789
X35.508 Y-67.878
X36.488 Y-67.936
X37.469 Y-67.962
X38.451 Y-67.957
X39.432 Y-67.92
X40.411 Y-67.852
X41.387 Y-67.752
X42.36 Y-67.622
X43.328 Y-67.46
X44.29 Y-67.266
X45.246 Y-67.041
X46.193 Y-66.786
X47.133 Y-66.501
X48.062 Y-66.186
X48.981 Y-65.841
X49.889 Y-65.467
X50.784 Y-65.064
X51.666 Y-64.634
X52.534 Y-64.176
X53.387 Y-63.69
X54.224 Y-63.178
X55.045 Y-62.64
X55.848 Y-62.076
X56.633 Y-61.486
X57.399 Y-60.872
X58.145 Y-60.235
X58.871 Y-59.574
X59.575 Y-58.891
X60.258 Y-58.186
X60.919 Y-57.46
X61.557 Y-56.714
X62.171 Y-55.948
X62.761 Y-55.164
X63.326 Y-54.362
X63.866 Y-53.542
X64.38 Y-52.705
X64.867 Y-51.854
X65.328 Y-50.987
X65.761 Y-50.106
X66.167 Y-49.212
X66.545 Y-48.306
X66.894 Y-47.389
X67.214 Y-46.461
X67.506 Y-45.524
X67.768 Y-44.578
X68.001 Y-43.625
X68.204 Y-42.665
X68.377 Y-41.698
X68.519 Y-40.727
X68.63 Y-39.752
X68.711 Y-38.774
X68.761 Y-37.794
X68.781 Y-36.812
X68.77 Y-35.831
X68.728 Y-34.85
X68.656 Y-33.871
X68.553 Y-32.895
X68.419 Y-31.923
X68.256 Y-30.955
X68.062 Y-29.993
X67.838 Y-29.037
X67.583 Y-28.089
X67.515 Y-27.866
X67.501 Y-27.823
X67.396 Y-27.527
X67.355 Y-27.411
X66.506 Y-25.201
X66.19 Y-24.517
X66.08 Y-24.294
X65.059 Y-22.291
X64.947 Y-22.088
X64.663 Y-21.623
X64.502 Y-21.368
X63.611 Y-19.997
X63.216 Y-19.396
X63.166 Y-19.32
X63.065 Y-19.173
X61.262 Y-16.947
X61.162 Y-16.831
X60.86 Y-16.502
X60.717 Y-16.354
X59.083 Y-14.72
X58.936 Y-14.577
X58.606 Y-14.275
X58.49 Y-14.175
X56.264 Y-12.372
X56.117 Y-12.271
X55.596 Y-11.928
X54.705 Y-11.349
X54.037 Y-10.915
X53.815 Y-10.775
X53.35 Y-10.49
X53.147 Y-10.378
X51.143 Y-9.357
X50.92 Y-9.248
X50.237 Y-8.932
X48.026 Y-8.083
X47.803 Y-8.003
X47.28 Y-7.818
X47.135 Y-7.779
X44.464 Y-7.063
X44.241 Y-7.012
X44.018 Y-6.974
X41.346 Y-6.551
X41.124 Y-6.521
X40.456 Y-6.474
X40.011 Y-6.45
X38.229 Y-6.357
X38.007 Y-6.354
X37.561
X37.339 Y-6.357
X35.335 Y-6.462
X35.112 Y-6.474
X34.444 Y-6.521
X34.222 Y-6.551
X31.55 Y-6.974
X31.327 Y-7.012
X31.105 Y-7.063
X28.433 Y-7.779
X28.288 Y-7.818
X27.657 Y-8.041
X27.542 Y-8.083
X25.331 Y-8.932
X24.648 Y-9.248
X24.425 Y-9.357
X22.421 Y-10.378
X22.218 Y-10.49
X21.753 Y-10.775
X21.499 Y-10.935
X20.128 Y-11.826
X19.527 Y-12.221
X19.451 Y-12.271
X19.304 Y-12.372
X17.078 Y-14.175
X16.962 Y-14.275
X16.632 Y-14.577
X16.485 Y-14.72
X14.851 Y-16.354
X14.708 Y-16.502
X14.406 Y-16.831
X14.306 Y-16.947
X12.503 Y-19.173
X12.402 Y-19.32
X12.058 Y-19.841
X11.479 Y-20.732
X11.046 Y-21.4
X10.905 Y-21.623
X10.621 Y-22.088
X10.509 Y-22.291
X9.488 Y-24.294
X9.379 Y-24.517
X9.062 Y-25.201
X8.213 Y-27.411
X8.134 Y-27.634
X7.949 Y-28.158
X7.909 Y-28.302
X7.194 Y-30.974
X7.143 Y-31.197
X7.104 Y-31.419
X6.681 Y-34.091
X6.652 Y-34.314
X6.605 Y-34.982
X6.581 Y-35.427
X6.487 Y-37.208
X6.484 Y-37.431
Y-37.876
X6.487 Y-38.099
X6.592 Y-40.103
X6.605 Y-40.325
X6.652 Y-40.993
X6.681 Y-41.216
X7.104 Y-43.888
X7.143 Y-44.11
X7.194 Y-44.333
X7.909 Y-47.005
X7.949 Y-47.149
X8.172 Y-47.78
X8.213 Y-47.895
X9.062 Y-50.106
X9.379 Y-50.79
X9.488 Y-51.012
X10.509 Y-53.016
X10.621 Y-53.219
X10.905 Y-53.684
X11.066 Y-53.938
X11.957 Y-55.31
X12.352 Y-55.911
X12.402 Y-55.987
X12.503 Y-56.133
X14.306 Y-58.36
X14.406 Y-58.476
X14.708 Y-58.805
X14.851 Y-58.953
X16.485 Y-60.586
X16.632 Y-60.73
X16.962 Y-61.032
X17.078 Y-61.132
X19.304 Y-62.935
X19.451 Y-63.035
X19.972 Y-63.379
X20.863 Y-63.958
X21.531 Y-64.392
X21.753 Y-64.532
X22.219 Y-64.817
X22.421 Y-64.929
X24.425 Y-65.95
X24.648 Y-66.059
X25.331 Y-66.375
X27.542 Y-67.224
X27.765 Y-67.304
X28.289 Y-67.488
X28.433 Y-67.528
X31.105 Y-68.244
X31.327 Y-68.294
X31.55 Y-68.333
X34.222 Y-68.756
X34.444 Y-68.786
X35.112 Y-68.833
X35.558 Y-68.857
X37.339 Y-68.95
X37.561 Y-68.953
X38.007
X38.229 Y-68.95
X40.233 Y-68.845
X40.456 Y-68.833
X41.124 Y-68.786
X41.346 Y-68.756
X44.018 Y-68.333
X44.241 Y-68.294
X44.464 Y-68.244
X47.135 Y-67.528
X47.279 Y-67.488
X47.91 Y-67.266
X48.026 Y-67.224
X50.237 Y-66.375
X50.92 Y-66.059
X51.143 Y-65.95
X53.147 Y-64.929
X53.349 Y-64.817
X53.815 Y-64.532
X54.069 Y-64.371
X55.44 Y-63.481
X56.041 Y-63.086
X56.117 Y-63.035
X56.264 Y-62.935
X58.49 Y-61.132
X58.606 Y-61.032
X58.936 Y-60.73
X59.083 Y-60.586
X60.717 Y-58.953
X60.86 Y-58.805
X61.162 Y-58.476
X61.262 Y-58.36
X63.065 Y-56.133
X63.166 Y-55.987
X63.51 Y-55.465
X64.089 Y-54.575
X64.522 Y-53.907
X64.663 Y-53.684
X64.947 Y-53.219
X65.059 Y-53.016
X66.08 Y-51.012
X66.189 Y-50.79
X66.506 Y-50.106
X67.355 Y-47.895
X67.434 Y-47.673
X67.619 Y-47.149
X67.659 Y-47.005
X68.374 Y-44.333
X68.425 Y-44.11
X68.464 Y-43.888
X68.887 Y-41.216
X68.916 Y-40.993
X68.963 Y-40.325
X68.987 Y-39.88
X69.081 Y-38.099
X69.084 Y-37.876
Y-37.431
X69.081 Y-37.208
X68.976 Y-35.204
X68.963 Y-34.982
X68.916 Y-34.314
X68.887 Y-34.091
X68.464 Y-31.419
X68.425 Y-31.197
X68.374 Y-30.974
X67.659 Y-28.302
X67.619 Y-28.158
X67.501 Y-27.823
G3 X66.884 Y-27.42 I-0.591 J-0.232
G1 X66.785 Y-27.424 Z-0.492
X66.688 Y-27.428 Z-0.469
X66.596 Y-27.432 Z-0.431
X66.511 Y-27.435 Z-0.379
X66.436 Y-27.439 Z-0.314
X66.371 Y-27.441 Z-0.238
X66.319 Y-27.443 Z-0.153
X66.281 Y-27.445 Z-0.061
X66.258 Y-27.446 Z0.036
X66.25 Z0.135
G0 Z15

G28 G91 Z0
G90
G28 G91 X0 Y0
G90
M5
M30
