(edge)
(T1 D=6.35 CR=0 - ZMIN=-13.7 - flat end mill)
G90 G94
G17
G21
G28 G91 Z0
G90

(2D Contour6)
T1
S18000 M3
G17 G90 G94
G54
G0 X106.693 Y-21.92
Z15
G0 Z5
G1 Z1 F8.3
Z-13.065
G19 G2 Y-22.555 Z-13.7 J-0.635 K0 F25
G1 Y-23.19
G17 G3 X107.328 Y-23.825 I0.635 J0
G1 X109.029
X109.093 Y-23.819
X109.154 Y-23.8
X109.21 Y-23.77
X109.259 Y-23.73
X115.814 Y-17.175
G3 X115.584 Y-16.621 I-0.23 J0.23
G1 X99.416
G3 X99.186 Y-17.175 I0 J-0.325
G1 X105.741 Y-23.73
X105.79 Y-23.77
X105.846 Y-23.8
X105.907 Y-23.819
X105.971 Y-23.825
X107.328
G3 X107.963 Y-23.19 I0 J0.635
G1 Y-22.555
G19 G3 Y-21.92 Z-13.065 J0 K0.635
G0 Z5
X134.2 Y-19.471
G1 Z1 F8.3
Z-13.065
X134.206 Y-19.466 Z-13.164 F25
X134.222 Y-19.449 Z-13.261
X134.249 Y-19.422 Z-13.353
X134.286 Y-19.385 Z-13.438
X134.331 Y-19.34 Z-13.514
X134.385 Y-19.286 Z-13.579
X134.445 Y-19.226 Z-13.631
X134.51 Y-19.161 Z-13.669
X134.579 Y-19.092 Z-13.692
X134.649 Y-19.022 Z-13.7
X135.098 Y-18.573
G17 G3 X135.097 Y-17.675 I-0.449 J0.449
G1 X134.138 Y-16.716
X134.088 Y-16.675
X134.032 Y-16.645
X133.971 Y-16.627
X133.908 Y-16.621
X131.141
X131.077 Y-16.627
X131.016 Y-16.645
X130.96 Y-16.675
X130.911 Y-16.716
X124.356 Y-23.27
G3 X124.586 Y-23.825 I0.23 J-0.23
G1 X140.467
G3 X140.697 Y-23.27 I0 J0.325
G1 X135.097 Y-17.675
G3 X134.199 Y-17.675 I-0.449 J-0.449
G1 X133.751 Y-18.124
X133.68 Y-18.195 Z-13.692
X133.612 Y-18.263 Z-13.669
X133.547 Y-18.328 Z-13.631
X133.487 Y-18.388 Z-13.579
X133.433 Y-18.442 Z-13.514
X133.387 Y-18.488 Z-13.438
X133.351 Y-18.524 Z-13.353
X133.324 Y-18.551 Z-13.261
X133.307 Y-18.568 Z-13.164
X133.302 Y-18.573 Z-13.065
G0 Z5
X158.264 Y-21.872
G1 Z1 F8.3
Z-13.065
X158.269 Y-21.877 Z-13.164 F25
X158.286 Y-21.894 Z-13.261
X158.313 Y-21.921 Z-13.353
X158.35 Y-21.958 Z-13.438
X158.395 Y-22.003 Z-13.514
X158.449 Y-22.057 Z-13.579
X158.509 Y-22.117 Z-13.631
X158.574 Y-22.182 Z-13.669
X158.643 Y-22.251 Z-13.692
X158.713 Y-22.321 Z-13.7
X159.162 Y-22.77
G3 X160.06 Y-22.77 I0.449 J0.449
G1 X165.654 Y-17.175
G3 X165.425 Y-16.621 I-0.229 J0.23
G1 X149.472
G3 X149.242 Y-17.175 I0 J-0.325
G1 X155.796 Y-23.73
X155.845 Y-23.77
X155.902 Y-23.8
X155.962 Y-23.819
X156.026 Y-23.825
X158.87
X158.933 Y-23.819
X158.994 Y-23.8
X159.051 Y-23.77
X159.1 Y-23.73
X160.06 Y-22.77
G3 X160.06 Y-21.872 I-0.449 J0.449
G1 X159.611 Y-21.423
X159.541 Y-21.353 Z-13.692
X159.472 Y-21.284 Z-13.669
X159.407 Y-21.219 Z-13.631
X159.347 Y-21.159 Z-13.579
X159.293 Y-21.105 Z-13.514
X159.248 Y-21.06 Z-13.438
X159.211 Y-21.023 Z-13.353
X159.184 Y-20.996 Z-13.261
X159.167 Y-20.979 Z-13.164
X159.162 Y-20.974 Z-13.065
G0 Z5
X181.846 Y-21.499
G1 Z1 F8.3
Z-13.065
G18 G2 X182.481 Z-13.7 I0.635 K0 F25
G1 X183.116
G17 G3 X183.751 Y-20.864 I0 J0.635
G1 Y-18.929
G3 X181.244 Y-16.611 I-2.325 J0
G1 X181.12 Y-16.618
X180.996 Y-16.621
X180.981
X180.918 Y-16.627
X180.857 Y-16.645
X180.8 Y-16.675
X180.751 Y-16.716
X174.197 Y-23.27
G3 X174.426 Y-23.825 I0.229 J-0.23
G1 X181.426
G3 X183.751 Y-21.5 I0 J2.325
G1 Y-20.864
G3 X183.116 Y-20.229 I-0.635 J0
G1 X182.481
G18 G3 X181.846 Z-13.065 I0 K0.635
G0 Z5
X81.814 Y-21.92
G1 Z1 F8.3
Z-13.065
G19 G2 Y-22.555 Z-13.7 J-0.635 K0 F25
G1 Y-23.19
G17 G3 X82.449 Y-23.825 I0.635 J0
G1 X90.414
G3 X90.644 Y-23.27 I0 J0.325
G1 X84.089 Y-16.716
X84.04 Y-16.675
X83.984 Y-16.645
X83.923 Y-16.627
X83.86 Y-16.621
X81.092
X81.028 Y-16.627
X80.967 Y-16.645
X80.911 Y-16.675
X80.862 Y-16.716
X74.304 Y-23.27
G3 X74.533 Y-23.825 I0.23 J-0.23
G1 X82.449
G3 X83.084 Y-23.19 I0 J0.635
G1 Y-22.555
G19 G3 Y-21.92 Z-13.065 J0 K0.635
G0 Z5
X58.367 Y-21.872
G1 Z1 F8.3
Z-13.065
X58.373 Y-21.877 Z-13.164 F25
X58.389 Y-21.894 Z-13.261
X58.416 Y-21.921 Z-13.353
X58.453 Y-21.958 Z-13.438
X58.499 Y-22.003 Z-13.514
X58.553 Y-22.057 Z-13.579
X58.613 Y-22.117 Z-13.631
X58.678 Y-22.182 Z-13.669
X58.746 Y-22.251 Z-13.692
X58.816 Y-22.321 Z-13.7
X59.266 Y-22.77
G17 G3 X60.164 Y-22.77 I0.449 J0.449
G1 X65.758 Y-17.175
G3 X65.528 Y-16.621 I-0.23 J0.23
G1 X49.575
G3 X49.346 Y-17.175 I0 J-0.325
G1 X55.9 Y-23.73
X55.949 Y-23.77
X56.005 Y-23.8
X56.066 Y-23.819
X56.13 Y-23.825
X58.974
X59.037 Y-23.819
X59.098 Y-23.8
X59.154 Y-23.77
X59.204 Y-23.73
X60.164 Y-22.77
G3 X60.164 Y-21.872 I-0.449 J0.449
G1 X59.715 Y-21.423
X59.644 Y-21.353 Z-13.692
X59.576 Y-21.284 Z-13.669
X59.511 Y-21.219 Z-13.631
X59.451 Y-21.159 Z-13.579
X59.397 Y-21.105 Z-13.514
X59.351 Y-21.06 Z-13.438
X59.314 Y-21.023 Z-13.353
X59.287 Y-20.996 Z-13.261
X59.271 Y-20.979 Z-13.164
X59.265 Y-20.974 Z-13.065
G0 Z5
X35.406 Y-20.566
G1 Z1 F8.3
Z-13.065
X35.411 Y-20.561 Z-13.164 F25
X35.428 Y-20.544 Z-13.261
X35.454 Y-20.518 Z-13.353
X35.491 Y-20.481 Z-13.438
X35.537 Y-20.435 Z-13.514
X35.591 Y-20.381 Z-13.579
X35.651 Y-20.321 Z-13.631
X35.716 Y-20.256 Z-13.669
X35.784 Y-20.188 Z-13.692
X35.855 Y-20.117 Z-13.7
X36.304 Y-19.668
G3 X36.304 Y-18.77 I-0.449 J0.449
G1 X34.249 Y-16.716
X34.2 Y-16.675
X34.144 Y-16.645
X34.083 Y-16.627
X34.019 Y-16.621
X34.004
X33.88 Y-16.618
X33.756 Y-16.611
G3 X31.249 Y-18.929 I-0.182 J-2.318
G1 Y-21.5
G3 X33.574 Y-23.825 I2.325 J0
G1 X40.574
G3 X40.803 Y-23.27 I0 J0.325
G1 X36.304 Y-18.77
G3 X35.406 Y-18.77 I-0.449 J-0.449
G1 X34.957 Y-19.219
X34.886 Y-19.29 Z-13.692
X34.818 Y-19.358 Z-13.669
X34.753 Y-19.423 Z-13.631
X34.693 Y-19.483 Z-13.579
X34.639 Y-19.537 Z-13.514
X34.593 Y-19.583 Z-13.438
X34.556 Y-19.62 Z-13.353
X34.53 Y-19.646 Z-13.261
X34.513 Y-19.663 Z-13.164
X34.508 Y-19.668 Z-13.065
G0 Z15
G28 G91 Z0
G90
G28 G91 X0 Y0
G90
M5
M30
