(glassSheild_12mm_facing_02)
(T8 D=6.35 CR=0 - ZMIN=-3.1 - flat end mill)
G90 G94
G17
G21
G28 G91 Z0
G90

(2D Adaptive3)
T8
S18000 M3
G17 G90 G94
G54
G0 X-0.655 Y-253.302
Z15
G0 Z5
Z-1.83
G1 Z-2.465 F400
X-0.653 Y-253.294 Z-2.564
X-0.647 Y-253.272 Z-2.661
X-0.638 Y-253.235 Z-2.753
X-0.625 Y-253.184 Z-2.838
X-0.609 Y-253.122 Z-2.914
X-0.59 Y-253.048 Z-2.979
X-0.569 Y-252.966 Z-3.031
X-0.546 Y-252.877 Z-3.069
X-0.522 Y-252.783 Z-3.092
X-0.497 Y-252.687 Z-3.1
G3 X0 Y-249.23 I-15.704 J4.023
G1 Y-248.318
X0.033 Y-248.209
X0.108 Y-247.932
X0.171 Y-247.589
X0.214 Y-247.165
X0.227 Y-246.534
X0.173 Y-245.624
X0.07 Y-244.718
X-0.067 Y-243.817
X-0.193 Y-242.914
X-0.304 Y-242.009
X-0.4 Y-241.102
X-0.468 Y-240.193
X-0.517 Y-239.282
X-0.551 Y-238.371
X-0.576 Y-237.459
X-0.593 Y-236.548
X-0.605 Y-235.636
X-0.614 Y-234.724
X-0.62 Y-233.812
X-0.625 Y-232.901
X-0.63 Y-231.077
X-0.633 Y-228.342
X-0.635 Y-221.959
Y-199.164
Y-149.014
Y-98.864
Y-48.714
Y-17.713
X-0.626 Y-16.801
X-0.599 Y-15.89
X-0.559 Y-14.979
X-0.476 Y-14.071
X-0.355 Y-13.167
X-0.201 Y-12.268
X0.011 Y-11.381
X0.262 Y-10.505
X0.563 Y-9.644
X0.916 Y-8.803
X1.305 Y-7.979
X1.751 Y-7.184
X2.242 Y-6.415
X2.77 Y-5.672
X3.35 Y-4.968
X3.963 Y-4.294
X4.618 Y-3.659
X5.312 Y-3.067
X6.031 Y-2.506
X6.79 Y-2.001
X7.576 Y-1.539
X8.385 Y-1.119
X9.222 Y-0.756
X10.075 Y-0.435
X10.948 Y-0.17
X11.835 Y0.04
X12.73 Y0.211
X13.634 Y0.334
X14.542 Y0.421
X15.451 Y0.483
X16.362 Y0.528
X17.273 Y0.559
X18.185 Y0.581
X19.097 Y0.597
X20.008 Y0.608
X20.92 Y0.616
X21.832 Y0.622
X22.744 Y0.625
X24.567 Y0.63
X27.303 Y0.633
X34.597 Y0.635
X57.393
X107.542
X157.692
X207.842
X257.991
X308.141
X358.291
X381.998
X382.91 Y0.633
X383.821 Y0.61
X384.732 Y0.573
X385.642 Y0.506
X386.547 Y0.396
X387.448 Y0.257
X388.339 Y0.061
X389.218 Y-0.179
X390.086 Y-0.46
X390.932 Y-0.798
X391.762 Y-1.177
X392.567 Y-1.606
X393.343 Y-2.083
X394.098 Y-2.595
X394.813 Y-3.161
X395.496 Y-3.765
X396.146 Y-4.405
X396.75 Y-5.088
X397.319 Y-5.8
X397.842 Y-6.547
X398.317 Y-7.325
X398.757 Y-8.124
X399.136 Y-8.953
X399.468 Y-9.803
X399.753 Y-10.668
X399.979 Y-11.552
X400.161 Y-12.445
X400.298 Y-13.347
X400.396 Y-14.253
X400.465 Y-15.163
X400.515 Y-16.073
X400.55 Y-16.984
X400.575 Y-17.896
X400.592 Y-18.807
X400.605 Y-19.719
X400.614 Y-20.631
X400.62 Y-21.543
X400.624 Y-22.454
X400.63 Y-24.278
X400.633 Y-27.013
X400.635 Y-33.396
Y-64.398
Y-114.547
Y-164.697
Y-214.847
Y-236.73
X400.616 Y-237.642
X400.581 Y-238.553
X400.523 Y-239.463
X400.421 Y-240.369
X400.286 Y-241.271
X400.102 Y-242.164
X399.87 Y-243.046
X399.603 Y-243.918
X399.273 Y-244.768
X398.901 Y-245.6
X398.484 Y-246.411
X398.014 Y-247.193
X397.508 Y-247.951
X396.953 Y-248.674
X396.355 Y-249.363
X395.726 Y-250.023
X395.05 Y-250.635
X394.343 Y-251.21
X393.603 Y-251.743
X392.83 Y-252.227
X392.035 Y-252.673
X391.211 Y-253.063
X390.365 Y-253.404
X389.504 Y-253.703
X388.623 Y-253.939
X387.731 Y-254.129
X386.831 Y-254.275
X385.925 Y-254.379
X385.016 Y-254.453
X384.106 Y-254.506
X383.195 Y-254.544
X382.284 Y-254.571
X381.372 Y-254.589
X380.46 Y-254.603
X379.549 Y-254.612
X378.637 Y-254.619
X377.725 Y-254.624
X375.901 Y-254.629
X373.166 Y-254.633
X367.695 Y-254.635
X333.046
X282.896
X232.747
X182.597
X132.447
X82.298
X32.148
X17.559
X16.647 Y-254.622
X15.736 Y-254.593
X14.825 Y-254.551
X13.918 Y-254.46
X13.015 Y-254.334
X12.118 Y-254.168
X11.233 Y-253.949
X10.358 Y-253.692
X9.501 Y-253.381
X8.663 Y-253.021
X7.842 Y-252.625
X7.052 Y-252.169
X6.287 Y-251.673
X5.551 Y-251.135
X4.852 Y-250.549
X4.268 Y-249.849
X3.847 Y-249.04
X3.533 Y-248.184
X3.285 Y-247.307
X3.077 Y-246.419
X2.889 Y-245.527
X2.72 Y-244.631
X2.569 Y-243.731
X2.436 Y-242.829
X2.324 Y-241.924
X2.231 Y-241.017
X2.157 Y-240.109
X2.098 Y-239.199
X2.052 Y-238.288
X2.017 Y-237.377
X1.989 Y-236.465
X1.968 Y-235.554
X1.952 Y-234.642
X1.94 Y-233.73
X1.931 Y-232.819
X1.925 Y-231.907
X1.919 Y-230.995
X1.913 Y-229.172
X1.908 Y-226.436
X1.906 Y-221.877
X1.905 Y-179.022
Y-128.872
Y-78.722
Y-28.573
Y-20.366
X1.906 Y-19.455
X1.913 Y-18.543
X1.928 Y-17.631
X1.959 Y-16.72
X2.015 Y-15.81
X2.102 Y-14.902
X2.228 Y-13.999
X2.398 Y-13.103
X2.616 Y-12.218
X2.882 Y-11.346
X3.204 Y-10.493
X3.581 Y-9.662
X4.011 Y-8.858
X4.494 Y-8.085
X5.03 Y-7.347
X5.616 Y-6.649
X6.25 Y-5.993
X6.929 Y-5.385
X7.649 Y-4.825
X8.409 Y-4.321
X9.202 Y-3.872
X10.026 Y-3.482
X10.876 Y-3.15
X11.745 Y-2.875
X12.63 Y-2.653
X13.524 Y-2.478
X14.426 Y-2.341
X15.331 Y-2.235
X16.24 Y-2.153
X17.149 Y-2.091
X18.06 Y-2.044
X18.971 Y-2.008
X19.882 Y-1.982
X20.794 Y-1.962
X21.706 Y-1.947
X22.617 Y-1.936
X23.529 Y-1.928
X24.441 Y-1.922
X25.353 Y-1.917
X27.176 Y-1.912
X29.912 Y-1.908
X31.735 Y-1.906
X40.854 Y-1.905
X81.885
X132.035
X182.185
X232.334
X282.484
X332.634
X380.048
X380.96 Y-1.908
X381.872 Y-1.918
X382.783 Y-1.94
X383.694 Y-1.982
X384.603 Y-2.051
X385.509 Y-2.154
X386.409 Y-2.299
X387.301 Y-2.49
X388.18 Y-2.731
X389.044 Y-3.023
X389.888 Y-3.369
X390.707 Y-3.769
X391.497 Y-4.224
X392.255 Y-4.731
X392.976 Y-5.29
X393.655 Y-5.898
X394.289 Y-6.554
X394.875 Y-7.252
X395.411 Y-7.99
X395.891 Y-8.765
X396.314 Y-9.573
X396.676 Y-10.409
X396.981 Y-11.269
X397.231 Y-12.146
X397.431 Y-13.035
X397.588 Y-13.934
X397.711 Y-14.837
X397.805 Y-15.744
X397.877 Y-16.653
X397.932 Y-17.563
X397.974 Y-18.474
X398.005 Y-19.385
X398.028 Y-20.297
X398.045 Y-21.208
X398.058 Y-22.12
X398.068 Y-23.032
X398.075 Y-23.944
X398.08 Y-24.855
X398.084 Y-25.767
X398.089 Y-27.591
X398.093 Y-30.326
X398.095 Y-35.797
Y-43.092
Y-93.241
Y-143.391
Y-193.541
Y-234.572
X398.088 Y-235.484
X398.072 Y-236.396
X398.039 Y-237.307
X397.982 Y-238.217
X397.894 Y-239.125
X397.767 Y-240.028
X397.598 Y-240.924
X397.378 Y-241.809
X397.108 Y-242.679
X396.784 Y-243.532
X396.408 Y-244.363
X395.976 Y-245.166
X395.491 Y-245.937
X394.954 Y-246.674
X394.366 Y-247.372
X393.731 Y-248.026
X393.05 Y-248.632
X392.328 Y-249.189
X391.568 Y-249.692
X390.774 Y-250.142
X389.949 Y-250.53
X389.099 Y-250.859
X388.229 Y-251.131
X387.344 Y-251.351
X386.449 Y-251.525
X385.547 Y-251.662
X384.642 Y-251.767
X383.733 Y-251.848
X382.824 Y-251.91
X381.913 Y-251.957
X381.002 Y-251.992
X380.09 Y-252.019
X379.179 Y-252.038
X378.267 Y-252.053
X377.355 Y-252.064
X376.444 Y-252.072
X375.532 Y-252.078
X374.62 Y-252.083
X372.796 Y-252.088
X370.061 Y-252.092
X364.59 Y-252.095
X350.001
X299.851
X249.702
X199.552
X149.402
X99.253
X49.103
X19.925
X19.013 Y-252.092
X18.101 Y-252.082
X17.19 Y-252.061
X16.279 Y-252.019
X15.37 Y-251.948
X14.464 Y-251.842
X13.564 Y-251.696
X12.673 Y-251.504
X11.794 Y-251.262
X10.93 Y-250.968
X10.088 Y-250.62
X9.269 Y-250.219
X8.486 Y-249.751
X7.8 Y-249.15
X7.222 Y-248.445
X6.741 Y-247.67
X6.341 Y-246.851
X6.005 Y-246.003
X5.724 Y-245.136
X5.487 Y-244.256
X5.288 Y-243.366
X5.123 Y-242.469
X4.987 Y-241.567
X4.876 Y-240.662
X4.852 Y-239.751
X4.801 Y-237.928
X4.779 Y-237.016
X4.759 Y-236.105
X4.743 Y-235.193
X4.729 Y-234.281
X4.717 Y-233.37
X4.708 Y-232.458
X4.7 Y-231.546
X4.694 Y-230.634
X4.69 Y-229.722
X4.683 Y-227.899
X4.678 Y-225.163
X4.675 Y-221.516
X4.674 Y-211.144
Y-191.084
Y-140.251
Y-139.339
X4.607 Y-138.43
X4.56 Y-137.519
X4.526 Y-136.608
X4.503 Y-135.696
X4.486 Y-134.785
X4.474 Y-133.873
X4.465 Y-132.961
X4.459 Y-132.049
X4.455 Y-131.138
X4.45 Y-129.314
X4.447 Y-126.579
X4.445 Y-120.196
Y-90.106
Y-89.194
X4.462 Y-88.967
X4.484 Y-88.629
X4.507 Y-88.25
X4.53 Y-87.818
X4.553 Y-87.316
X4.576 Y-86.716
X4.599 Y-85.973
X4.623 Y-84.948
X4.637 Y-84.036
X4.648 Y-83.124
X4.655 Y-82.213
X4.661 Y-81.301
X4.664 Y-80.389
X4.669 Y-78.565
X4.672 Y-75.83
X4.673 Y-68.535
X4.674 Y-39.699
Y-38.787
X4.607 Y-37.878
X4.56 Y-36.967
X4.526 Y-36.056
X4.503 Y-35.145
X4.486 Y-34.233
X4.474 Y-33.321
X4.465 Y-32.41
X4.459 Y-31.498
X4.455 Y-30.586
X4.45 Y-28.762
X4.447 Y-26.027
X4.446 Y-22.38
Y-21.468
X4.449 Y-20.556
X4.457 Y-19.644
X4.474 Y-18.733
X4.507 Y-17.821
X4.562 Y-16.911
X4.647 Y-16.003
X4.769 Y-15.1
X4.938 Y-14.204
X5.159 Y-13.319
X5.435 Y-12.45
X5.773 Y-11.603
X6.174 Y-10.784
X6.639 Y-10
X7.167 Y-9.257
X7.757 Y-8.562
X8.407 Y-7.922
X9.111 Y-7.342
X9.864 Y-6.828
X10.659 Y-6.382
X11.489 Y-6.004
X12.344 Y-5.688
X13.218 Y-5.428
X14.105 Y-5.218
X15.001 Y-5.048
X15.903 Y-4.914
X16.809 Y-4.808
X17.717 Y-4.724
X18.626 Y-4.659
X19.537 Y-4.609
X20.448 Y-4.57
X21.359 Y-4.54
X22.271 Y-4.517
X23.182 Y-4.5
X24.094 Y-4.486
X25.006 Y-4.476
X25.917 Y-4.468
X26.145 Y-4.484
X26.509 Y-4.506
X26.923 Y-4.529
X27.404 Y-4.551
X27.973 Y-4.574
X28.673 Y-4.596
X29.58 Y-4.619
X30.492 Y-4.635
X31.404 Y-4.647
X32.316 Y-4.655
X33.227 Y-4.66
X34.139 Y-4.664
X35.963 Y-4.669
X38.698 Y-4.672
X45.993 Y-4.674
X75.627
X76.539
X77.448 Y-4.607
X78.359 Y-4.56
X79.27 Y-4.526
X80.181 Y-4.503
X81.093 Y-4.486
X82.005 Y-4.474
X82.916 Y-4.465
X83.828 Y-4.459
X84.74 Y-4.455
X86.564 Y-4.45
X89.299 Y-4.447
X95.682 Y-4.445
X125.772
X126.683
X126.911 Y-4.462
X127.248 Y-4.484
X127.627 Y-4.507
X128.059 Y-4.53
X128.562 Y-4.553
X129.162 Y-4.576
X129.904 Y-4.599
X130.816 Y-4.621
X131.728 Y-4.636
X132.639 Y-4.647
X133.551 Y-4.655
X134.463 Y-4.66
X135.375 Y-4.664
X137.198 Y-4.669
X139.934 Y-4.672
X146.316 Y-4.673
X176.406 Y-4.674
X177.318
X178.227 Y-4.607
X179.138 Y-4.56
X180.049 Y-4.526
X180.961 Y-4.503
X181.872 Y-4.486
X182.784 Y-4.474
X183.696 Y-4.465
X184.608 Y-4.459
X185.519 Y-4.455
X187.343 Y-4.45
X190.079 Y-4.447
X196.461 Y-4.445
X226.551
X227.463
X227.69 Y-4.462
X228.028 Y-4.484
X228.407 Y-4.507
X228.839 Y-4.53
X229.342 Y-4.553
X229.941 Y-4.576
X230.684 Y-4.599
X231.595 Y-4.621
X232.507 Y-4.636
X233.419 Y-4.647
X234.331 Y-4.655
X235.242 Y-4.66
X236.154 Y-4.664
X237.978 Y-4.669
X240.713 Y-4.672
X247.666 Y-4.673
X276.844 Y-4.674
X277.756
X278.665 Y-4.607
X279.576 Y-4.56
X280.487 Y-4.526
X281.398 Y-4.503
X282.31 Y-4.486
X283.222 Y-4.474
X284.133 Y-4.465
X285.045 Y-4.459
X285.957 Y-4.455
X287.781 Y-4.45
X290.516 Y-4.447
X296.899 Y-4.445
X326.989
X327.9
X328.128 Y-4.462
X328.465 Y-4.484
X328.844 Y-4.507
X329.277 Y-4.53
X329.779 Y-4.553
X330.379 Y-4.576
X331.121 Y-4.599
X332.033 Y-4.621
X333.059 Y-4.637
X333.97 Y-4.648
X334.882 Y-4.655
X335.794 Y-4.661
X336.706 Y-4.664
X338.529 Y-4.669
X341.265 Y-4.672
X348.559 Y-4.673
X377.737 Y-4.674
X378.649
X379.559 Y-4.611
X380.47 Y-4.573
X381.381 Y-4.558
X382.293 Y-4.57
X383.204 Y-4.612
X384.112 Y-4.69
X385.016 Y-4.811
X385.912 Y-4.979
X386.796 Y-5.203
X387.663 Y-5.485
X388.508 Y-5.829
X389.323 Y-6.237
X390.103 Y-6.71
X390.84 Y-7.247
X391.529 Y-7.844
X392.161 Y-8.501
X392.732 Y-9.212
X393.237 Y-9.971
X393.674 Y-10.772
X394.043 Y-11.605
X394.351 Y-12.464
X394.603 Y-13.34
X394.807 Y-14.229
X394.971 Y-15.125
X395.101 Y-16.028
X395.204 Y-16.934
X395.285 Y-17.842
X395.348 Y-18.752
X395.396 Y-19.662
X395.434 Y-20.573
X395.463 Y-21.485
X395.485 Y-22.396
X395.502 Y-23.308
X395.515 Y-24.22
X395.525 Y-25.131
X395.532 Y-26.043
X395.538 Y-26.955
X395.542 Y-27.867
X395.548 Y-29.69
X395.552 Y-32.426
X395.554 Y-36.985
X395.555 Y-42.456
Y-42.912
X395.526 Y-43.31
X395.503 Y-43.669
X395.481 Y-44.074
X395.458 Y-44.54
X395.435 Y-45.09
X395.412 Y-45.757
X395.389 Y-46.606
X395.371 Y-47.517
X395.358 Y-48.429
X395.349 Y-49.341
X395.342 Y-50.253
X395.338 Y-51.164
X395.332 Y-52.988
X395.328 Y-55.723
X395.327 Y-61.194
X395.326 Y-92.766
Y-93.678
X395.393 Y-94.587
X395.44 Y-95.498
X395.474 Y-96.409
X395.497 Y-97.32
X395.514 Y-98.232
X395.526 Y-99.144
X395.535 Y-100.056
X395.541 Y-100.967
X395.545 Y-101.879
X395.55 Y-103.703
X395.553 Y-106.438
X395.555 Y-112.821
Y-142.911
Y-143.823
X395.538 Y-144.05
X395.516 Y-144.387
X395.493 Y-144.766
X395.47 Y-145.199
X395.447 Y-145.701
X395.424 Y-146.301
X395.401 Y-147.043
X395.379 Y-147.955
X395.364 Y-148.867
X395.353 Y-149.778
X395.345 Y-150.69
X395.34 Y-151.602
X395.336 Y-152.514
X395.331 Y-154.337
X395.328 Y-157.073
X395.327 Y-163.456
X395.326 Y-193.545
Y-231.614
Y-232.525
X395.323 Y-233.437
X395.315 Y-234.349
X395.297 Y-235.261
X395.263 Y-236.172
X395.207 Y-237.082
X395.122 Y-237.99
X394.997 Y-238.893
X394.825 Y-239.788
X394.601 Y-240.672
X394.32 Y-241.54
X393.975 Y-242.384
X393.566 Y-243.199
X393.093 Y-243.978
X392.554 Y-244.714
X392.004 Y-245.441
X391.378 Y-246.104
X390.686 Y-246.697
X389.936 Y-247.217
X389.141 Y-247.663
X388.311 Y-248.04
X387.454 Y-248.352
X386.579 Y-248.606
X385.69 Y-248.812
X384.793 Y-248.976
X383.891 Y-249.106
X382.985 Y-249.208
X382.076 Y-249.288
X381.167 Y-249.35
X380.256 Y-249.399
X379.345 Y-249.436
X378.434 Y-249.464
X377.522 Y-249.486
X376.611 Y-249.503
X375.699 Y-249.516
X374.787 Y-249.525
X373.875 Y-249.533
X372.964 Y-249.538
X372.052 Y-249.543
X370.228 Y-249.548
X367.493 Y-249.552
X362.934 Y-249.554
X344.697 Y-249.555
X343.785
X343.558 Y-249.538
X343.221 Y-249.516
X342.842 Y-249.493
X342.409 Y-249.47
X341.907 Y-249.447
X341.307 Y-249.424
X340.565 Y-249.401
X340.109 Y-249.39
X338.855 Y-249.367
X337.944 Y-249.355
X337.032 Y-249.347
X336.12 Y-249.341
X335.208 Y-249.337
X333.385 Y-249.332
X330.649 Y-249.328
X324.266 Y-249.327
X294.177 Y-249.326
X243.571
X242.659
X241.75 Y-249.393
X240.839 Y-249.44
X239.928 Y-249.474
X239.016 Y-249.497
X238.105 Y-249.514
X237.193 Y-249.526
X236.281 Y-249.535
X235.37 Y-249.541
X234.458 Y-249.545
X232.634 Y-249.55
X229.899 Y-249.553
X223.516 Y-249.555
X193.426
X192.514
X192.287 Y-249.538
X191.95 Y-249.516
X191.57 Y-249.493
X191.138 Y-249.47
X190.636 Y-249.447
X190.036 Y-249.424
X189.293 Y-249.401
X188.382 Y-249.379
X187.47 Y-249.364
X186.558 Y-249.353
X185.647 Y-249.345
X184.735 Y-249.34
X183.823 Y-249.336
X181.999 Y-249.331
X179.264 Y-249.328
X172.881 Y-249.327
X143.247 Y-249.326
X142.336
X141.426 Y-249.393
X140.516 Y-249.44
X139.604 Y-249.474
X138.693 Y-249.497
X137.781 Y-249.514
X136.869 Y-249.526
X135.958 Y-249.535
X135.046 Y-249.541
X134.134 Y-249.545
X132.31 Y-249.55
X129.575 Y-249.553
X123.192 Y-249.555
X93.103
X92.191
X91.963 Y-249.538
X91.626 Y-249.516
X91.247 Y-249.493
X90.815 Y-249.47
X90.312 Y-249.447
X89.712 Y-249.424
X88.97 Y-249.401
X88.058 Y-249.379
X87.147 Y-249.364
X86.235 Y-249.353
X85.323 Y-249.345
X84.411 Y-249.34
X83.499 Y-249.336
X81.676 Y-249.331
X78.94 Y-249.328
X72.558 Y-249.327
X42.468 Y-249.326
X41.556
X40.647 Y-249.393
X39.736 Y-249.44
X38.825 Y-249.474
X37.913 Y-249.497
X37.002 Y-249.514
X36.09 Y-249.526
X35.178 Y-249.535
X34.266 Y-249.541
X33.355 Y-249.545
X31.531 Y-249.55
X28.796 Y-249.553
X22.413 Y-249.555
X21.501 Y-249.554
X20.589 Y-249.551
X19.677 Y-249.544
X18.766 Y-249.528
X17.855 Y-249.497
X16.944 Y-249.443
X16.036 Y-249.358
X15.133 Y-249.236
X14.236 Y-249.069
X13.351 Y-248.852
X12.482 Y-248.575
X11.651 Y-248.199
X10.895 Y-247.69
X10.23 Y-247.066
X9.658 Y-246.356
X9.174 Y-245.583
X8.769 Y-244.766
X8.432 Y-243.919
X8.153 Y-243.051
X7.937 Y-242.165
X7.774 Y-241.268
X7.651 Y-240.364
X7.556 Y-239.458
X7.483 Y-238.549
X7.426 Y-237.639
X7.381 Y-236.728
X7.346 Y-235.817
X7.318 Y-234.905
X7.296 Y-233.994
X7.278 Y-233.082
X7.264 Y-232.171
X7.253 Y-231.259
X7.245 Y-230.347
X7.238 Y-229.435
X7.233 Y-228.523
X7.225 Y-226.7
X7.22 Y-224.876
X7.217 Y-222.141
X7.214 Y-216.67
Y-212.111
X7.394 Y-211.217
X7.805 Y-210.403
X8.136 Y-209.801
X8.264 Y-209.516
X8.359 Y-209.247
X8.406 Y-209.073
X8.442 Y-208.876
X8.457 Y-208.727
X8.454 Y-208.577
X8.434 Y-208.428
X8.136 Y-207.566
X7.873 Y-206.693
X7.684 Y-205.801
X7.548 Y-204.899
X7.451 Y-203.993
X7.382 Y-203.084
X7.333 Y-202.173
X7.298 Y-201.262
X7.273 Y-200.35
X7.256 Y-199.439
X7.244 Y-198.527
X7.235 Y-197.615
X7.229 Y-196.704
X7.224 Y-195.792
X7.219 Y-193.968
X7.215 Y-191.233
X7.214 Y-184.85
Y-180.291
Y-176.644
X7.453 Y-175.764
X7.874 Y-174.955
X8.162 Y-174.409
X8.29 Y-174.11
X8.37 Y-173.875
X8.415 Y-173.693
X8.444 Y-173.519
X8.457 Y-173.369
X8.452 Y-173.219
X8.426 Y-173.071
X8.084 Y-172.226
X7.836 Y-171.349
X7.657 Y-170.455
X7.529 Y-169.552
X7.438 Y-168.645
X7.372 Y-167.735
X7.326 Y-166.825
X7.293 Y-165.913
X7.27 Y-165.002
X7.253 Y-164.09
X7.242 Y-163.178
X7.234 Y-162.267
X7.228 Y-161.355
X7.224 Y-160.443
X7.219 Y-158.619
X7.215 Y-155.884
X7.214 Y-149.501
Y-142.207
X7.211 Y-141.295
X7.19 Y-140.383
X7.132 Y-138.561
X7.104 Y-137.649
X7.08 Y-136.738
X7.06 Y-135.826
X7.044 Y-134.915
X7.03 Y-134.003
X7.02 Y-133.091
X7.012 Y-132.179
X7.005 Y-131.268
X7 Y-130.356
X6.994 Y-128.532
X6.989 Y-125.797
X6.986 Y-121.238
X6.985 Y-95.707
Y-92.06
X6.992 Y-91.148
X7.013 Y-90.236
X7.039 Y-89.325
X7.067 Y-88.413
X7.093 Y-87.502
X7.116 Y-86.59
X7.432 Y-85.735
X7.879 Y-84.94
X8.132 Y-84.471
X8.26 Y-84.179
X8.333 Y-83.968
X8.379 Y-83.79
X8.407 Y-83.629
X8.421 Y-83.479
X8.417 Y-83.329
X8.389 Y-83.182
X8.055 Y-82.334
X7.813 Y-81.454
X7.64 Y-80.559
X7.516 Y-79.656
X7.427 Y-78.748
X7.365 Y-77.839
X7.32 Y-76.928
X7.289 Y-76.017
X7.267 Y-75.105
X7.251 Y-74.193
X7.24 Y-73.282
X7.232 Y-72.37
X7.227 Y-71.458
X7.223 Y-70.546
X7.218 Y-68.723
X7.215 Y-65.987
X7.214 Y-58.693
Y-51.398
X7.467 Y-50.522
X7.888 Y-49.714
X8.167 Y-49.182
X8.295 Y-48.88
X8.371 Y-48.653
X8.416 Y-48.47
X8.444 Y-48.301
X8.456 Y-48.151
X8.451 Y-48.001
X8.424 Y-47.854
X8.083 Y-47.008
X7.835 Y-46.131
X7.656 Y-45.237
X7.529 Y-44.334
X7.437 Y-43.427
X7.372 Y-42.517
X7.326 Y-41.606
X7.289 Y-40.695
X7.199 Y-38.874
X7.158 Y-37.963
X7.123 Y-37.052
X7.093 Y-36.141
X7.069 Y-35.229
X7.05 Y-34.317
X7.035 Y-33.406
X7.023 Y-32.494
X7.014 Y-31.582
X7.007 Y-30.67
X7.001 Y-29.759
X6.997 Y-28.847
X6.992 Y-27.023
X6.988 Y-24.288
Y-23.376
X6.989 Y-22.464
X6.993 Y-21.552
X7.003 Y-20.641
X7.022 Y-19.729
X7.057 Y-18.818
X7.114 Y-17.908
X7.201 Y-17
X7.33 Y-16.098
X7.51 Y-15.204
X7.748 Y-14.323
X8.054 Y-13.465
X8.436 Y-12.637
X8.895 Y-11.849
X9.437 Y-11.115
X10.056 Y-10.446
X10.746 Y-9.85
X11.497 Y-9.333
X12.295 Y-8.891
X13.128 Y-8.52
X13.986 Y-8.213
X14.862 Y-7.961
X15.751 Y-7.757
X16.648 Y-7.593
X17.55 Y-7.462
X18.456 Y-7.358
X19.364 Y-7.276
X20.274 Y-7.211
X21.184 Y-7.16
X22.095 Y-7.12
X23.007 Y-7.089
X23.918 Y-7.072
X24.83 Y-7.073
X25.742 Y-7.085
X26.653 Y-7.102
X28.477 Y-7.137
X29.388 Y-7.152
X30.3 Y-7.165
X31.212 Y-7.175
X32.124 Y-7.184
X33.035 Y-7.191
X33.947 Y-7.196
X35.771 Y-7.204
X37.594 Y-7.208
X38.506 Y-7.209
X42.154 Y-7.212
X53.095 Y-7.214
X59.478
X60.343 Y-7.502
X61.149 Y-7.928
X61.554 Y-8.137
X61.842 Y-8.265
X62.098 Y-8.355
X62.273 Y-8.402
X62.463 Y-8.436
X62.612 Y-8.45
X62.762 Y-8.447
X62.91 Y-8.425
X63.756 Y-8.083
X64.633 Y-7.835
X65.527 Y-7.657
X66.43 Y-7.529
X67.337 Y-7.437
X68.247 Y-7.372
X69.157 Y-7.326
X70.069 Y-7.293
X70.98 Y-7.27
X71.892 Y-7.253
X72.804 Y-7.242
X73.715 Y-7.234
X74.627 Y-7.224
X75.539 Y-7.198
X77.361 Y-7.135
X78.273 Y-7.107
X79.184 Y-7.082
X80.096 Y-7.061
X81.007 Y-7.044
X81.919 Y-7.031
X82.831 Y-7.02
X83.742 Y-7.012
X84.654 Y-7.005
X85.566 Y-7
X87.39 Y-6.994
X88.301 Y-6.991
X91.037 Y-6.988
X96.508 Y-6.985
X123.862
X124.774 Y-6.993
X125.686 Y-7.014
X126.597 Y-7.041
X127.508 Y-7.068
X128.42 Y-7.094
X129.331 Y-7.117
X130.243 Y-7.137
X131.155 Y-7.154
X132.066 Y-7.167
X132.978 Y-7.178
X133.89 Y-7.186
X134.802 Y-7.193
X135.713 Y-7.198
X137.537 Y-7.205
X138.449 Y-7.207
X141.184 Y-7.211
X144.832 Y-7.213
X145.691 Y-7.516
X146.495 Y-7.947
X146.901 Y-8.155
X147.199 Y-8.283
X147.423 Y-8.359
X147.604 Y-8.404
X147.772 Y-8.432
X147.921 Y-8.445
X148.071 Y-8.44
X148.219 Y-8.414
X149.066 Y-8.075
X149.944 Y-7.829
X150.838 Y-7.653
X151.741 Y-7.526
X152.648 Y-7.435
X153.558 Y-7.371
X154.469 Y-7.325
X155.38 Y-7.292
X156.291 Y-7.269
X157.203 Y-7.253
X158.115 Y-7.241
X159.027 Y-7.233
X159.938 Y-7.228
X160.85 Y-7.223
X162.674 Y-7.219
X165.409 Y-7.215
X171.792 Y-7.214
X174.527
X175.439 Y-7.209
X176.351 Y-7.187
X178.173 Y-7.129
X179.085 Y-7.102
X179.996 Y-7.079
X180.908 Y-7.059
X181.82 Y-7.043
X182.731 Y-7.029
X183.643 Y-7.019
X184.555 Y-7.011
X185.467 Y-7.005
X186.378 Y-7
X188.202 Y-6.993
X190.937 Y-6.988
X195.497 Y-6.986
X222.851 Y-6.985
X224.675
X225.586 Y-6.994
X226.498 Y-7.015
X227.409 Y-7.042
X228.321 Y-7.069
X229.232 Y-7.095
X230.144 Y-7.118
X231.055 Y-7.138
X231.967 Y-7.154
X232.879 Y-7.167
X233.79 Y-7.178
X234.702 Y-7.186
X235.614 Y-7.193
X236.526 Y-7.198
X238.349 Y-7.205
X240.173 Y-7.209
X243.82 Y-7.212
X245.644 Y-7.213
X246.552 Y-7.299
X247.376 Y-7.688
X247.773 Y-7.912
X248.244 Y-8.158
X248.546 Y-8.287
X248.749 Y-8.354
X248.933 Y-8.399
X249.088 Y-8.425
X249.238 Y-8.437
X249.388 Y-8.431
X249.535 Y-8.402
X250.383 Y-8.067
X251.262 Y-7.824
X252.156 Y-7.648
X253.06 Y-7.523
X253.967 Y-7.433
X254.877 Y-7.369
X255.787 Y-7.324
X256.698 Y-7.292
X257.61 Y-7.269
X258.522 Y-7.253
X259.433 Y-7.241
X260.345 Y-7.233
X261.257 Y-7.227
X262.169 Y-7.223
X263.992 Y-7.218
X266.728 Y-7.215
X273.111 Y-7.214
X274.934
X275.846 Y-7.21
X276.758 Y-7.188
X278.58 Y-7.13
X279.492 Y-7.103
X280.403 Y-7.079
X281.315 Y-7.059
X282.226 Y-7.043
X283.138 Y-7.03
X284.05 Y-7.019
X284.962 Y-7.011
X285.873 Y-7.005
X286.785 Y-7
X288.609 Y-6.993
X291.344 Y-6.988
X295.903 Y-6.986
X322.346 Y-6.985
X325.081
X325.993 Y-6.993
X326.905 Y-7.014
X327.816 Y-7.041
X328.728 Y-7.068
X329.639 Y-7.094
X330.551 Y-7.117
X331.462 Y-7.137
X332.314 Y-7.461
X333.11 Y-7.907
X333.513 Y-8.12
X333.799 Y-8.249
X334.025 Y-8.329
X334.2 Y-8.375
X334.372 Y-8.407
X334.522 Y-8.422
X334.672 Y-8.418
X334.819 Y-8.392
X335.668 Y-8.058
X336.547 Y-7.816
X337.442 Y-7.642
X338.345 Y-7.518
X339.253 Y-7.429
X340.162 Y-7.366
X341.073 Y-7.321
X341.984 Y-7.29
X342.896 Y-7.267
X343.807 Y-7.252
X344.719 Y-7.24
X345.631 Y-7.232
X346.543 Y-7.227
X347.454 Y-7.223
X349.278 Y-7.218
X352.014 Y-7.215
X359.308 Y-7.214
X375.721
X376.632 Y-7.212
X377.544 Y-7.193
X378.456 Y-7.169
X379.367 Y-7.149
X380.279 Y-7.141
X381.191 Y-7.152
X382.102 Y-7.19
X383.011 Y-7.261
X383.915 Y-7.377
X384.811 Y-7.548
X385.693 Y-7.78
X386.553 Y-8.082
X387.382 Y-8.462
X388.17 Y-8.921
X388.903 Y-9.463
X389.572 Y-10.083
X390.166 Y-10.774
X390.682 Y-11.526
X391.121 Y-12.325
X391.49 Y-13.159
X391.795 Y-14.018
X392.045 Y-14.895
X392.248 Y-15.784
X392.411 Y-16.681
X392.541 Y-17.584
X392.644 Y-18.49
X392.726 Y-19.398
X392.791 Y-20.307
X392.841 Y-21.218
X392.881 Y-22.129
X392.911 Y-23.04
X392.935 Y-23.951
X392.954 Y-24.863
X392.968 Y-25.775
X392.979 Y-26.687
X392.988 Y-27.598
X392.994 Y-28.51
X392.999 Y-29.422
X393.006 Y-31.245
X393.011 Y-33.981
X393.014 Y-37.628
Y-40.364
X393.001 Y-41.275
X392.978 Y-42.187
X392.653 Y-43.039
X392.19 Y-43.824
X391.917 Y-44.305
X391.789 Y-44.579
X391.704 Y-44.808
X391.657 Y-44.975
X391.622 Y-45.152
X391.605 Y-45.301
X391.606 Y-45.451
X391.632 Y-45.599
X391.965 Y-46.447
X392.205 Y-47.327
X392.377 Y-48.222
X392.498 Y-49.126
X392.584 Y-50.034
X392.644 Y-50.944
X392.687 Y-51.854
X392.717 Y-52.766
X392.738 Y-53.677
X392.752 Y-54.589
X392.763 Y-55.501
X392.77 Y-56.413
X392.775 Y-57.324
X392.778 Y-58.236
X392.782 Y-60.06
X392.785 Y-62.795
X392.786 Y-71.002
Y-77.384
X392.535 Y-78.261
X392.113 Y-79.069
X391.834 Y-79.602
X391.705 Y-79.904
X391.629 Y-80.132
X391.584 Y-80.315
X391.556 Y-80.485
X391.544 Y-80.634
X391.549 Y-80.784
X391.576 Y-80.932
X391.917 Y-81.777
X392.165 Y-82.655
X392.343 Y-83.549
X392.471 Y-84.452
X392.563 Y-85.359
X392.628 Y-86.268
X392.674 Y-87.179
X392.707 Y-88.09
X392.73 Y-89.002
X392.747 Y-89.913
X392.77 Y-91.737
X392.797 Y-92.648
X392.862 Y-94.471
X392.891 Y-95.382
X392.916 Y-96.294
X392.938 Y-97.205
X392.955 Y-98.117
X392.969 Y-99.029
X392.979 Y-99.94
X392.988 Y-100.852
X392.994 Y-101.764
X393 Y-102.676
X393.006 Y-104.499
X393.01 Y-106.323
X393.011 Y-107.235
X393.014 Y-110.882
X393.015 Y-124.559
Y-140.972
X393.007 Y-141.884
X392.987 Y-142.795
X392.96 Y-143.707
X392.933 Y-144.618
X392.907 Y-145.529
X392.883 Y-146.441
X392.864 Y-147.353
X392.847 Y-148.264
X392.834 Y-149.176
X392.823 Y-150.088
X392.814 Y-150.999
X392.808 Y-151.911
X392.803 Y-152.823
X392.796 Y-154.647
X392.792 Y-156.47
X392.79 Y-157.382
X392.788 Y-161.029
X392.787 Y-167.412
X392.486 Y-168.273
X392.055 Y-169.077
X391.82 Y-169.536
X391.692 Y-169.848
X391.63 Y-170.04
X391.586 Y-170.229
X391.563 Y-170.377
X391.553 Y-170.527
X391.559 Y-170.676
X391.59 Y-170.823
X391.927 Y-171.67
X392.172 Y-172.549
X392.349 Y-173.443
X392.475 Y-174.346
X392.565 Y-175.254
X392.63 Y-176.163
X392.675 Y-177.074
X392.708 Y-177.985
X392.731 Y-178.896
X392.747 Y-179.808
X392.759 Y-180.72
X392.767 Y-181.632
X392.772 Y-182.543
X392.777 Y-183.455
X392.781 Y-185.279
X392.785 Y-188.014
X392.786 Y-194.397
Y-202.603
X392.532 Y-203.479
X392.111 Y-204.288
X391.833 Y-204.818
X391.704 Y-205.121
X391.629 Y-205.347
X391.584 Y-205.531
X391.556 Y-205.699
X391.544 Y-205.849
X391.549 Y-205.999
X391.576 Y-206.146
X391.917 Y-206.992
X392.165 Y-207.869
X392.344 Y-208.763
X392.471 Y-209.666
X392.563 Y-210.573
X392.628 Y-211.483
X392.674 Y-212.394
X392.707 Y-213.305
X392.73 Y-214.216
X392.747 Y-215.128
X392.758 Y-216.04
X392.767 Y-216.952
X392.772 Y-217.863
X392.776 Y-218.775
X392.781 Y-220.599
X392.785 Y-223.334
X392.786 Y-229.717
Y-230.629
X392.784 Y-231.54
X392.779 Y-232.452
X392.769 Y-233.364
X392.749 Y-234.276
X392.713 Y-235.187
X392.655 Y-236.097
X392.565 Y-237.004
X392.432 Y-237.906
X392.248 Y-238.799
X392.004 Y-239.678
X391.688 Y-240.533
X391.304 Y-241.36
X390.857 Y-242.155
X390.329 Y-242.898
X389.72 Y-243.576
X389.034 Y-244.178
X388.286 Y-244.699
X387.489 Y-245.141
X386.655 Y-245.511
X385.796 Y-245.816
X384.919 Y-246.064
X384.029 Y-246.265
X383.131 Y-246.425
X382.229 Y-246.553
X381.323 Y-246.655
X380.414 Y-246.735
X379.505 Y-246.797
X378.594 Y-246.847
X377.683 Y-246.885
X376.772 Y-246.915
X375.86 Y-246.938
X374.949 Y-246.956
X374.037 Y-246.97
X373.125 Y-246.98
X372.213 Y-246.989
X371.302 Y-246.995
X370.39 Y-247
X368.566 Y-247.006
X365.831 Y-247.011
X361.272 Y-247.014
X346.683 Y-247.015
X345.771 Y-247.008
X344.859 Y-246.988
X343.948 Y-246.962
X343.036 Y-246.934
X342.125 Y-246.908
X341.213 Y-246.885
X340.758 Y-246.875
X339.868 Y-246.675
X339.061 Y-246.25
X338.47 Y-245.909
X338.2 Y-245.782
X337.92 Y-245.675
X337.756 Y-245.628
X337.553 Y-245.586
X337.404 Y-245.568
X337.254 Y-245.569
X337.105 Y-245.584
X336.24 Y-245.873
X335.366 Y-246.134
X334.474 Y-246.322
X333.572 Y-246.457
X332.665 Y-246.553
X331.756 Y-246.621
X330.846 Y-246.67
X329.934 Y-246.704
X329.023 Y-246.728
X328.111 Y-246.745
X327.2 Y-246.757
X326.288 Y-246.766
X325.376 Y-246.772
X324.464 Y-246.776
X322.641 Y-246.781
X319.905 Y-246.785
X313.522 Y-246.786
X277.05
X255.166
X254.307 Y-246.483
X253.503 Y-246.051
X253.097 Y-245.844
X252.798 Y-245.716
X252.576 Y-245.641
X252.394 Y-245.595
X252.228 Y-245.568
X252.078 Y-245.555
X251.928 Y-245.56
X251.781 Y-245.587
X250.934 Y-245.925
X250.056 Y-246.171
X249.161 Y-246.348
X248.258 Y-246.474
X247.351 Y-246.565
X246.442 Y-246.629
X245.531 Y-246.675
X244.62 Y-246.711
X242.798 Y-246.8
X241.887 Y-246.84
X240.976 Y-246.876
X240.065 Y-246.906
X239.154 Y-246.93
X238.242 Y-246.949
X237.33 Y-246.965
X236.418 Y-246.977
X235.507 Y-246.986
X234.595 Y-246.993
X233.683 Y-246.999
X232.771 Y-247.003
X230.948 Y-247.008
X228.212 Y-247.012
X227.3 Y-247.013
X220.918 Y-247.015
X195.387
X194.475 Y-247.008
X193.564 Y-246.987
X192.652 Y-246.961
X191.741 Y-246.934
X190.829 Y-246.907
X189.918 Y-246.884
X189.006 Y-246.864
X188.095 Y-246.847
X187.183 Y-246.834
X186.271 Y-246.823
X185.359 Y-246.815
X184.448 Y-246.808
X183.536 Y-246.803
X181.712 Y-246.796
X179.889 Y-246.792
X177.153 Y-246.789
X170.77 Y-246.787
X154.358 Y-246.786
X153.45 Y-246.701
X152.625 Y-246.313
X152.228 Y-246.089
X151.757 Y-245.842
X151.455 Y-245.714
X151.251 Y-245.646
X151.067 Y-245.601
X150.912 Y-245.575
X150.762 Y-245.563
X150.613 Y-245.569
X150.465 Y-245.598
X149.617 Y-245.933
X148.739 Y-246.176
X147.844 Y-246.352
X146.941 Y-246.477
X146.033 Y-246.567
X145.124 Y-246.631
X144.213 Y-246.681
X143.303 Y-246.735
X142.393 Y-246.787
X141.482 Y-246.832
X140.571 Y-246.87
X139.66 Y-246.902
X138.748 Y-246.927
X137.837 Y-246.948
X136.925 Y-246.964
X136.013 Y-246.976
X135.102 Y-246.986
X134.19 Y-246.993
X133.278 Y-246.998
X132.366 Y-247.003
X130.543 Y-247.008
X127.807 Y-247.012
X126.895 Y-247.013
X120.513 Y-247.015
X94.982
X94.07 Y-247.006
X93.159 Y-246.985
X92.247 Y-246.959
X91.336 Y-246.931
X90.424 Y-246.905
X89.513 Y-246.882
X88.601 Y-246.862
X87.69 Y-246.846
X86.778 Y-246.833
X85.866 Y-246.822
X84.954 Y-246.814
X84.043 Y-246.807
X83.131 Y-246.802
X81.307 Y-246.795
X79.484 Y-246.791
X76.748 Y-246.788
X70.365 Y-246.787
X68.542
X67.684 Y-246.476
X66.882 Y-246.043
X66.476 Y-245.837
X66.172 Y-245.708
X65.964 Y-245.639
X65.78 Y-245.594
X65.622 Y-245.568
X65.472 Y-245.557
X65.322 Y-245.562
X65.175 Y-245.591
X64.328 Y-245.928
X63.45 Y-246.173
X62.555 Y-246.349
X61.652 Y-246.475
X60.745 Y-246.566
X59.835 Y-246.63
X58.924 Y-246.676
X58.013 Y-246.708
X57.102 Y-246.731
X56.19 Y-246.747
X55.278 Y-246.759
X54.366 Y-246.767
X53.455 Y-246.773
X52.543 Y-246.777
X50.719 Y-246.781
X47.984 Y-246.785
X44.337 Y-246.786
X43.425 Y-246.791
X42.513 Y-246.813
X40.69 Y-246.871
X39.779 Y-246.898
X38.868 Y-246.921
X37.956 Y-246.941
X37.044 Y-246.958
X36.133 Y-246.971
X35.221 Y-246.981
X34.309 Y-246.989
X33.397 Y-246.995
X32.485 Y-247
X30.662 Y-247.007
X27.926 Y-247.012
X27.015
X24.279 Y-247.014
X23.367
X22.456 Y-247.012
X21.544 Y-247.008
X20.632 Y-246.998
X19.72 Y-246.979
X18.809 Y-246.944
X17.899 Y-246.887
X16.992 Y-246.799
X16.089 Y-246.669
X15.197 Y-246.479
X14.341 Y-246.166
X13.552 Y-245.709
X12.852 Y-245.124
X12.249 Y-244.441
X11.741 Y-243.683
X11.326 Y-242.871
X10.992 Y-242.023
X10.727 Y-241.151
X10.517 Y-240.263
X10.351 Y-239.367
X10.222 Y-238.464
X10.12 Y-237.558
X10.041 Y-236.65
X9.979 Y-235.74
X9.93 Y-234.829
X9.892 Y-233.918
X9.862 Y-233.007
X9.838 Y-232.096
X9.82 Y-231.184
X9.805 Y-230.272
X9.794 Y-229.361
X9.785 Y-228.449
X9.778 Y-227.537
X9.773 Y-226.625
X9.765 Y-224.802
X9.761 Y-222.978
X9.757 Y-220.242
X9.754 Y-214.772
X9.844 Y-213.864
X10.03 Y-212.972
X10.256 Y-212.088
X10.468 Y-211.201
X10.575 Y-210.566
X10.621 Y-210.037
X10.626 Y-209.308
X10.558 Y-208.399
X10.447 Y-207.494
X10.331 Y-206.59
X10.223 Y-205.684
X10.128 Y-204.777
X10.048 Y-203.869
X9.983 Y-202.959
X9.931 Y-202.049
X9.89 Y-201.138
X9.857 Y-200.227
X9.832 Y-199.316
X9.813 Y-198.404
X9.798 Y-197.492
X9.787 Y-196.58
X9.778 Y-195.669
X9.772 Y-194.757
X9.767 Y-193.845
X9.761 Y-192.021
X9.757 Y-189.286
X9.754 Y-184.727
Y-180.168
X9.755 Y-179.256
X9.87 Y-178.352
X10.069 Y-177.462
X10.296 Y-176.579
X10.502 Y-175.691
X10.589 Y-175.102
X10.621 Y-174.614
X10.611 Y-173.85
X10.525 Y-172.943
X10.297 Y-171.133
X10.193 Y-170.227
X10.103 Y-169.32
X10.028 Y-168.411
X9.967 Y-167.502
X9.918 Y-166.591
X9.879 Y-165.68
X9.849 Y-164.769
X9.826 Y-163.857
X9.808 Y-162.946
X9.794 Y-162.034
X9.784 Y-161.122
X9.776 Y-160.21
X9.771 Y-159.299
X9.766 Y-158.387
X9.76 Y-156.563
X9.756 Y-153.828
X9.754 Y-149.269
X9.753 Y-143.798
X9.749 Y-142.886
X9.738 Y-141.974
X9.722 Y-141.062
X9.702 Y-140.151
X9.659 Y-138.328
X9.639 Y-137.416
X9.62 Y-136.505
X9.604 Y-135.593
X9.589 Y-134.681
X9.577 Y-133.769
X9.567 Y-132.858
X9.558 Y-131.946
X9.551 Y-131.034
X9.546 Y-130.122
X9.538 Y-128.299
X9.533 Y-126.475
X9.528 Y-123.74
X9.526 Y-119.181
X9.525 Y-109.151
Y-94.562
X9.526 Y-93.65
X9.532 Y-92.738
X9.544 Y-91.826
X9.56 Y-90.915
X9.579 Y-90.003
X9.634 Y-89.093
X9.802 Y-88.197
X10.035 Y-87.315
X10.278 Y-86.436
X10.449 Y-85.692
X10.53 Y-85.146
X10.562 Y-84.652
X10.549 Y-83.781
X10.463 Y-82.874
X10.249 Y-81.063
X10.153 Y-80.156
X10.07 Y-79.248
X10.001 Y-78.339
X9.945 Y-77.429
X9.901 Y-76.518
X9.866 Y-75.607
X9.839 Y-74.695
X9.818 Y-73.784
X9.802 Y-72.872
X9.79 Y-71.96
X9.781 Y-71.049
X9.774 Y-70.137
X9.769 Y-69.225
X9.762 Y-67.401
X9.758 Y-65.578
X9.755 Y-61.93
X9.754 Y-59.195
Y-54.636
X9.79 Y-53.725
X9.939 Y-52.825
X10.152 Y-51.939
X10.376 Y-51.055
X10.533 Y-50.302
X10.601 Y-49.757
X10.624 Y-49.246
X10.591 Y-48.335
X10.491 Y-47.428
X10.375 Y-46.524
X10.262 Y-45.619
X10.162 Y-44.713
X10.076 Y-43.805
X10.005 Y-42.896
X9.941 Y-41.986
X9.883 Y-41.076
X9.83 Y-40.166
X9.781 Y-39.256
X9.739 Y-38.345
X9.701 Y-37.434
X9.669 Y-36.523
X9.641 Y-35.611
X9.618 Y-34.7
X9.6 Y-33.788
X9.584 Y-32.876
X9.572 Y-31.965
X9.562 Y-31.053
X9.554 Y-30.141
X9.547 Y-29.229
X9.542 Y-28.317
X9.535 Y-26.494
X9.533 Y-25.582
X9.532 Y-24.67
Y-23.758
X9.535 Y-22.847
X9.544 Y-21.935
X9.561 Y-21.023
X9.592 Y-20.112
X9.644 Y-19.202
X9.726 Y-18.293
X9.849 Y-17.39
X10.03 Y-16.496
X10.282 Y-15.62
X10.625 Y-14.775
X11.068 Y-13.978
X11.618 Y-13.251
X12.26 Y-12.604
X12.98 Y-12.044
X13.758 Y-11.569
X14.579 Y-11.172
X15.43 Y-10.845
X16.302 Y-10.577
X17.187 Y-10.36
X18.082 Y-10.186
X18.983 Y-10.046
X19.888 Y-9.934
X20.796 Y-9.846
X21.705 Y-9.778
X22.616 Y-9.73
X23.527 Y-9.7
X24.439 Y-9.683
X25.351 Y-9.676
X26.262
X27.174 Y-9.681
X28.086 Y-9.688
X30.821 Y-9.712
X32.645 Y-9.725
X34.468 Y-9.735
X36.292 Y-9.742
X39.028 Y-9.748
X42.675 Y-9.752
X49.969 Y-9.753
X56.352 Y-9.754
X57.262 Y-9.816
X58.158 Y-9.983
X59.929 Y-10.42
X60.625 Y-10.551
X61.128 Y-10.604
X61.675 Y-10.619
X62.586 Y-10.569
X63.492 Y-10.466
X64.396 Y-10.351
X65.302 Y-10.241
X66.208 Y-10.144
X67.116 Y-10.061
X68.026 Y-9.994
X68.936 Y-9.939
X69.847 Y-9.896
X70.758 Y-9.862
X71.669 Y-9.836
X72.581 Y-9.814
X73.492 Y-9.791
X74.404 Y-9.765
X76.226 Y-9.71
X77.138 Y-9.683
X78.049 Y-9.659
X78.961 Y-9.636
X79.872 Y-9.617
X80.784 Y-9.6
X81.696 Y-9.585
X82.608 Y-9.573
X83.519 Y-9.563
X84.431 Y-9.555
X85.343 Y-9.549
X86.255 Y-9.544
X88.078 Y-9.536
X89.902 Y-9.532
X92.637 Y-9.528
X98.108 Y-9.526
X114.521 Y-9.525
X121.815
X122.727 Y-9.529
X123.639 Y-9.538
X124.551 Y-9.552
X125.462 Y-9.57
X128.197 Y-9.631
X129.109 Y-9.65
X130.02 Y-9.667
X130.932 Y-9.683
X131.844 Y-9.696
X132.755 Y-9.707
X133.667 Y-9.716
X134.579 Y-9.724
X135.491 Y-9.73
X137.314 Y-9.739
X139.138 Y-9.745
X141.873 Y-9.75
X142.781 Y-9.842
X143.674 Y-10.027
X144.557 Y-10.251
X145.444 Y-10.462
X146.069 Y-10.566
X146.561 Y-10.607
X147.231 Y-10.609
X148.14 Y-10.539
X149.045 Y-10.43
X149.95 Y-10.316
X150.855 Y-10.21
X151.763 Y-10.117
X152.671 Y-10.04
X153.581 Y-9.977
X154.491 Y-9.926
X155.402 Y-9.886
X156.313 Y-9.854
X157.225 Y-9.83
X158.136 Y-9.811
X159.048 Y-9.797
X159.96 Y-9.786
X160.872 Y-9.778
X161.783 Y-9.772
X162.695 Y-9.767
X164.519 Y-9.761
X167.254 Y-9.757
X172.725 Y-9.753
X173.637 Y-9.75
X174.549 Y-9.74
X175.46 Y-9.724
X176.372 Y-9.705
X179.107 Y-9.642
X180.018 Y-9.623
X180.93 Y-9.606
X181.842 Y-9.591
X182.753 Y-9.579
X183.665 Y-9.568
X184.577 Y-9.559
X185.489 Y-9.552
X186.401 Y-9.546
X188.224 Y-9.538
X190.048 Y-9.533
X192.783 Y-9.529
X197.342 Y-9.526
X214.667 Y-9.525
X221.961
X222.873 Y-9.526
X223.785 Y-9.531
X224.697 Y-9.542
X225.608 Y-9.558
X226.52 Y-9.576
X229.255 Y-9.637
X230.166 Y-9.656
X231.078 Y-9.672
X231.99 Y-9.687
X232.901 Y-9.699
X233.813 Y-9.71
X234.725 Y-9.718
X235.637 Y-9.726
X236.548 Y-9.731
X238.372 Y-9.74
X240.196 Y-9.745
X242.931 Y-9.75
X243.842 Y-9.801
X244.739 Y-9.963
X245.624 Y-10.181
X246.509 Y-10.4
X247.208 Y-10.533
X247.724 Y-10.589
X248.277 Y-10.604
X249.188 Y-10.556
X250.094 Y-10.456
X250.999 Y-10.343
X251.904 Y-10.235
X252.811 Y-10.139
X253.719 Y-10.058
X254.628 Y-9.991
X255.539 Y-9.937
X256.449 Y-9.895
X257.361 Y-9.861
X258.272 Y-9.835
X259.184 Y-9.815
X260.095 Y-9.8
X261.007 Y-9.788
X261.919 Y-9.779
X262.831 Y-9.773
X263.742 Y-9.768
X264.654 Y-9.764
X266.478 Y-9.759
X269.213 Y-9.756
X272.861 Y-9.754
X273.772 Y-9.752
X274.684 Y-9.744
X275.596 Y-9.731
X276.507 Y-9.712
X279.242 Y-9.648
X280.154 Y-9.629
X281.065 Y-9.611
X281.977 Y-9.596
X282.889 Y-9.582
X283.801 Y-9.571
X284.712 Y-9.562
X285.624 Y-9.554
X286.536 Y-9.548
X287.448 Y-9.543
X289.271 Y-9.536
X291.095 Y-9.532
X293.83 Y-9.528
X299.301 Y-9.526
X314.802 Y-9.525
X323.008
X323.92 Y-9.529
X324.832 Y-9.538
X325.744 Y-9.552
X326.655 Y-9.57
X328.478 Y-9.61
X329.383 Y-9.726
X330.271 Y-9.931
X331.151 Y-10.172
X332.034 Y-10.399
X332.647 Y-10.51
X333.129 Y-10.558
X333.761 Y-10.569
X334.671 Y-10.513
X335.577 Y-10.412
X336.482 Y-10.303
X337.388 Y-10.2
X338.296 Y-10.11
X339.204 Y-10.035
X340.114 Y-9.973
X341.024 Y-9.923
X341.935 Y-9.883
X342.847 Y-9.852
X343.758 Y-9.828
X344.67 Y-9.81
X345.581 Y-9.796
X346.493 Y-9.785
X347.405 Y-9.777
X348.317 Y-9.771
X349.229 Y-9.767
X351.052 Y-9.761
X353.788 Y-9.756
X358.347 Y-9.754
X364.729
X373.847 Y-9.753
X374.759 Y-9.751
X375.671 Y-9.744
X376.583 Y-9.732
X377.495 Y-9.718
X378.406 Y-9.709
X379.318
X380.23 Y-9.725
X381.141 Y-9.766
X382.049 Y-9.845
X382.952 Y-9.974
X383.843 Y-10.168
X384.711 Y-10.445
X385.543 Y-10.819
X386.317 Y-11.301
X387.016 Y-11.886
X387.629 Y-12.561
X388.156 Y-13.306
X388.6 Y-14.102
X388.969 Y-14.936
X389.271 Y-15.796
X389.517 Y-16.674
X389.716 Y-17.564
X389.875 Y-18.462
X390.003 Y-19.365
X390.104 Y-20.271
X390.184 Y-21.179
X390.248 Y-22.089
X390.298 Y-22.999
X390.337 Y-23.91
X390.368 Y-24.821
X390.392 Y-25.733
X390.411 Y-26.644
X390.425 Y-27.556
X390.437 Y-28.468
X390.445 Y-29.38
X390.452 Y-30.291
X390.457 Y-31.203
X390.465 Y-33.027
X390.469 Y-34.85
X390.472 Y-37.586
X390.471 Y-38.498
X390.462 Y-39.409
X390.322 Y-40.31
X390.098 Y-41.194
X389.847 Y-42.071
X389.623 Y-42.934
X389.522 Y-43.51
X389.478 Y-43.983
X389.47 Y-44.668
X389.532 Y-45.578
X389.632 Y-46.484
X389.737 Y-47.39
X389.834 Y-48.297
X389.918 Y-49.205
X389.989 Y-50.114
X390.047 Y-51.024
X390.093 Y-51.934
X390.129 Y-52.846
X390.158 Y-53.757
X390.179 Y-54.668
X390.196 Y-55.58
X390.209 Y-56.492
X390.218 Y-57.404
X390.226 Y-58.315
X390.231 Y-59.227
X390.235 Y-60.139
X390.24 Y-61.963
X390.244 Y-64.698
X390.246 Y-70.169
Y-74.728
X390.132 Y-75.633
X389.935 Y-76.523
X389.708 Y-77.406
X389.502 Y-78.294
X389.413 Y-78.885
X389.38 Y-79.374
X389.389 Y-80.126
X389.473 Y-81.034
X389.586 Y-81.939
X389.7 Y-82.843
X389.805 Y-83.749
X389.895 Y-84.656
X389.971 Y-85.565
X390.032 Y-86.475
X390.081 Y-87.385
X390.12 Y-88.296
X390.151 Y-89.207
X390.207 Y-91.03
X390.296 Y-93.764
X390.323 Y-94.676
X390.348 Y-95.587
X390.37 Y-96.499
X390.389 Y-97.41
X390.405 Y-98.322
X390.419 Y-99.234
X390.43 Y-100.145
X390.44 Y-101.057
X390.447 Y-101.969
X390.453 Y-102.881
X390.462 Y-104.704
X390.467 Y-106.528
X390.471 Y-109.263
X390.474 Y-113.822
X390.475 Y-134.794
Y-138.441
X390.474 Y-139.353
X390.468 Y-140.265
X390.456 Y-141.177
X390.44 Y-142.088
X390.421 Y-143
X390.38 Y-144.823
X390.36 Y-145.735
X390.342 Y-146.646
X390.326 Y-147.558
X390.312 Y-148.47
X390.299 Y-149.382
X390.289 Y-150.293
X390.281 Y-151.205
X390.274 Y-152.117
X390.268 Y-153.029
X390.26 Y-154.852
X390.254 Y-156.676
X390.25 Y-159.411
X390.247 Y-163.97
X390.224 Y-164.882
X390.082 Y-165.783
X389.872 Y-166.67
X389.647 Y-167.553
X389.482 Y-168.326
X389.41 Y-168.881
X389.385 Y-169.392
X389.414 Y-170.303
X389.512 Y-171.21
X389.627 Y-172.114
X389.738 Y-173.019
X389.838 Y-173.926
X389.923 Y-174.833
X389.994 Y-175.742
X390.051 Y-176.652
X390.096 Y-177.563
X390.132 Y-178.474
X390.159 Y-179.386
X390.181 Y-180.297
X390.197 Y-181.209
X390.209 Y-182.121
X390.219 Y-183.032
X390.226 Y-183.944
X390.231 Y-184.856
X390.235 Y-185.768
X390.24 Y-187.591
X390.242 Y-188.503
X390.245 Y-192.15
X390.246 Y-199.445
X390.199 Y-200.356
X390.043 Y-201.254
X389.827 Y-202.14
X389.605 Y-203.024
X389.458 Y-203.756
X389.396 Y-204.284
X389.376 Y-204.806
X389.416 Y-205.717
X389.517 Y-206.623
X389.633 Y-207.527
X389.744 Y-208.432
X389.844 Y-209.338
X389.928 Y-210.246
X389.998 Y-211.155
X390.054 Y-212.066
X390.099 Y-212.976
X390.134 Y-213.887
X390.161 Y-214.799
X390.182 Y-215.71
X390.198 Y-216.622
X390.21 Y-217.534
X390.219 Y-218.446
X390.226 Y-219.357
X390.231 Y-220.269
X390.238 Y-222.093
X390.242 Y-223.916
X390.245 Y-227.564
Y-229.387
X390.243 Y-230.299
X390.238 Y-231.211
X390.228 Y-232.123
X390.21 Y-233.034
X390.176 Y-233.945
X390.121 Y-234.856
X390.035 Y-235.763
X389.904 Y-236.666
X389.714 Y-237.557
X389.455 Y-238.432
X389.113 Y-239.277
X388.671 Y-240.075
X388.122 Y-240.802
X387.479 Y-241.449
X386.757 Y-242.006
X385.976 Y-242.477
X385.153 Y-242.869
X384.3 Y-243.192
X383.427 Y-243.455
X382.54 Y-243.667
X381.645 Y-243.837
X380.743 Y-243.973
X379.838 Y-244.081
X378.93 Y-244.167
X378.02 Y-244.234
X377.11 Y-244.288
X376.199 Y-244.329
X375.288 Y-244.362
X374.377 Y-244.387
X373.465 Y-244.407
X372.553 Y-244.423
X371.642 Y-244.435
X370.73 Y-244.444
X369.818 Y-244.451
X368.906 Y-244.457
X367.083 Y-244.464
X365.259 Y-244.469
X362.524 Y-244.472
X357.053 Y-244.474
X348.846 Y-244.475
X347.935 Y-244.473
X347.023 Y-244.465
X346.111 Y-244.451
X345.199 Y-244.434
X343.376 Y-244.394
X342.473 Y-244.271
X341.586 Y-244.059
X340.708 Y-243.814
X339.824 Y-243.587
X339.212 Y-243.478
X338.686 Y-243.427
X337.965 Y-243.416
X337.055 Y-243.475
X336.149 Y-243.579
X335.244 Y-243.69
X334.338 Y-243.793
X333.431 Y-243.885
X332.522 Y-243.961
X331.613 Y-244.024
X330.702 Y-244.075
X329.792 Y-244.115
X328.88 Y-244.146
X327.969 Y-244.171
X327.057 Y-244.189
X326.145 Y-244.204
X325.234 Y-244.214
X324.322 Y-244.222
X323.41 Y-244.229
X322.498 Y-244.233
X320.675 Y-244.239
X317.939 Y-244.244
X313.38 Y-244.246
X291.497
X258.671
X257.76 Y-244.231
X256.858 Y-244.095
X255.97 Y-243.887
X255.087 Y-243.661
X254.296 Y-243.49
X253.733 Y-243.414
X253.228 Y-243.388
X252.317 Y-243.413
X251.41 Y-243.51
X250.506 Y-243.624
X249.601 Y-243.736
X248.694 Y-243.836
X247.787 Y-243.922
X246.878 Y-243.993
X245.968 Y-244.056
X245.058 Y-244.114
X244.148 Y-244.167
X243.237 Y-244.215
X242.326 Y-244.258
X241.415 Y-244.296
X240.504 Y-244.329
X239.593 Y-244.356
X238.681 Y-244.379
X237.77 Y-244.399
X236.858 Y-244.414
X235.946 Y-244.427
X235.035 Y-244.438
X234.123 Y-244.446
X233.211 Y-244.452
X232.299 Y-244.457
X230.476 Y-244.465
X228.652 Y-244.469
X225.916 Y-244.472
X220.446 Y-244.475
X197.65
X196.738 Y-244.473
X195.827 Y-244.466
X194.915 Y-244.453
X194.003 Y-244.436
X193.092 Y-244.416
X191.269 Y-244.374
X190.357 Y-244.355
X189.445 Y-244.337
X188.534 Y-244.322
X187.622 Y-244.308
X186.71 Y-244.296
X185.798 Y-244.287
X184.887 Y-244.278
X183.975 Y-244.272
X183.063 Y-244.266
X181.239 Y-244.259
X179.416 Y-244.254
X176.68 Y-244.25
X172.121 Y-244.247
X157.532 Y-244.246
X156.621 Y-244.244
X155.716 Y-244.131
X154.825 Y-243.935
X153.942 Y-243.71
X153.068 Y-243.511
X152.488 Y-243.428
X151.988 Y-243.396
X151.174 Y-243.41
X150.267 Y-243.499
X148.457 Y-243.722
X147.55 Y-243.823
X146.643 Y-243.911
X145.734 Y-243.989
X144.825 Y-244.059
X143.916 Y-244.123
X143.006 Y-244.18
X142.095 Y-244.23
X141.184 Y-244.274
X140.273 Y-244.311
X139.362 Y-244.343
X138.451 Y-244.369
X137.539 Y-244.391
X136.628 Y-244.408
X135.716 Y-244.423
X134.804 Y-244.434
X133.892 Y-244.443
X132.98 Y-244.45
X132.069 Y-244.456
X130.245 Y-244.464
X128.421 Y-244.468
X125.686 Y-244.472
X120.215 Y-244.474
X97.42 Y-244.475
X96.508 Y-244.473
X95.596 Y-244.466
X94.685 Y-244.454
X93.773 Y-244.437
X92.861 Y-244.418
X91.038 Y-244.376
X90.126 Y-244.357
X89.215 Y-244.339
X88.303 Y-244.323
X87.391 Y-244.309
X86.48 Y-244.297
X85.568 Y-244.287
X84.656 Y-244.279
X83.744 Y-244.272
X82.833 Y-244.267
X81.009 Y-244.259
X79.185 Y-244.254
X76.45 Y-244.25
X71.891 Y-244.247
X70.98 Y-244.207
X70.081 Y-244.054
X69.195 Y-243.84
X68.31 Y-243.618
X67.58 Y-243.471
X67.046 Y-243.408
X66.518 Y-243.388
X65.607 Y-243.427
X64.701 Y-243.526
X63.796 Y-243.641
X62.891 Y-243.751
X61.985 Y-243.849
X61.077 Y-243.932
X60.167 Y-244.001
X59.257 Y-244.057
X58.346 Y-244.101
X57.435 Y-244.135
X56.524 Y-244.162
X55.612 Y-244.183
X54.701 Y-244.199
X53.789 Y-244.211
X52.877 Y-244.22
X51.965 Y-244.226
X51.054 Y-244.232
X49.23 Y-244.238
X45.583 Y-244.246
X44.671 Y-244.254
X43.759 Y-244.268
X42.848 Y-244.286
X41.024 Y-244.329
X40.113 Y-244.35
X39.201 Y-244.37
X38.29 Y-244.388
X37.378 Y-244.404
X36.466 Y-244.417
X35.555 Y-244.428
X34.643 Y-244.438
X33.731 Y-244.445
X32.819 Y-244.452
X31.907 Y-244.457
X30.084 Y-244.464
X28.26 Y-244.468
X25.525 Y-244.472
X24.613
X23.701 Y-244.471
X22.789 Y-244.467
X21.878 Y-244.457
X20.966 Y-244.439
X20.055 Y-244.407
X19.144 Y-244.353
X18.237 Y-244.267
X17.342 Y-244.09
X16.493 Y-243.757
X15.726 Y-243.265
X15.062 Y-242.639
X14.506 Y-241.917
X14.049 Y-241.128
X13.679 Y-240.295
X13.383 Y-239.432
X13.149 Y-238.551
X12.964 Y-237.658
X12.818 Y-236.758
X12.703 Y-235.854
X12.614 Y-234.946
X12.544 Y-234.037
X12.489 Y-233.127
X12.446 Y-232.216
X12.413 Y-231.305
X12.386 Y-230.393
X12.366 Y-229.482
X12.35 Y-228.57
X12.338 Y-227.658
X12.328 Y-226.747
X12.32 Y-225.835
X12.314 Y-224.923
X12.31 Y-224.011
X12.303 Y-222.188
X12.298 Y-219.452
X12.296 Y-217.629
X12.307 Y-216.717
X12.364 Y-215.807
X12.469 Y-214.901
X12.605 Y-213.999
X12.747 Y-213.099
X12.87 Y-212.195
X12.956 Y-211.288
X12.996 Y-210.377
X12.992 Y-209.465
X12.955 Y-208.554
X12.896 Y-207.644
X12.826 Y-206.735
X12.753 Y-205.826
X12.683 Y-204.917
X12.619 Y-204.007
X12.561 Y-203.097
X12.512 Y-202.187
X12.47 Y-201.276
X12.434 Y-200.365
X12.405 Y-199.453
X12.382 Y-198.542
X12.363 Y-197.63
X12.348 Y-196.719
X12.336 Y-195.807
X12.326 Y-194.895
X12.319 Y-193.983
X12.313 Y-193.072
X12.308 Y-192.16
X12.302 Y-190.336
X12.297 Y-187.601
X12.294 Y-183.042
Y-182.13
X12.31 Y-181.218
X12.376 Y-180.309
X12.488 Y-179.404
X12.627 Y-178.503
X12.768 Y-177.602
X12.885 Y-176.697
X12.962 Y-175.789
X12.989 Y-174.878
X12.975 Y-173.966
X12.931 Y-173.055
X12.869 Y-172.145
X12.727 Y-170.327
X12.659 Y-169.418
X12.597 Y-168.508
X12.543 Y-167.598
X12.496 Y-166.687
X12.457 Y-165.777
X12.424 Y-164.865
X12.397 Y-163.954
X12.375 Y-163.042
X12.357 Y-162.131
X12.343 Y-161.219
X12.332 Y-160.307
X12.323 Y-159.395
X12.316 Y-158.484
X12.311 Y-157.572
X12.304 Y-155.748
X12.299 Y-153.925
X12.296 Y-151.189
X12.293 Y-145.718
X12.291 Y-144.807
X12.286 Y-143.895
X12.277 Y-142.983
X12.265 Y-142.071
X12.25 Y-141.16
X12.216 Y-139.336
X12.181 Y-137.513
X12.165 Y-136.601
X12.15 Y-135.69
X12.137 Y-134.778
X12.125 Y-133.866
X12.114 Y-132.954
X12.106 Y-132.043
X12.098 Y-131.131
X12.092 Y-130.219
X12.082 Y-128.395
X12.076 Y-126.572
X12.07 Y-123.836
X12.067 Y-120.189
Y-119.277
X12.065 Y-109.247
Y-96.482
X12.066 Y-95.57
X12.069 Y-94.658
X12.075 Y-93.747
X12.084 Y-92.835
X12.101 Y-91.923
X12.153 Y-91.013
X12.258 Y-90.107
X12.401 Y-89.207
X12.562 Y-88.309
X12.711 Y-87.41
X12.827 Y-86.505
X12.899 Y-85.596
X12.923 Y-84.685
X12.908 Y-83.773
X12.865 Y-82.862
X12.807 Y-81.952
X12.678 Y-80.133
X12.617 Y-79.223
X12.561 Y-78.313
X12.513 Y-77.403
X12.471 Y-76.492
X12.436 Y-75.581
X12.407 Y-74.669
X12.383 Y-73.758
X12.364 Y-72.846
X12.349 Y-71.935
X12.336 Y-71.023
X12.327 Y-70.111
X12.319 Y-69.199
X12.313 Y-68.288
X12.309 Y-67.376
X12.302 Y-65.552
X12.297 Y-62.817
X12.295 Y-58.258
X12.294 Y-57.346
X12.299 Y-56.434
X12.341 Y-55.523
X12.433 Y-54.616
X12.562 Y-53.713
X12.705 Y-52.813
X12.835 Y-51.91
X12.929 Y-51.003
X12.981 Y-50.093
X12.987 Y-49.181
X12.956 Y-48.27
X12.901 Y-47.36
X12.833 Y-46.45
X12.69 Y-44.632
X12.622 Y-43.723
X12.557 Y-42.814
X12.496 Y-41.904
X12.44 Y-40.994
X12.387 Y-40.084
X12.34 Y-39.173
X12.298 Y-38.262
X12.261 Y-37.351
X12.228 Y-36.44
X12.2 Y-35.528
X12.176 Y-34.617
X12.156 Y-33.705
X12.139 Y-32.794
X12.125 Y-31.882
X12.113 Y-30.97
X12.103 Y-30.059
X12.095 Y-29.147
X12.089 Y-28.235
X12.084 Y-27.323
X12.081 Y-26.411
X12.079 Y-25.5
Y-24.588
X12.083 Y-23.676
X12.093 Y-22.764
X12.114 Y-21.853
X12.15 Y-20.941
X12.21 Y-20.032
X12.311 Y-19.125
X12.471 Y-18.228
X12.728 Y-17.353
X13.111 Y-16.526
X13.624 Y-15.771
X14.249 Y-15.108
X14.961 Y-14.538
X15.738 Y-14.06
X16.559 Y-13.665
X17.412 Y-13.342
X18.286 Y-13.081
X19.173 Y-12.87
X20.069 Y-12.703
X20.972 Y-12.572
X21.878 Y-12.473
X22.787 Y-12.399
X23.697 Y-12.346
X24.608 Y-12.309
X25.52 Y-12.284
X26.431 Y-12.269
X27.343 Y-12.261
X28.255 Y-12.257
X29.167
X30.078 Y-12.259
X32.814 Y-12.269
X35.549 Y-12.278
X38.285 Y-12.285
X41.932 Y-12.29
X47.403 Y-12.293
X53.786
X54.697 Y-12.307
X55.607 Y-12.37
X56.512 Y-12.477
X57.414 Y-12.613
X58.315 Y-12.753
X59.219 Y-12.871
X60.128 Y-12.948
X61.039 Y-12.98
X61.951 Y-12.971
X62.862 Y-12.93
X63.771 Y-12.87
X64.681 Y-12.801
X65.59 Y-12.73
X66.499 Y-12.662
X67.409 Y-12.6
X68.319 Y-12.545
X69.229 Y-12.498
X70.14 Y-12.458
X71.052 Y-12.423
X71.963 Y-12.39
X73.785 Y-12.33
X74.697 Y-12.301
X75.608 Y-12.273
X76.52 Y-12.247
X77.431 Y-12.222
X78.343 Y-12.199
X79.254 Y-12.179
X80.166 Y-12.161
X81.077 Y-12.145
X81.989 Y-12.131
X82.901 Y-12.119
X83.813 Y-12.109
X84.724 Y-12.101
X85.636 Y-12.094
X86.548 Y-12.088
X88.372 Y-12.08
X90.195 Y-12.074
X92.931 Y-12.069
X97.49 Y-12.066
X109.343 Y-12.065
X119.373
X120.285 Y-12.066
X121.197 Y-12.069
X122.109 Y-12.075
X123.02 Y-12.084
X123.932 Y-12.096
X124.844 Y-12.111
X126.667 Y-12.144
X128.49 Y-12.178
X129.402 Y-12.194
X130.314 Y-12.209
X131.226 Y-12.222
X132.137 Y-12.234
X133.049 Y-12.244
X133.961 Y-12.253
X134.873 Y-12.26
X135.784 Y-12.266
X137.608 Y-12.276
X139.432 Y-12.282
X140.343 Y-12.315
X141.251 Y-12.398
X142.155 Y-12.519
X143.055 Y-12.66
X143.957 Y-12.795
X144.863 Y-12.9
X145.773 Y-12.961
X146.684 Y-12.976
X147.596 Y-12.954
X148.506 Y-12.905
X149.416 Y-12.841
X151.234 Y-12.701
X152.144 Y-12.636
X153.054 Y-12.577
X153.964 Y-12.525
X154.875 Y-12.481
X155.786 Y-12.444
X156.697 Y-12.414
X157.609 Y-12.388
X158.52 Y-12.368
X159.432 Y-12.352
X160.344 Y-12.339
X161.255 Y-12.329
X162.167 Y-12.321
X163.079 Y-12.314
X163.991 Y-12.31
X165.814 Y-12.303
X168.55 Y-12.298
X171.285 Y-12.294
X172.197 Y-12.29
X173.109 Y-12.284
X174.021 Y-12.274
X174.932 Y-12.26
X175.844 Y-12.245
X179.491 Y-12.175
X180.402 Y-12.159
X181.314 Y-12.145
X182.226 Y-12.132
X183.137 Y-12.121
X184.049 Y-12.111
X184.961 Y-12.103
X185.873 Y-12.096
X186.785 Y-12.09
X188.608 Y-12.081
X190.432 Y-12.075
X193.167 Y-12.07
X196.814 Y-12.067
X205.933 Y-12.065
X209.58
X220.522
X221.433 Y-12.067
X222.345 Y-12.071
X223.257 Y-12.078
X224.169 Y-12.088
X225.08 Y-12.102
X225.992 Y-12.117
X229.639 Y-12.185
X230.55 Y-12.2
X231.462 Y-12.214
X232.374 Y-12.227
X233.286 Y-12.238
X234.197 Y-12.247
X235.109 Y-12.256
X236.021 Y-12.263
X237.845 Y-12.273
X239.668 Y-12.281
X240.58 Y-12.283
X241.491 Y-12.306
X242.4 Y-12.378
X243.305 Y-12.492
X245.108 Y-12.767
X246.013 Y-12.878
X246.922 Y-12.945
X247.834 Y-12.969
X248.745 Y-12.952
X249.656 Y-12.908
X250.566 Y-12.847
X252.384 Y-12.709
X253.294 Y-12.643
X254.204 Y-12.583
X255.114 Y-12.531
X256.025 Y-12.486
X256.936 Y-12.448
X257.847 Y-12.417
X258.758 Y-12.391
X259.67 Y-12.37
X260.582 Y-12.354
X261.493 Y-12.34
X262.405 Y-12.33
X263.317 Y-12.322
X264.229 Y-12.315
X265.141 Y-12.31
X266.964 Y-12.303
X269.7 Y-12.298
X271.523 Y-12.295
X272.435 Y-12.292
X273.347 Y-12.286
X274.259 Y-12.277
X275.17 Y-12.264
X276.082 Y-12.249
X277.905 Y-12.214
X279.729 Y-12.178
X280.64 Y-12.162
X281.552 Y-12.148
X282.464 Y-12.134
X283.375 Y-12.123
X284.287 Y-12.113
X285.199 Y-12.104
X286.111 Y-12.097
X287.022 Y-12.091
X288.846 Y-12.082
X290.67 Y-12.076
X293.405 Y-12.07
X297.052 Y-12.067
X305.259 Y-12.065
X309.818
X320.759
X321.671 Y-12.066
X322.583 Y-12.069
X323.495 Y-12.076
X324.407 Y-12.086
X325.318 Y-12.098
X326.23 Y-12.119
X327.14 Y-12.181
X328.045 Y-12.292
X328.945 Y-12.437
X329.843 Y-12.595
X330.743 Y-12.74
X331.648 Y-12.85
X332.558 Y-12.911
X333.47 Y-12.926
X334.381 Y-12.904
X335.292 Y-12.858
X336.202 Y-12.798
X338.021 Y-12.668
X338.931 Y-12.607
X339.841 Y-12.553
X340.751 Y-12.505
X341.662 Y-12.465
X342.573 Y-12.431
X343.485 Y-12.403
X344.396 Y-12.38
X345.308 Y-12.361
X346.22 Y-12.347
X347.131 Y-12.335
X348.043 Y-12.325
X348.955 Y-12.318
X349.867 Y-12.312
X350.779 Y-12.308
X352.602 Y-12.302
X355.338 Y-12.297
X359.897 Y-12.294
X371.75
X372.662 Y-12.293
X373.574 Y-12.29
X374.486 Y-12.284
X376.309 Y-12.268
X377.221 Y-12.263
X378.133 Y-12.266
X379.044 Y-12.284
X379.955 Y-12.326
X380.863 Y-12.407
X381.764 Y-12.552
X382.642 Y-12.797
X383.474 Y-13.171
X384.231 Y-13.678
X384.898 Y-14.3
X385.468 Y-15.012
X385.946 Y-15.788
X386.341 Y-16.61
X386.664 Y-17.463
X386.926 Y-18.336
X387.136 Y-19.223
X387.304 Y-20.12
X387.438 Y-21.022
X387.544 Y-21.927
X387.628 Y-22.835
X387.694 Y-23.745
X387.747 Y-24.655
X387.788 Y-25.566
X387.82 Y-26.477
X387.846 Y-27.388
X387.865 Y-28.3
X387.881 Y-29.212
X387.893 Y-30.123
X387.902 Y-31.035
X387.91 Y-31.947
X387.916 Y-32.859
X387.923 Y-34.682
X387.926 Y-35.594
X387.927 Y-36.506
X387.905 Y-37.418
X387.827 Y-38.326
X387.699 Y-39.229
X387.542 Y-40.127
X387.384 Y-41.025
X387.251 Y-41.927
X387.16 Y-42.834
X387.115 Y-43.745
Y-44.657
X387.146 Y-45.568
X387.196 Y-46.479
X387.256 Y-47.388
X387.318 Y-48.298
X387.378 Y-49.208
X387.433 Y-50.118
X387.482 Y-51.029
X387.524 Y-51.939
X387.56 Y-52.851
X387.589 Y-53.762
X387.614 Y-54.673
X387.634 Y-55.585
X387.65 Y-56.497
X387.662 Y-57.408
X387.672 Y-58.32
X387.68 Y-59.232
X387.686 Y-60.144
X387.691 Y-61.056
X387.697 Y-62.879
X387.703 Y-65.615
X387.705 Y-69.262
X387.706 Y-71.997
X387.685 Y-72.909
X387.612 Y-73.818
X387.495 Y-74.722
X387.353 Y-75.623
X387.214 Y-76.524
X387.103 Y-77.429
X387.034 Y-78.338
X387.011 Y-79.25
X387.03 Y-80.161
X387.077 Y-81.072
X387.141 Y-81.981
X387.282 Y-83.8
X387.35 Y-84.709
X387.41 Y-85.619
X387.464 Y-86.529
X387.51 Y-87.44
X387.552 Y-88.35
X387.589 Y-89.261
X387.624 Y-90.173
X387.658 Y-91.084
X387.69 Y-91.995
X387.721 Y-92.906
X387.749 Y-93.818
X387.775 Y-94.729
X387.799 Y-95.641
X387.82 Y-96.552
X387.839 Y-97.464
X387.855 Y-98.375
X387.869 Y-99.287
X387.881 Y-100.199
X387.891 Y-101.111
X387.9 Y-102.022
X387.906 Y-102.934
X387.912 Y-103.846
X387.921 Y-105.67
X387.926 Y-107.493
X387.931 Y-110.229
X387.934 Y-114.788
X387.935 Y-128.465
Y-136.671
X387.934 Y-137.583
X387.93 Y-138.495
X387.924 Y-139.407
X387.914 Y-140.318
X387.901 Y-141.23
X387.886 Y-142.142
X387.819 Y-145.788
X387.803 Y-146.7
X387.789 Y-147.612
X387.776 Y-148.524
X387.765 Y-149.435
X387.755 Y-150.347
X387.746 Y-151.259
X387.739 Y-152.171
X387.733 Y-153.082
X387.724 Y-154.906
X387.717 Y-156.73
X387.712 Y-159.465
X387.71 Y-161.289
X387.705 Y-162.201
X387.666 Y-163.112
X387.577 Y-164.019
X387.45 Y-164.922
X387.308 Y-165.822
X387.177 Y-166.725
X387.082 Y-167.632
X387.028 Y-168.542
X387.02 Y-169.454
X387.049 Y-170.365
X387.103 Y-171.275
X387.169 Y-172.185
X387.24 Y-173.094
X387.31 Y-174.003
X387.374 Y-174.912
X387.432 Y-175.822
X387.483 Y-176.733
X387.526 Y-177.644
X387.562 Y-178.555
X387.591 Y-179.466
X387.615 Y-180.378
X387.635 Y-181.289
X387.651 Y-182.201
X387.663 Y-183.113
X387.673 Y-184.024
X387.681 Y-184.936
X387.687 Y-185.848
X387.691 Y-186.76
X387.698 Y-188.583
X387.703 Y-191.319
X387.705 Y-195.878
X387.706 Y-196.79
X387.698 Y-197.701
X387.647 Y-198.612
X387.549 Y-199.518
X387.417 Y-200.421
X387.274 Y-201.321
X387.149 Y-202.224
X387.061 Y-203.132
X387.017 Y-204.043
X387.018 Y-204.954
X387.053 Y-205.866
X387.11 Y-206.776
X387.178 Y-207.685
X387.25 Y-208.594
X387.319 Y-209.503
X387.383 Y-210.413
X387.44 Y-211.323
X387.49 Y-212.233
X387.532 Y-213.144
X387.567 Y-214.055
X387.595 Y-214.966
X387.619 Y-215.878
X387.638 Y-216.79
X387.653 Y-217.701
X387.665 Y-218.613
X387.674 Y-219.525
X387.682 Y-220.436
X387.687 Y-221.348
X387.692 Y-222.26
X387.698 Y-224.084
X387.702 Y-225.907
X387.703 Y-227.731
X387.702 Y-228.643
X387.699 Y-229.555
X387.693 Y-230.466
X387.68 Y-231.378
X387.656 Y-232.29
X387.615 Y-233.201
X387.546 Y-234.11
X387.434 Y-235.015
X387.26 Y-235.91
X386.991 Y-236.781
X386.593 Y-237.601
X386.065 Y-238.345
X385.428 Y-238.997
X384.706 Y-239.553
X383.921 Y-240.018
X383.094 Y-240.401
X382.237 Y-240.714
X381.361 Y-240.966
X380.472 Y-241.169
X379.575 Y-241.331
X378.672 Y-241.459
X377.766 Y-241.562
X376.858 Y-241.642
X375.948 Y-241.706
X375.038 Y-241.756
X374.127 Y-241.795
X373.215 Y-241.826
X372.304 Y-241.85
X371.392 Y-241.869
X370.481 Y-241.884
X369.569 Y-241.895
X368.657 Y-241.904
X367.745 Y-241.911
X366.834 Y-241.917
X365.01 Y-241.924
X363.186 Y-241.929
X360.451 Y-241.932
X354.98 Y-241.934
X350.421
X349.509 Y-241.932
X348.597 Y-241.927
X347.686 Y-241.919
X346.774 Y-241.908
X345.862 Y-241.893
X344.952 Y-241.842
X344.046 Y-241.739
X343.145 Y-241.597
X342.247 Y-241.438
X341.348 Y-241.286
X340.444 Y-241.166
X339.536 Y-241.089
X338.624 Y-241.058
X337.713 Y-241.069
X336.802 Y-241.109
X335.892 Y-241.166
X334.982 Y-241.232
X334.073 Y-241.298
X333.163 Y-241.362
X332.253 Y-241.42
X331.343 Y-241.472
X330.432 Y-241.516
X329.521 Y-241.553
X328.61 Y-241.584
X327.698 Y-241.61
X326.787 Y-241.63
X325.875 Y-241.647
X324.964 Y-241.66
X324.052 Y-241.67
X323.14 Y-241.679
X322.228 Y-241.685
X321.316 Y-241.69
X319.493 Y-241.697
X316.757 Y-241.702
X313.11 Y-241.705
X302.168 Y-241.706
X286.667
X261.137
X260.225 Y-241.703
X259.314 Y-241.654
X258.408 Y-241.557
X257.505 Y-241.427
X256.604 Y-241.286
X255.701 Y-241.16
X254.794 Y-241.072
X253.883 Y-241.027
X252.971 Y-241.026
X252.06 Y-241.06
X251.15 Y-241.116
X250.241 Y-241.183
X249.332 Y-241.254
X248.423 Y-241.324
X247.513 Y-241.391
X246.604 Y-241.454
X245.694 Y-241.514
X244.784 Y-241.569
X243.873 Y-241.62
X242.963 Y-241.666
X242.052 Y-241.708
X241.141 Y-241.744
X240.229 Y-241.776
X239.318 Y-241.803
X238.406 Y-241.827
X237.495 Y-241.847
X236.583 Y-241.863
X235.671 Y-241.877
X234.76 Y-241.888
X233.848 Y-241.898
X232.936 Y-241.905
X232.024 Y-241.911
X230.201 Y-241.92
X228.377 Y-241.926
X225.642 Y-241.931
X221.083 Y-241.934
X206.494 Y-241.935
X199.199
X198.287 Y-241.933
X197.376 Y-241.928
X196.464 Y-241.92
X195.552 Y-241.908
X194.64 Y-241.894
X193.729 Y-241.878
X190.994 Y-241.827
X190.082 Y-241.811
X189.17 Y-241.796
X188.259 Y-241.782
X187.347 Y-241.77
X186.435 Y-241.759
X185.523 Y-241.75
X184.612 Y-241.742
X183.7 Y-241.736
X181.876 Y-241.725
X180.053 Y-241.719
X177.317 Y-241.712
X173.67 Y-241.709
X166.375 Y-241.707
X159.081 Y-241.706
X158.17 Y-241.668
X157.262 Y-241.581
X156.359 Y-241.457
X155.458 Y-241.316
X154.555 Y-241.186
X153.649 Y-241.091
X152.738 Y-241.038
X151.827 Y-241.031
X150.915 Y-241.06
X150.005 Y-241.112
X149.095 Y-241.177
X148.186 Y-241.247
X147.277 Y-241.319
X146.368 Y-241.389
X145.459 Y-241.457
X144.549 Y-241.52
X143.639 Y-241.578
X142.729 Y-241.631
X141.818 Y-241.678
X140.908 Y-241.72
X139.996 Y-241.756
X139.085 Y-241.787
X138.174 Y-241.814
X137.262 Y-241.836
X136.351 Y-241.855
X135.439 Y-241.871
X134.527 Y-241.883
X133.615 Y-241.894
X132.704 Y-241.902
X131.792 Y-241.909
X130.88 Y-241.915
X129.057 Y-241.922
X127.233 Y-241.927
X124.497 Y-241.931
X119.938 Y-241.934
X100.79 Y-241.935
X98.967
X98.055 Y-241.933
X97.143 Y-241.928
X96.231 Y-241.92
X95.32 Y-241.909
X94.408 Y-241.896
X93.496 Y-241.88
X90.761 Y-241.828
X89.85 Y-241.812
X88.938 Y-241.797
X88.026 Y-241.783
X87.114 Y-241.771
X86.203 Y-241.76
X85.291 Y-241.751
X84.379 Y-241.743
X83.467 Y-241.736
X81.644 Y-241.726
X79.82 Y-241.719
X77.085 Y-241.713
X74.349 Y-241.709
X73.438 Y-241.697
X72.528 Y-241.637
X71.622 Y-241.532
X70.72 Y-241.397
X69.819 Y-241.258
X68.915 Y-241.139
X68.007 Y-241.06
X67.095 Y-241.026
X66.184 Y-241.034
X65.273 Y-241.073
X64.363 Y-241.132
X63.454 Y-241.2
X62.544 Y-241.27
X61.635 Y-241.338
X60.725 Y-241.4
X59.815 Y-241.454
X58.905 Y-241.502
X57.994 Y-241.542
X57.082 Y-241.575
X56.171 Y-241.602
X55.26 Y-241.624
X54.348 Y-241.642
X53.436 Y-241.656
X52.524 Y-241.667
X51.613 Y-241.676
X50.701 Y-241.683
X49.789 Y-241.689
X47.054 Y-241.701
X46.142 Y-241.708
X45.23 Y-241.718
X44.318 Y-241.731
X43.407 Y-241.746
X41.583 Y-241.782
X39.76 Y-241.818
X38.849 Y-241.834
X37.937 Y-241.849
X37.025 Y-241.863
X36.113 Y-241.875
X35.202 Y-241.885
X34.29 Y-241.894
X33.378 Y-241.902
X32.466 Y-241.908
X30.643 Y-241.918
X28.819 Y-241.924
X26.995 Y-241.928
X26.084 Y-241.929
X25.172 Y-241.928
X24.26 Y-241.926
X23.348 Y-241.919
X22.437 Y-241.905
X21.525 Y-241.88
X20.615 Y-241.829
X19.714 Y-241.685
X18.864 Y-241.354
X18.105 Y-240.849
X17.458 Y-240.207
X16.92 Y-239.471
X16.482 Y-238.671
X16.13 Y-237.83
X15.849 Y-236.963
X15.628 Y-236.078
X15.454 Y-235.183
X15.317 Y-234.282
X15.21 Y-233.376
X15.127 Y-232.468
X15.062 Y-231.559
X15.011 Y-230.648
X14.972 Y-229.737
X14.941 Y-228.826
X14.917 Y-227.914
X14.899 Y-227.003
X14.884 Y-226.091
X14.873 Y-225.179
X14.864 Y-224.268
X14.857 Y-223.356
X14.852 Y-222.444
X14.845 Y-220.62
X14.843 Y-219.709
X14.848 Y-218.797
X14.874 Y-217.885
X14.928 Y-216.975
X15.007 Y-216.067
X15.101 Y-215.16
X15.199 Y-214.253
X15.289 Y-213.346
X15.362 Y-212.437
X15.412 Y-211.526
X15.435 Y-210.615
Y-209.703
X15.414 Y-208.792
X15.378 Y-207.88
X15.331 Y-206.97
X15.28 Y-206.06
X15.226 Y-205.149
X15.174 Y-204.239
X15.125 Y-203.328
X15.08 Y-202.418
X15.04 Y-201.507
X15.004 Y-200.596
X14.974 Y-199.684
X14.948 Y-198.773
X14.927 Y-197.861
X14.908 Y-196.95
X14.894 Y-196.038
X14.881 Y-195.126
X14.872 Y-194.215
X14.864 Y-193.303
X14.857 Y-192.391
X14.852 Y-191.479
X14.845 Y-189.656
X14.84 Y-187.832
X14.837 Y-185.097
Y-184.185
X14.846 Y-183.273
X14.878 Y-182.362
X14.938 Y-181.452
X15.022 Y-180.544
X15.214 Y-178.73
X15.301 Y-177.823
X15.368 Y-176.913
X15.41 Y-176.003
X15.427 Y-175.091
X15.421 Y-174.179
X15.395 Y-173.268
X15.356 Y-172.357
X15.309 Y-171.446
X15.204 Y-169.625
X15.154 Y-168.715
X15.106 Y-167.804
X15.063 Y-166.894
X15.025 Y-165.983
X14.992 Y-165.071
X14.964 Y-164.16
X14.94 Y-163.249
X14.919 Y-162.337
X14.903 Y-161.425
X14.889 Y-160.514
X14.878 Y-159.602
X14.868 Y-158.69
X14.861 Y-157.778
X14.855 Y-156.867
X14.847 Y-155.043
X14.842 Y-153.219
X14.837 Y-150.484
X14.834 Y-146.837
X14.831 Y-145.925
X14.826 Y-145.013
X14.819 Y-144.101
X14.81 Y-143.189
X14.799 Y-142.278
X14.785 Y-141.366
X14.756 Y-139.543
X14.71 Y-136.808
X14.696 Y-135.896
X14.684 Y-134.984
X14.672 Y-134.072
X14.662 Y-133.161
X14.653 Y-132.249
X14.645 Y-131.337
X14.632 Y-129.514
X14.623 Y-127.69
X14.617 Y-125.866
X14.611 Y-123.131
X14.607 Y-119.484
X14.605 Y-112.189
Y-109.454
X14.606 Y-97.6
X14.607 Y-96.688
X14.61 Y-95.776
X14.615 Y-94.865
X14.627 Y-93.953
X14.658 Y-93.042
X14.717 Y-92.132
X14.804 Y-91.224
X14.91 Y-90.319
X15.023 Y-89.414
X15.13 Y-88.508
X15.223 Y-87.601
X15.294 Y-86.692
X15.338 Y-85.781
X15.356 Y-84.87
X15.352 Y-83.958
X15.329 Y-83.046
X15.295 Y-82.135
X15.252 Y-81.224
X15.159 Y-79.403
X15.114 Y-78.492
X15.072 Y-77.582
X15.034 Y-76.671
X15.001 Y-75.759
X14.972 Y-74.848
X14.947 Y-73.937
X14.925 Y-73.025
X14.908 Y-72.113
X14.893 Y-71.202
X14.881 Y-70.29
X14.871 Y-69.378
X14.864 Y-68.466
X14.857 Y-67.555
X14.852 Y-66.643
X14.845 Y-64.819
X14.84 Y-62.996
X14.837 Y-60.26
X14.836 Y-59.348
X14.841 Y-58.436
X14.863 Y-57.525
X14.912 Y-56.614
X14.987 Y-55.706
X15.079 Y-54.799
X15.176 Y-53.892
X15.267 Y-52.985
X15.342 Y-52.076
X15.395 Y-51.166
X15.423 Y-50.254
X15.426 Y-49.343
X15.408 Y-48.431
X15.374 Y-47.52
X15.33 Y-46.609
X15.278 Y-45.699
X15.222 Y-44.789
X15.108 Y-42.968
X15.053 Y-42.058
X15 Y-41.148
X14.951 Y-40.238
X14.905 Y-39.327
X14.863 Y-38.416
X14.826 Y-37.505
X14.792 Y-36.594
X14.763 Y-35.682
X14.737 Y-34.771
X14.715 Y-33.859
X14.696 Y-32.948
X14.68 Y-32.036
X14.667 Y-31.124
X14.655 Y-30.213
X14.646 Y-29.301
X14.638 Y-28.389
X14.633 Y-27.477
X14.629 Y-26.566
X14.628 Y-25.654
X14.631 Y-24.742
X14.641 Y-23.83
X14.661 Y-22.919
X14.7 Y-22.008
X14.768 Y-21.098
X14.908 Y-20.197
X15.18 Y-19.327
X15.61 Y-18.523
X16.181 Y-17.812
X16.859 Y-17.203
X17.615 Y-16.692
X18.424 Y-16.272
X19.27 Y-15.933
X20.141 Y-15.661
X21.027 Y-15.447
X21.924 Y-15.281
X22.826 Y-15.152
X23.733 Y-15.055
X24.642 Y-14.983
X25.552 Y-14.929
X26.463 Y-14.891
X27.375 Y-14.864
X28.286 Y-14.845
X29.198 Y-14.833
X30.11 Y-14.825
X31.022 Y-14.821
X31.933 Y-14.819
X33.757
X41.052 Y-14.829
X46.522 Y-14.832
X51.081 Y-14.833
X51.993 Y-14.835
X52.905 Y-14.849
X53.816 Y-14.887
X54.726 Y-14.952
X55.633 Y-15.039
X56.54 Y-15.136
X57.447 Y-15.229
X58.355 Y-15.31
X59.265 Y-15.371
X60.176 Y-15.408
X61.088 Y-15.42
X61.999 Y-15.41
X62.911 Y-15.382
X63.822 Y-15.342
X64.732 Y-15.294
X66.553 Y-15.191
X67.463 Y-15.141
X68.374 Y-15.095
X69.285 Y-15.052
X70.196 Y-15.013
X71.107 Y-14.976
X72.018 Y-14.941
X72.929 Y-14.908
X73.841 Y-14.877
X74.752 Y-14.848
X75.663 Y-14.82
X76.575 Y-14.793
X77.486 Y-14.769
X78.398 Y-14.747
X79.309 Y-14.727
X80.221 Y-14.709
X81.133 Y-14.693
X82.044 Y-14.679
X82.956 Y-14.667
X83.868 Y-14.656
X84.78 Y-14.648
X85.691 Y-14.64
X86.603 Y-14.634
X88.427 Y-14.624
X90.25 Y-14.617
X92.986 Y-14.611
X96.633 Y-14.607
X103.928 Y-14.605
X117.605
X118.517 Y-14.606
X119.428 Y-14.608
X120.34 Y-14.611
X121.252 Y-14.616
X122.164 Y-14.624
X123.076 Y-14.634
X123.987 Y-14.647
X124.899 Y-14.66
X128.546 Y-14.72
X130.369 Y-14.747
X131.281 Y-14.759
X132.193 Y-14.77
X133.104 Y-14.78
X134.016 Y-14.788
X134.928 Y-14.796
X136.752 Y-14.807
X137.663 Y-14.817
X138.575 Y-14.843
X139.485 Y-14.895
X140.394 Y-14.972
X141.301 Y-15.067
X142.207 Y-15.165
X143.114 Y-15.256
X144.023 Y-15.33
X144.933 Y-15.383
X145.845 Y-15.41
X146.757 Y-15.413
X147.668 Y-15.396
X148.579 Y-15.363
X149.49 Y-15.32
X150.401 Y-15.271
X152.221 Y-15.169
X153.132 Y-15.121
X154.043 Y-15.077
X154.954 Y-15.037
X155.865 Y-15.003
X156.776 Y-14.973
X157.688 Y-14.947
X158.599 Y-14.926
X159.511 Y-14.908
X160.423 Y-14.893
X161.334 Y-14.881
X162.246 Y-14.871
X163.158 Y-14.863
X164.07 Y-14.857
X164.981 Y-14.852
X166.805 Y-14.845
X169.54 Y-14.838
X170.452 Y-14.835
X171.364 Y-14.83
X172.276 Y-14.823
X173.188 Y-14.814
X174.099 Y-14.803
X175.011 Y-14.79
X176.835 Y-14.761
X179.57 Y-14.715
X180.481 Y-14.701
X181.393 Y-14.687
X182.305 Y-14.676
X183.216 Y-14.665
X184.128 Y-14.656
X185.04 Y-14.647
X185.952 Y-14.64
X187.775 Y-14.629
X189.599 Y-14.621
X191.423 Y-14.615
X194.158 Y-14.61
X198.717 Y-14.607
X208.747 Y-14.605
X218.777
X219.689 Y-14.606
X220.601 Y-14.609
X221.512 Y-14.613
X222.424 Y-14.62
X223.336 Y-14.628
X224.248 Y-14.639
X225.159 Y-14.652
X226.983 Y-14.681
X229.718 Y-14.726
X231.541 Y-14.752
X232.453 Y-14.764
X233.365 Y-14.774
X234.277 Y-14.783
X235.188 Y-14.791
X237.012 Y-14.804
X237.924 Y-14.81
X238.836 Y-14.817
X239.747 Y-14.839
X240.658 Y-14.885
X241.567 Y-14.958
X242.474 Y-15.049
X243.38 Y-15.147
X244.288 Y-15.238
X245.196 Y-15.315
X246.106 Y-15.37
X247.018 Y-15.401
X247.93 Y-15.407
X248.841 Y-15.393
X249.753 Y-15.363
X250.663 Y-15.321
X251.574 Y-15.273
X253.395 Y-15.172
X254.305 Y-15.124
X255.216 Y-15.08
X256.127 Y-15.04
X257.038 Y-15.005
X257.949 Y-14.975
X258.861 Y-14.949
X259.772 Y-14.928
X260.684 Y-14.909
X261.596 Y-14.894
X262.508 Y-14.882
X263.419 Y-14.872
X264.331 Y-14.864
X265.243 Y-14.858
X266.155 Y-14.852
X267.978 Y-14.845
X270.714 Y-14.837
X271.625 Y-14.832
X272.537 Y-14.826
X273.449 Y-14.817
X274.361 Y-14.806
X275.273 Y-14.793
X277.096 Y-14.764
X279.831 Y-14.717
X280.743 Y-14.703
X281.654 Y-14.69
X282.566 Y-14.678
X283.478 Y-14.667
X284.39 Y-14.657
X285.301 Y-14.649
X286.213 Y-14.641
X288.037 Y-14.63
X289.86 Y-14.621
X291.684 Y-14.616
X294.419 Y-14.611
X298.067 Y-14.607
X306.273 Y-14.605
X319.038
X319.95 Y-14.606
X320.862 Y-14.608
X321.774 Y-14.612
X322.686 Y-14.618
X323.597 Y-14.627
X324.509 Y-14.648
X325.42 Y-14.692
X326.328 Y-14.766
X327.235 Y-14.864
X329.045 Y-15.088
X329.951 Y-15.188
X330.859 Y-15.268
X331.77 Y-15.323
X332.681 Y-15.353
X333.593 Y-15.359
X334.504 Y-15.344
X335.416 Y-15.315
X336.327 Y-15.275
X337.237 Y-15.23
X339.059 Y-15.137
X339.969 Y-15.093
X340.88 Y-15.053
X341.791 Y-15.017
X342.703 Y-14.986
X343.614 Y-14.959
X344.526 Y-14.936
X345.437 Y-14.916
X346.349 Y-14.9
X347.261 Y-14.887
X348.172 Y-14.876
X349.084 Y-14.867
X349.996 Y-14.86
X350.908 Y-14.855
X352.731 Y-14.846
X354.555 Y-14.841
X357.29 Y-14.837
X361.849 Y-14.835
X370.056 Y-14.833
X370.968
X371.879 Y-14.831
X372.791 Y-14.828
X374.615 Y-14.818
X375.527 Y-14.814
X376.438 Y-14.815
X377.35 Y-14.825
X378.262 Y-14.853
X379.171 Y-14.923
X380.069 Y-15.081
X380.926 Y-15.391
X381.708 Y-15.861
X382.392 Y-16.463
X382.972 Y-17.167
X383.454 Y-17.941
X383.849 Y-18.763
X384.168 Y-19.617
X384.425 Y-20.492
X384.63 Y-21.38
X384.793 Y-22.277
X384.922 Y-23.18
X385.024 Y-24.086
X385.104 Y-24.994
X385.167 Y-25.904
X385.217 Y-26.814
X385.256 Y-27.725
X385.286 Y-28.637
X385.31 Y-29.548
X385.329 Y-30.46
X385.344 Y-31.371
X385.355 Y-32.283
X385.364 Y-33.195
X385.371 Y-34.107
X385.37 Y-35.019
X385.345 Y-35.93
X385.288 Y-36.84
X385.202 Y-37.748
X385.097 Y-38.654
X384.986 Y-39.558
X384.88 Y-40.464
X384.792 Y-41.372
X384.728 Y-42.281
X384.69 Y-43.192
X384.675 Y-44.104
X384.682 Y-45.016
X384.705 Y-45.927
X384.739 Y-46.839
X384.78 Y-47.749
X384.867 Y-49.571
X384.91 Y-50.482
X384.948 Y-51.393
X384.984 Y-52.304
X385.015 Y-53.215
X385.041 Y-54.127
X385.064 Y-55.038
X385.084 Y-55.95
X385.1 Y-56.861
X385.113 Y-57.773
X385.124 Y-58.685
X385.133 Y-59.597
X385.14 Y-60.508
X385.145 Y-61.42
X385.154 Y-63.244
X385.159 Y-65.067
X385.163 Y-67.803
X385.164 Y-69.626
X385.16 Y-70.538
X385.133 Y-71.45
X385.079 Y-72.36
X384.999 Y-73.268
X384.904 Y-74.175
X384.806 Y-75.082
X384.716 Y-75.989
X384.645 Y-76.898
X384.598 Y-77.809
X384.576 Y-78.72
X384.578 Y-79.632
X384.6 Y-80.544
X384.636 Y-81.455
X384.681 Y-82.365
X384.732 Y-83.276
X384.785 Y-84.186
X384.836 Y-85.096
X384.885 Y-86.007
X384.93 Y-86.918
X384.973 Y-87.828
X385.014 Y-88.739
X385.052 Y-89.65
X385.088 Y-90.561
X385.121 Y-91.473
X385.153 Y-92.384
X385.183 Y-93.295
X385.21 Y-94.207
X385.235 Y-95.118
X385.258 Y-96.03
X385.278 Y-96.941
X385.296 Y-97.853
X385.312 Y-98.764
X385.325 Y-99.676
X385.337 Y-100.588
X385.347 Y-101.5
X385.355 Y-102.411
X385.363 Y-103.323
X385.369 Y-104.235
X385.378 Y-106.059
X385.384 Y-107.882
X385.389 Y-110.618
X385.393 Y-114.265
X385.395 Y-121.559
Y-135.237
X385.393 Y-136.148
X385.391 Y-137.06
X385.386 Y-137.972
X385.38 Y-138.884
X385.371 Y-139.796
X385.359 Y-140.707
X385.346 Y-141.619
X385.317 Y-143.442
X385.273 Y-146.178
X385.259 Y-147.089
X385.246 Y-148.001
X385.235 Y-148.913
X385.225 Y-149.824
X385.216 Y-150.736
X385.208 Y-151.648
X385.195 Y-153.472
X385.186 Y-155.295
X385.179 Y-157.119
X385.177 Y-158.031
X385.172 Y-159.854
X385.159 Y-160.766
X385.121 Y-161.677
X385.056 Y-162.586
X384.969 Y-163.494
X384.872 Y-164.401
X384.776 Y-165.308
X384.693 Y-166.216
X384.63 Y-167.125
X384.593 Y-168.036
X384.58 Y-168.948
X384.589 Y-169.86
X384.617 Y-170.771
X384.656 Y-171.682
X384.704 Y-172.593
X384.807 Y-174.413
X384.857 Y-175.324
X384.903 Y-176.234
X384.945 Y-177.145
X384.982 Y-178.056
X385.014 Y-178.968
X385.042 Y-179.879
X385.065 Y-180.791
X385.084 Y-181.702
X385.101 Y-182.614
X385.114 Y-183.526
X385.125 Y-184.437
X385.133 Y-185.349
X385.14 Y-186.261
X385.146 Y-187.173
X385.154 Y-188.996
X385.159 Y-190.82
X385.163 Y-193.555
X385.164 Y-194.467
X385.162 Y-195.379
X385.145 Y-196.291
X385.101 Y-197.201
X385.031 Y-198.11
X384.942 Y-199.018
X384.844 Y-199.924
X384.75 Y-200.831
X384.67 Y-201.74
X384.613 Y-202.65
X384.582 Y-203.561
X384.574 Y-204.473
X384.588 Y-205.384
X384.619 Y-206.296
X384.661 Y-207.207
X384.711 Y-208.117
X384.815 Y-209.938
X384.865 Y-210.848
X384.91 Y-211.759
X384.952 Y-212.67
X384.988 Y-213.581
X385.019 Y-214.492
X385.046 Y-215.404
X385.069 Y-216.315
X385.088 Y-217.227
X385.103 Y-218.138
X385.116 Y-219.05
X385.126 Y-219.962
X385.135 Y-220.874
X385.141 Y-221.785
X385.147 Y-222.697
X385.154 Y-224.521
X385.158 Y-226.344
X385.159 Y-227.256
X385.157 Y-228.168
X385.152 Y-229.08
X385.142 Y-229.992
X385.122 Y-230.903
X385.085 Y-231.814
X385.02 Y-232.724
X384.898 Y-233.627
X384.658 Y-234.507
X384.261 Y-235.328
X383.72 Y-236.062
X383.062 Y-236.693
X382.32 Y-237.222
X381.519 Y-237.66
X380.68 Y-238.016
X379.815 Y-238.303
X378.932 Y-238.533
X378.039 Y-238.716
X377.139 Y-238.862
X376.234 Y-238.977
X375.327 Y-239.067
X374.418 Y-239.139
X373.508 Y-239.195
X372.597 Y-239.238
X371.686 Y-239.273
X370.775 Y-239.3
X369.863 Y-239.321
X368.951 Y-239.337
X368.04 Y-239.35
X367.128 Y-239.36
X366.216 Y-239.368
X365.304 Y-239.374
X364.393 Y-239.379
X362.569 Y-239.385
X359.834 Y-239.391
X356.186 Y-239.393
X352.539 Y-239.394
X351.627 Y-239.393
X350.715 Y-239.391
X349.804 Y-239.387
X348.892 Y-239.381
X347.98 Y-239.37
X347.069 Y-239.342
X346.159 Y-239.286
X345.251 Y-239.202
X344.345 Y-239.098
X343.44 Y-238.985
X342.535 Y-238.875
X341.628 Y-238.778
X340.72 Y-238.701
X339.809 Y-238.65
X338.898 Y-238.627
X337.986 Y-238.626
X337.074 Y-238.646
X336.163 Y-238.679
X335.252 Y-238.721
X334.342 Y-238.768
X333.431 Y-238.817
X332.521 Y-238.864
X331.61 Y-238.908
X330.699 Y-238.949
X329.788 Y-238.985
X328.877 Y-239.016
X327.965 Y-239.043
X327.054 Y-239.066
X326.142 Y-239.085
X325.23 Y-239.101
X324.319 Y-239.114
X323.407 Y-239.125
X322.495 Y-239.133
X321.583 Y-239.14
X320.672 Y-239.146
X318.848 Y-239.154
X317.024 Y-239.159
X314.289 Y-239.163
X312.465 Y-239.164
X305.171 Y-239.166
X263.227
X262.316 Y-239.162
X261.404 Y-239.14
X260.493 Y-239.091
X259.585 Y-239.016
X258.678 Y-238.925
X257.771 Y-238.829
X256.863 Y-238.739
X255.955 Y-238.664
X255.044 Y-238.612
X254.133 Y-238.586
X253.221 Y-238.583
X252.309 Y-238.602
X251.398 Y-238.635
X250.488 Y-238.679
X249.577 Y-238.73
X248.667 Y-238.785
X246.847 Y-238.898
X245.937 Y-238.952
X245.026 Y-239.004
X244.116 Y-239.053
X243.205 Y-239.098
X242.294 Y-239.139
X241.383 Y-239.176
X240.472 Y-239.209
X239.561 Y-239.238
X238.649 Y-239.264
X237.738 Y-239.286
X236.826 Y-239.304
X235.914 Y-239.32
X235.003 Y-239.334
X234.091 Y-239.345
X233.179 Y-239.354
X232.267 Y-239.362
X231.356 Y-239.368
X229.532 Y-239.378
X227.708 Y-239.384
X224.973 Y-239.39
X221.326 Y-239.393
X213.119 Y-239.395
X212.207
X201.266
X200.354 Y-239.394
X199.442 Y-239.392
X198.53 Y-239.388
X197.618 Y-239.381
X196.707 Y-239.373
X195.795 Y-239.362
X194.883 Y-239.349
X193.06 Y-239.32
X190.325 Y-239.275
X188.501 Y-239.249
X187.59 Y-239.237
X186.678 Y-239.226
X185.766 Y-239.217
X184.854 Y-239.209
X183.031 Y-239.196
X181.207 Y-239.186
X179.384 Y-239.18
X176.648 Y-239.173
X173.001 Y-239.169
X166.618 Y-239.167
X162.059
X161.147 Y-239.164
X160.236 Y-239.146
X159.325 Y-239.102
X158.416 Y-239.032
X157.508 Y-238.943
X156.601 Y-238.848
X155.694 Y-238.757
X154.786 Y-238.68
X153.875 Y-238.625
X152.964 Y-238.595
X152.052 Y-238.589
X151.141 Y-238.604
X150.229 Y-238.635
X149.319 Y-238.679
X148.408 Y-238.73
X147.498 Y-238.786
X145.678 Y-238.902
X144.768 Y-238.959
X143.858 Y-239.013
X142.948 Y-239.063
X142.037 Y-239.109
X141.126 Y-239.151
X140.215 Y-239.188
X139.304 Y-239.22
X138.392 Y-239.249
X137.481 Y-239.273
X136.569 Y-239.294
X135.658 Y-239.312
X134.746 Y-239.327
X133.834 Y-239.34
X132.923 Y-239.35
X132.011 Y-239.359
X131.099 Y-239.366
X130.187 Y-239.372
X128.364 Y-239.38
X126.54 Y-239.386
X123.805 Y-239.39
X119.245 Y-239.394
X111.951 Y-239.395
X101.009
X100.097 Y-239.394
X99.186 Y-239.392
X98.274 Y-239.388
X97.362 Y-239.382
X96.45 Y-239.373
X95.538 Y-239.362
X94.627 Y-239.35
X92.803 Y-239.321
X90.068 Y-239.276
X88.245 Y-239.249
X87.333 Y-239.238
X86.421 Y-239.227
X85.51 Y-239.218
X84.598 Y-239.21
X83.686 Y-239.202
X81.862 Y-239.191
X80.039 Y-239.183
X78.215 Y-239.177
X76.392 Y-239.173
X75.48 Y-239.163
X74.568 Y-239.133
X73.658 Y-239.076
X72.75 Y-238.995
X71.843 Y-238.901
X70.936 Y-238.805
X70.029 Y-238.719
X69.12 Y-238.65
X68.209 Y-238.605
X67.297 Y-238.585
X66.385 Y-238.588
X65.474 Y-238.611
X64.563 Y-238.648
X63.652 Y-238.694
X62.742 Y-238.744
X61.831 Y-238.796
X60.921 Y-238.846
X60.01 Y-238.893
X59.1 Y-238.936
X58.189 Y-238.974
X57.277 Y-239.007
X56.366 Y-239.036
X55.454 Y-239.06
X54.543 Y-239.08
X53.631 Y-239.097
X52.72 Y-239.111
X51.808 Y-239.122
X50.896 Y-239.131
X48.161 Y-239.153
X47.249 Y-239.161
X46.337 Y-239.17
X45.425 Y-239.182
X44.514 Y-239.195
X43.602 Y-239.21
X39.955 Y-239.273
X38.132 Y-239.303
X37.22 Y-239.316
X36.308 Y-239.327
X35.397 Y-239.338
X34.485 Y-239.347
X33.573 Y-239.355
X32.661 Y-239.362
X30.838 Y-239.372
X29.014 Y-239.38
X28.102 Y-239.382
X27.191 Y-239.384
X26.279
X25.367 Y-239.382
X24.455 Y-239.375
X23.543 Y-239.36
X22.633 Y-239.315
X21.746 Y-239.102
X20.936 Y-238.684
X20.233 Y-238.103
X19.645 Y-237.406
X19.166 Y-236.63
X18.781 Y-235.804
X18.474 Y-234.945
X18.232 Y-234.066
X18.042 Y-233.174
X17.894 Y-232.275
X17.778 Y-231.37
X17.687 Y-230.463
X17.617 Y-229.554
X17.562 Y-228.644
X17.52 Y-227.733
X17.487 Y-226.822
X17.462 Y-225.91
X17.442 Y-224.999
X17.427 Y-224.087
X17.415 Y-223.175
X17.406 Y-222.263
X17.4 Y-221.352
X17.402 Y-220.44
X17.416 Y-219.528
X17.449 Y-218.617
X17.499 Y-217.706
X17.562 Y-216.797
X17.634 Y-215.888
X17.707 Y-214.979
X17.774 Y-214.07
X17.824 Y-213.266
X17.825 Y-213.204
Y-209.112
X17.779 Y-208.201
X17.776 Y-207.289
X17.758 Y-206.378
X17.731 Y-205.466
X17.698 Y-204.555
X17.628 Y-202.733
X17.595 Y-201.822
X17.563 Y-200.91
X17.535 Y-199.999
X17.509 Y-199.088
X17.487 Y-198.176
X17.468 Y-197.264
X17.451 Y-196.353
X17.437 Y-195.441
X17.425 Y-194.529
X17.415 Y-193.618
X17.407 Y-192.706
X17.401 Y-191.794
X17.395 Y-190.882
X17.387 Y-189.059
X17.382 Y-187.235
X17.381 Y-186.323
X17.384 Y-185.411
X17.397 Y-184.5
X17.426 Y-183.588
X17.472 Y-182.678
X17.533 Y-181.768
X17.603 Y-180.859
X17.676 Y-179.95
X17.746 Y-179.041
X17.806 Y-178.131
X17.824 Y-177.786
X17.825 Y-177.735
Y-173.906
X17.779 Y-172.996
X17.775 Y-172.084
X17.757 Y-171.172
X17.729 Y-170.261
X17.697 Y-169.35
X17.627 Y-167.527
X17.594 Y-166.616
X17.563 Y-165.705
X17.534 Y-164.793
X17.509 Y-163.882
X17.487 Y-162.97
X17.467 Y-162.059
X17.451 Y-161.147
X17.437 Y-160.235
X17.425 Y-159.324
X17.415 Y-158.412
X17.407 Y-157.5
X17.401 Y-156.588
X17.395 Y-155.677
X17.387 Y-153.853
X17.382 Y-152.029
X17.376 Y-148.382
X17.373 Y-147.47
X17.37 Y-146.558
X17.365 Y-145.647
X17.358 Y-144.735
X17.35 Y-143.823
X17.34 Y-142.911
X17.328 Y-142
X17.302 Y-140.176
X17.26 Y-137.441
X17.235 Y-135.618
X17.213 Y-133.794
X17.203 Y-132.882
X17.187 Y-131.059
X17.175 Y-129.235
X17.166 Y-127.412
X17.159 Y-125.588
X17.154 Y-123.764
X17.15 Y-121.029
X17.147 Y-116.47
X17.145 Y-105.528
X17.146 Y-99.145
X17.147 Y-98.234
X17.149 Y-97.322
X17.153 Y-96.41
X17.164 Y-95.498
X17.188 Y-94.587
X17.231 Y-93.676
X17.292 Y-92.766
X17.368 Y-91.858
X17.453 Y-90.95
X17.54 Y-90.042
X17.623 Y-89.134
X17.695 Y-88.225
X17.753 Y-87.315
X17.794 Y-86.404
X17.818 Y-85.493
X17.825 Y-84.757
Y-84.65
X17.779 Y-83.739
X17.775 Y-82.827
X17.759 Y-81.916
X17.734 Y-81.004
X17.703 Y-80.093
X17.603 Y-77.359
X17.571 Y-76.448
X17.543 Y-75.537
X17.517 Y-74.625
X17.494 Y-73.714
X17.474 Y-72.802
X17.457 Y-71.89
X17.442 Y-70.979
X17.429 Y-70.067
X17.419 Y-69.155
X17.41 Y-68.243
X17.403 Y-67.332
X17.397 Y-66.42
X17.389 Y-64.596
X17.383 Y-62.773
X17.381 Y-61.861
Y-60.949
X17.385 Y-60.037
X17.401 Y-59.126
X17.433 Y-58.214
X17.482 Y-57.304
X17.545 Y-56.394
X17.617 Y-55.485
X17.69 Y-54.576
X17.758 Y-53.667
X17.816 Y-52.757
X17.824 Y-52.573
X17.825 Y-52.525
Y-48.823
X17.779 Y-47.912
X17.776 Y-47
X17.757 Y-46.089
X17.727 Y-45.177
X17.689 Y-44.266
X17.647 Y-43.356
X17.513 Y-40.623
X17.471 Y-39.713
X17.431 Y-38.802
X17.394 Y-37.891
X17.36 Y-36.979
X17.33 Y-36.068
X17.303 Y-35.157
X17.279 Y-34.245
X17.258 Y-33.334
X17.24 Y-32.422
X17.224 Y-31.51
X17.211 Y-30.599
X17.2 Y-29.687
X17.191 Y-28.775
X17.184 Y-27.863
X17.18 Y-26.951
X17.181 Y-26.04
X17.187 Y-25.128
X17.205 Y-24.216
X17.245 Y-23.305
X17.358 Y-22.401
X17.64 Y-21.533
X18.098 Y-20.745
X18.701 Y-20.061
X19.41 Y-19.487
X20.19 Y-19.015
X21.019 Y-18.636
X21.879 Y-18.334
X22.76 Y-18.097
X23.653 Y-17.913
X24.554 Y-17.771
X25.459 Y-17.663
X26.367 Y-17.581
X27.277 Y-17.52
X28.188 Y-17.474
X29.099 Y-17.441
X30.01 Y-17.417
X30.922 Y-17.4
X31.834 Y-17.388
X32.746 Y-17.38
X33.657 Y-17.374
X34.569 Y-17.371
X36.393 Y-17.368
X39.128
X49.158 Y-17.373
X50.07 Y-17.375
X50.982 Y-17.383
X51.893 Y-17.404
X52.804 Y-17.441
X53.715 Y-17.495
X54.624 Y-17.56
X56.442 Y-17.703
X57.352 Y-17.768
X57.563 Y-17.78
X57.622 Y-17.781
X62.739
X63.649 Y-17.736
X64.561 Y-17.732
X65.473 Y-17.715
X66.384 Y-17.69
X67.296 Y-17.659
X68.207 Y-17.626
X70.94 Y-17.524
X71.852 Y-17.491
X72.763 Y-17.459
X73.674 Y-17.429
X74.586 Y-17.399
X75.497 Y-17.372
X76.408 Y-17.346
X77.32 Y-17.322
X78.231 Y-17.299
X79.143 Y-17.279
X80.055 Y-17.261
X80.966 Y-17.244
X81.878 Y-17.23
X82.79 Y-17.217
X83.701 Y-17.206
X84.613 Y-17.196
X85.525 Y-17.188
X86.437 Y-17.18
X88.26 Y-17.169
X90.084 Y-17.161
X92.819 Y-17.154
X95.555 Y-17.15
X100.114 Y-17.146
X111.967 Y-17.145
X112.879
X116.527
X118.35 Y-17.148
X119.262 Y-17.151
X120.174 Y-17.156
X121.086 Y-17.162
X121.997 Y-17.17
X122.909 Y-17.18
X123.821 Y-17.191
X125.644 Y-17.217
X129.291 Y-17.27
X131.115 Y-17.294
X132.938 Y-17.314
X134.762 Y-17.331
X135.673 Y-17.34
X136.585 Y-17.358
X137.496 Y-17.389
X138.407 Y-17.435
X139.317 Y-17.497
X140.226 Y-17.568
X141.135 Y-17.642
X142.044 Y-17.714
X142.981 Y-17.779
X143.036 Y-17.781
X143.064
X148.1
X149.01 Y-17.736
X149.922 Y-17.731
X150.834 Y-17.713
X151.745 Y-17.687
X152.657 Y-17.657
X154.479 Y-17.593
X155.39 Y-17.563
X156.302 Y-17.536
X157.213 Y-17.511
X158.125 Y-17.489
X159.036 Y-17.469
X159.948 Y-17.453
X160.86 Y-17.438
X161.772 Y-17.427
X162.683 Y-17.417
X163.595 Y-17.408
X164.507 Y-17.402
X166.33 Y-17.391
X169.066 Y-17.38
X169.978 Y-17.375
X170.889 Y-17.37
X171.801 Y-17.362
X172.713 Y-17.353
X173.625 Y-17.343
X174.537 Y-17.331
X176.36 Y-17.305
X179.095 Y-17.263
X180.919 Y-17.237
X182.742 Y-17.214
X183.654 Y-17.204
X184.566 Y-17.196
X186.389 Y-17.181
X188.213 Y-17.17
X190.036 Y-17.162
X192.772 Y-17.155
X195.507 Y-17.15
X198.243 Y-17.148
X205.537 Y-17.145
X217.391
X219.214 Y-17.148
X220.126 Y-17.151
X221.038 Y-17.156
X221.95 Y-17.163
X222.861 Y-17.171
X223.773 Y-17.181
X224.685 Y-17.192
X226.508 Y-17.218
X229.244 Y-17.259
X231.067 Y-17.284
X232.891 Y-17.306
X234.714 Y-17.323
X236.538 Y-17.338
X237.449 Y-17.35
X238.361 Y-17.372
X239.272 Y-17.41
X240.182 Y-17.464
X241.092 Y-17.53
X242.909 Y-17.677
X243.819 Y-17.745
X244.391 Y-17.78
X244.452 Y-17.781
X249.207
X250.118 Y-17.736
X251.029 Y-17.733
X251.941 Y-17.717
X252.852 Y-17.692
X253.764 Y-17.662
X255.586 Y-17.598
X256.498 Y-17.568
X257.409 Y-17.54
X258.32 Y-17.515
X259.232 Y-17.492
X260.144 Y-17.472
X261.055 Y-17.455
X261.967 Y-17.441
X262.879 Y-17.428
X263.79 Y-17.418
X264.702 Y-17.41
X265.614 Y-17.403
X267.438 Y-17.392
X270.173 Y-17.379
X271.085 Y-17.373
X271.997 Y-17.366
X272.908 Y-17.357
X273.82 Y-17.347
X274.732 Y-17.335
X276.555 Y-17.309
X280.202 Y-17.253
X282.026 Y-17.228
X282.937 Y-17.217
X283.849 Y-17.207
X284.761 Y-17.198
X286.584 Y-17.183
X288.408 Y-17.172
X290.232 Y-17.163
X292.967 Y-17.155
X295.702 Y-17.15
X299.35 Y-17.147
X307.556 Y-17.145
X317.586
X319.41 Y-17.147
X320.321 Y-17.15
X321.233 Y-17.155
X322.145 Y-17.164
X323.057 Y-17.183
X323.968 Y-17.219
X324.878 Y-17.273
X325.787 Y-17.344
X326.695 Y-17.427
X327.603 Y-17.514
X328.51 Y-17.599
X329.419 Y-17.675
X330.329 Y-17.738
X331.159 Y-17.781
X331.21
X334.153
X335.064 Y-17.736
X335.976 Y-17.733
X336.888 Y-17.717
X337.799 Y-17.693
X338.71 Y-17.664
X340.533 Y-17.602
X341.444 Y-17.572
X342.356 Y-17.544
X343.267 Y-17.518
X344.179 Y-17.495
X345.09 Y-17.475
X346.002 Y-17.458
X346.914 Y-17.443
X347.825 Y-17.431
X348.737 Y-17.42
X349.649 Y-17.411
X350.561 Y-17.404
X351.472 Y-17.398
X353.296 Y-17.389
X355.12 Y-17.383
X357.855 Y-17.378
X362.414 Y-17.375
X368.797 Y-17.373
X370.62 Y-17.371
X372.444 Y-17.366
X373.356 Y-17.362
X374.268 Y-17.36
X375.18 Y-17.362
X376.091 Y-17.375
X377.002 Y-17.415
X377.901 Y-17.566
X378.749 Y-17.901
X379.507 Y-18.408
X380.157 Y-19.048
X380.699 Y-19.781
X381.144 Y-20.577
X381.502 Y-21.415
X381.789 Y-22.281
X382.018 Y-23.164
X382.198 Y-24.058
X382.341 Y-24.958
X382.453 Y-25.863
X382.54 Y-26.771
X382.609 Y-27.68
X382.663 Y-28.59
X382.705 Y-29.501
X382.738 Y-30.412
X382.764 Y-31.324
X382.784 Y-32.235
X382.794 Y-33.147
X382.79 Y-34.059
X382.765 Y-34.97
X382.718 Y-35.881
X382.653 Y-36.79
X382.576 Y-37.699
X382.494 Y-38.607
X382.414 Y-39.515
X382.343 Y-40.424
X382.285 Y-41.334
X382.241 Y-42.245
X382.214 Y-43.156
X382.203 Y-44.068
X382.205 Y-44.98
X382.219 Y-45.892
X382.242 Y-46.803
X382.271 Y-47.715
X382.303 Y-48.626
X382.372 Y-50.448
X382.404 Y-51.359
X382.435 Y-52.271
X382.463 Y-53.182
X382.488 Y-54.094
X382.511 Y-55.005
X382.53 Y-55.917
X382.547 Y-56.828
X382.561 Y-57.74
X382.573 Y-58.652
X382.583 Y-59.564
X382.591 Y-60.475
X382.598 Y-61.387
X382.604 Y-62.299
X382.612 Y-64.122
X382.617 Y-65.946
X382.62 Y-67.77
X382.617 Y-68.682
X382.602 Y-69.593
X382.572 Y-70.505
X382.524 Y-71.415
X382.462 Y-72.325
X382.39 Y-73.234
X382.317 Y-74.143
X382.249 Y-75.052
X382.19 Y-75.962
X382.176 Y-76.252
X382.175 Y-76.3
Y-80.094
X382.221 Y-81.004
X382.225 Y-81.916
X382.243 Y-82.828
X382.271 Y-83.739
X382.304 Y-84.65
X382.34 Y-85.562
X382.453 Y-88.295
X382.489 Y-89.206
X382.524 Y-90.117
X382.558 Y-91.028
X382.59 Y-91.939
X382.62 Y-92.851
X382.648 Y-93.762
X382.674 Y-94.673
X382.697 Y-95.585
X382.719 Y-96.497
X382.738 Y-97.408
X382.755 Y-98.32
X382.77 Y-99.231
X382.783 Y-100.143
X382.794 Y-101.055
X382.804 Y-101.967
X382.813 Y-102.878
X382.82 Y-103.79
X382.831 Y-105.614
X382.839 Y-107.437
X382.847 Y-110.173
X382.851 Y-112.908
X382.854 Y-117.467
X382.855 Y-130.233
X382.854 Y-133.88
X382.852 Y-135.704
X382.848 Y-136.615
X382.843 Y-137.527
X382.836 Y-138.439
X382.828 Y-139.351
X382.818 Y-140.263
X382.806 Y-141.174
X382.78 Y-142.998
X382.739 Y-145.733
X382.715 Y-147.556
X382.693 Y-149.38
X382.675 Y-151.203
X382.662 Y-153.027
X382.651 Y-154.851
X382.643 Y-156.674
X382.64 Y-157.586
X382.634 Y-158.498
X382.618 Y-159.409
X382.586 Y-160.321
X382.538 Y-161.231
X382.475 Y-162.141
X382.404 Y-163.05
X382.33 Y-163.959
X382.26 Y-164.868
X382.199 Y-165.778
X382.176 Y-166.235
X382.175 Y-166.286
Y-169.972
X382.221 Y-170.882
X382.226 Y-171.794
X382.245 Y-172.706
X382.272 Y-173.617
X382.305 Y-174.528
X382.374 Y-176.351
X382.407 Y-177.262
X382.438 Y-178.173
X382.467 Y-179.084
X382.492 Y-179.996
X382.514 Y-180.907
X382.533 Y-181.819
X382.55 Y-182.731
X382.563 Y-183.642
X382.575 Y-184.554
X382.585 Y-185.466
X382.593 Y-186.378
X382.599 Y-187.29
X382.605 Y-188.201
X382.613 Y-190.025
X382.618 Y-191.849
X382.619 Y-192.76
X382.617 Y-193.672
X382.606 Y-194.584
X382.579 Y-195.495
X382.535 Y-196.406
X382.476 Y-197.316
X382.407 Y-198.225
X382.333 Y-199.134
X382.263 Y-200.043
X382.202 Y-200.953
X382.176 Y-201.449
X382.175 Y-201.501
Y-205.177
X382.221 Y-206.088
X382.223 Y-207
X382.24 Y-207.911
X382.266 Y-208.823
X382.298 Y-209.734
X382.368 Y-211.556
X382.402 Y-212.467
X382.433 Y-213.379
X382.462 Y-214.29
X382.488 Y-215.202
X382.511 Y-216.113
X382.53 Y-217.025
X382.547 Y-217.936
X382.561 Y-218.848
X382.573 Y-219.76
X382.583 Y-220.672
X382.592 Y-221.583
X382.598 Y-222.495
X382.604 Y-223.407
X382.608 Y-224.319
X382.611 Y-225.23
X382.613 Y-226.142
X382.612 Y-227.054
X382.608 Y-227.966
X382.598 Y-228.878
X382.576 Y-229.789
X382.534 Y-230.7
X382.419 Y-231.605
X382.137 Y-232.472
X381.68 Y-233.261
X381.078 Y-233.946
X380.372 Y-234.523
X379.595 Y-234.999
X378.769 Y-235.385
X377.911 Y-235.696
X377.034 Y-235.943
X376.143 Y-236.139
X375.245 Y-236.294
X374.341 Y-236.416
X373.434 Y-236.512
X372.526 Y-236.587
X371.616 Y-236.646
X370.705 Y-236.692
X369.794 Y-236.728
X368.883 Y-236.756
X367.971 Y-236.778
X367.059 Y-236.795
X366.148 Y-236.808
X365.236 Y-236.819
X364.324 Y-236.827
X363.412 Y-236.833
X362.501 Y-236.838
X360.677 Y-236.845
X357.941 Y-236.85
X354.294 Y-236.853
X352.471 Y-236.852
X351.559 Y-236.85
X350.647 Y-236.846
X349.735 Y-236.837
X348.824 Y-236.817
X347.913 Y-236.781
X347.002 Y-236.726
X346.093 Y-236.655
X345.185 Y-236.572
X344.278 Y-236.484
X343.37 Y-236.398
X342.462 Y-236.32
X341.552 Y-236.255
X340.911 Y-236.22
X340.857 Y-236.219
X337.468
X336.558 Y-236.265
X335.646 Y-236.267
X334.734 Y-236.282
X333.823 Y-236.306
X332.911 Y-236.335
X331.089 Y-236.398
X330.178 Y-236.428
X329.266 Y-236.457
X328.355 Y-236.482
X327.443 Y-236.505
X326.532 Y-236.525
X325.62 Y-236.543
X324.708 Y-236.557
X323.797 Y-236.57
X322.885 Y-236.58
X321.973 Y-236.589
X321.061 Y-236.596
X320.149 Y-236.602
X318.326 Y-236.611
X316.502 Y-236.617
X313.767 Y-236.622
X309.208 Y-236.625
X297.354 Y-236.626
X287.324
X265.441
X264.529 Y-236.625
X263.617 Y-236.617
X262.706 Y-236.595
X261.795 Y-236.556
X260.884 Y-236.502
X259.975 Y-236.436
X258.157 Y-236.293
X257.247 Y-236.228
X257.111 Y-236.22
X257.053 Y-236.219
X252.107
X251.197 Y-236.265
X250.285 Y-236.268
X249.373 Y-236.287
X248.462 Y-236.316
X247.551 Y-236.353
X246.64 Y-236.394
X244.818 Y-236.479
X243.908 Y-236.52
X242.997 Y-236.56
X242.086 Y-236.597
X241.174 Y-236.631
X240.263 Y-236.662
X239.352 Y-236.69
X238.44 Y-236.715
X237.529 Y-236.736
X236.617 Y-236.755
X235.705 Y-236.772
X234.794 Y-236.786
X233.882 Y-236.797
X232.97 Y-236.807
X232.058 Y-236.816
X231.147 Y-236.823
X230.235 Y-236.829
X228.411 Y-236.838
X226.588 Y-236.844
X223.852 Y-236.849
X220.205 Y-236.853
X212.91 Y-236.855
X202.88
X201.969 Y-236.854
X201.057 Y-236.853
X200.145 Y-236.85
X199.233 Y-236.846
X198.321 Y-236.84
X197.41 Y-236.832
X196.498 Y-236.823
X195.586 Y-236.812
X193.763 Y-236.786
X190.116 Y-236.732
X188.292 Y-236.708
X186.469 Y-236.688
X184.645 Y-236.671
X182.822 Y-236.658
X180.998 Y-236.649
X179.175 Y-236.642
X176.439 Y-236.635
X172.792 Y-236.63
X167.321 Y-236.627
X163.674 Y-236.626
X162.762 Y-236.622
X161.85 Y-236.608
X160.939 Y-236.579
X160.028 Y-236.533
X159.118 Y-236.473
X158.209 Y-236.403
X157.3 Y-236.331
X156.391 Y-236.264
X155.715 Y-236.22
X155.651 Y-236.219
X150.793
X149.882 Y-236.265
X148.971 Y-236.271
X148.059 Y-236.293
X147.148 Y-236.325
X146.237 Y-236.364
X145.326 Y-236.406
X143.505 Y-236.494
X142.594 Y-236.536
X141.683 Y-236.576
X140.772 Y-236.613
X139.861 Y-236.647
X138.949 Y-236.677
X138.038 Y-236.703
X137.126 Y-236.727
X136.215 Y-236.748
X135.303 Y-236.765
X134.391 Y-236.78
X133.48 Y-236.793
X132.568 Y-236.804
X131.656 Y-236.813
X130.744 Y-236.821
X129.833 Y-236.827
X128.009 Y-236.837
X126.185 Y-236.843
X123.45 Y-236.849
X119.803 Y-236.853
X112.508 Y-236.855
X102.478
X100.655 Y-236.852
X99.743 Y-236.85
X98.831 Y-236.845
X97.919 Y-236.839
X97.007 Y-236.831
X96.096 Y-236.821
X95.184 Y-236.81
X93.36 Y-236.785
X89.714 Y-236.731
X87.89 Y-236.707
X86.067 Y-236.687
X84.243 Y-236.671
X82.419 Y-236.658
X80.596 Y-236.648
X78.772 Y-236.641
X77.86 Y-236.637
X76.949 Y-236.625
X76.037 Y-236.6
X75.126 Y-236.559
X74.216 Y-236.502
X73.307 Y-236.434
X72.398 Y-236.361
X71.489 Y-236.29
X70.58 Y-236.225
X70.481 Y-236.22
X70.425 Y-236.219
X65.432
X64.522 Y-236.265
X63.61 Y-236.267
X62.698 Y-236.284
X61.787 Y-236.309
X60.875 Y-236.339
X59.053 Y-236.402
X58.141 Y-236.433
X57.23 Y-236.461
X56.319 Y-236.486
X55.407 Y-236.509
X54.495 Y-236.528
X53.584 Y-236.545
X52.672 Y-236.56
X51.76 Y-236.572
X49.937 Y-236.593
X48.113 Y-236.612
X46.29 Y-236.634
X44.466 Y-236.66
X39.908 Y-236.733
X38.085 Y-236.76
X37.173 Y-236.773
X36.261 Y-236.784
X35.349 Y-236.794
X34.438 Y-236.803
X32.614 Y-236.818
X30.79 Y-236.829
X28.967 Y-236.836
X28.055 Y-236.838
X27.143
X26.231 Y-236.835
X25.32 Y-236.824
X24.42 Y-236.676
X23.586 Y-236.306
X22.859 Y-235.757
X22.25 Y-235.078
X21.753 Y-234.313
X21.354 Y-233.494
X21.037 Y-232.639
X20.949 Y-232.332
X20.881 Y-232.142
X20.787 Y-231.963
X20.67 Y-231.798
X20.058 Y-231.052
X19.924 Y-230.857
X19.785 Y-230.649
X19.664 Y-230.442
X19 Y-229.2
X18.892 Y-228.993
X18.79 Y-228.786
X18.708 Y-228.579
X18.636 Y-228.371
X18.258 Y-227.129
X18.082 Y-226.508
X18.048 Y-226.301
X17.986 Y-225.836
X17.869 Y-224.644
X17.851 Y-224.437
X17.825 Y-223.815
Y-213.204
G3 X17.772 Y-212.95 Z-3.047 I-0.635 J0 F200
G1 X17.747 Y-212.884 Z-3.033
X17.73 Y-212.816 Z-3.019
X17.721 Y-212.747 Z-3.005
X17.696 Y-212.45 Z-2.946
X17.678 Y-212.224 Z-2.9 F400
X17.517 Y-210.242
X17.516 Y-210.147
X17.529 Y-210.054
X17.547 Y-209.988 Z-2.914
X17.572 Y-209.925 Z-2.927
X17.604 Y-209.865 Z-2.941
X17.616 Y-209.845 Z-2.946
G3 X17.825 Y-209.112 Z-3.1 I-1.372 J0.788
G1 Y-177.735
G3 X17.772 Y-177.48 Z-3.047 I-0.635 J0 F200
G1 X17.748 Y-177.416 Z-3.034
X17.731 Y-177.351 Z-3.02
X17.721 Y-177.283 Z-3.007
X17.694 Y-176.98 Z-2.946
X17.673 Y-176.754 Z-2.9 F400
X17.517 Y-175.042
X17.516 Y-174.945
X17.529 Y-174.848
X17.547 Y-174.783 Z-2.914
X17.572 Y-174.72 Z-2.927
X17.604 Y-174.66 Z-2.941
X17.616 Y-174.639 Z-2.946
G3 X17.825 Y-173.906 Z-3.1 I-1.372 J0.788
G1 Y-84.757
X17.824 Y-84.742
Y-84.673
X17.825 Y-84.65
Y-52.525
G3 X17.772 Y-52.271 Z-3.047 I-0.635 J0 F200
G1 X17.739 Y-52.176 Z-3.027
X17.722 Y-52.077 Z-3.007
X17.692 Y-51.771 Z-2.946
X17.67 Y-51.545 Z-2.9 F400
X17.517 Y-49.962
X17.516 Y-49.863
X17.529 Y-49.765
X17.547 Y-49.699 Z-2.914
X17.572 Y-49.636 Z-2.927
X17.604 Y-49.576 Z-2.941
G3 X17.825 Y-48.823 Z-3.1 I-1.36 J0.809
G1 Y-30.185
X17.851 Y-29.563
X17.869 Y-29.356
X17.986 Y-28.163
X18.048 Y-27.699
X18.082 Y-27.492
X18.258 Y-26.871
X18.636 Y-25.629
X18.708 Y-25.421
X18.79 Y-25.214
X18.892 Y-25.007
X19.022 Y-24.759
X19.664 Y-23.558
X19.785 Y-23.351
X19.925 Y-23.143
X20.058 Y-22.948
X21.094 Y-21.685
X21.268 Y-21.487
X21.301 Y-21.45
X21.466 Y-21.28
X21.702 Y-21.073
X22.965 Y-20.037
X23.166 Y-19.895
X23.373 Y-19.757
X23.58 Y-19.632
X24.824 Y-18.967
X25.031 Y-18.858
X25.238 Y-18.757
X25.445 Y-18.672
X25.652 Y-18.598
X26.895 Y-18.221
X27.103 Y-18.161
X27.517 Y-18.045
X27.724 Y-18.006
X28.139 Y-17.952
X28.346 Y-17.929
X29.589 Y-17.807
X30.21 Y-17.783
X30.418 Y-17.781
X57.622
G3 X57.876 Y-17.728 Z-3.047 I0 J0.635 F200
G1 X57.946 Y-17.702 Z-3.032
X58.019 Y-17.685 Z-3.017
X58.094 Y-17.676 Z-3.002
X58.377 Y-17.66 Z-2.946
X58.603 Y-17.647 Z-2.9 F400
X61.624 Y-17.472
X61.711 Y-17.473
X61.797 Y-17.486
X61.862 Y-17.504 Z-2.914
X61.925 Y-17.529 Z-2.927
X61.985 Y-17.56 Z-2.941
G3 X62.739 Y-17.781 Z-3.1 I0.809 J1.36
G1 X143.064
G3 X143.318 Y-17.728 Z-3.047 I0 J0.635 F200
G1 X143.389 Y-17.702 Z-3.032
X143.461 Y-17.685 Z-3.017
X143.535 Y-17.676 Z-3.002
X143.819 Y-17.659 Z-2.946
X144.045 Y-17.646 Z-2.9 F400
X146.984 Y-17.472
X147.071 Y-17.473
X147.158 Y-17.486
X147.223 Y-17.504 Z-2.914
X147.286 Y-17.529 Z-2.927
X147.346 Y-17.56 Z-2.941
X147.367 Y-17.572 Z-2.946
G3 X148.1 Y-17.781 Z-3.1 I0.788 J1.372
G1 X244.452
G3 X244.707 Y-17.728 Z-3.047 I0 J0.635 F200
G1 X244.776 Y-17.703 Z-3.033
X244.847 Y-17.685 Z-3.018
X244.92 Y-17.676 Z-3.003
X245.207 Y-17.658 Z-2.946
X245.434 Y-17.643 Z-2.9 F400
X248.088 Y-17.472
X248.177 Y-17.473
X248.265 Y-17.486
X248.33 Y-17.504 Z-2.914
X248.393 Y-17.529 Z-2.927
X248.453 Y-17.56 Z-2.941
X248.474 Y-17.572 Z-2.946
G3 X249.207 Y-17.781 Z-3.1 I0.788 J1.372
G1 X331.21
G3 X331.465 Y-17.728 I0 J0.635 F200
G1 X331.543 Y-17.7
X331.625 Y-17.682
X331.978 Y-17.629
X332.981 Y-17.478 F400
G2 X333.4 Y-17.56 I0.094 J-0.628
G3 X334.153 Y-17.781 I0.809 J1.36
G1 X369.582
X369.79 Y-17.783
X370.411 Y-17.807
X371.654 Y-17.929
X371.861 Y-17.952
X372.276 Y-18.006
X372.483 Y-18.045
X372.941 Y-18.173
X373.105 Y-18.221
X374.348 Y-18.598
X374.555 Y-18.672
X374.762 Y-18.757
X374.969 Y-18.858
X375.24 Y-19.002
X376.42 Y-19.632
X376.627 Y-19.757
X376.834 Y-19.895
X377.035 Y-20.037
X378.298 Y-21.073
X378.534 Y-21.28
X378.699 Y-21.45
X378.732 Y-21.487
X378.913 Y-21.694
X379.942 Y-22.948
X380.075 Y-23.143
X380.214 Y-23.351
X380.335 Y-23.558
X381 Y-24.8
X381.108 Y-25.007
X381.21 Y-25.214
X381.292 Y-25.421
X381.364 Y-25.629
X381.742 Y-26.871
X381.918 Y-27.492
X381.952 Y-27.699
X382.014 Y-28.164
X382.131 Y-29.356
X382.149 Y-29.563
X382.175 Y-30.185
Y-76.3
G3 X382.228 Y-76.555 Z-3.047 I0.635 J0 F200
G1 X382.252 Y-76.618 Z-3.034
X382.269 Y-76.684 Z-3.02
X382.279 Y-76.751 Z-3.007
X382.307 Y-77.054 Z-2.946
X382.328 Y-77.28 Z-2.9 F400
X382.483 Y-78.957
X382.484 Y-79.055
X382.471 Y-79.152
X382.453 Y-79.217 Z-2.914
X382.428 Y-79.28 Z-2.927
X382.396 Y-79.34 Z-2.941
X382.384 Y-79.361 Z-2.946
G3 X382.175 Y-80.094 Z-3.1 I1.372 J-0.788
G1 Y-166.286
G3 X382.228 Y-166.54 Z-3.047 I0.635 J0 F200
G1 X382.261 Y-166.635 Z-3.027
X382.278 Y-166.733 Z-3.007
X382.308 Y-167.04 Z-2.946
X382.33 Y-167.266 Z-2.9 F400
X382.483 Y-168.832
X382.484 Y-168.931
X382.471 Y-169.03
X382.453 Y-169.095 Z-2.914
X382.428 Y-169.158 Z-2.927
X382.396 Y-169.218 Z-2.941
G3 X382.175 Y-169.972 Z-3.1 I1.36 J-0.809
G1 Y-201.501
G3 X382.228 Y-201.755 Z-3.047 I0.635 J0 F200
G1 X382.261 Y-201.85 Z-3.027
X382.278 Y-201.948 Z-3.007
X382.308 Y-202.255 Z-2.946
X382.33 Y-202.481 Z-2.9 F400
X382.483 Y-204.037
X382.484 Y-204.137
X382.471 Y-204.235
X382.453 Y-204.301 Z-2.914
X382.428 Y-204.364 Z-2.927
X382.396 Y-204.424 Z-2.941
G3 X382.175 Y-205.177 Z-3.1 I1.36 J-0.809
G1 Y-223.815
X382.149 Y-224.437
X382.131 Y-224.644
X382.014 Y-225.836
X381.952 Y-226.301
X381.918 Y-226.508
X381.742 Y-227.129
X381.364 Y-228.371
X381.292 Y-228.579
X381.21 Y-228.786
X381.108 Y-228.993
X380.978 Y-229.242
X380.336 Y-230.442
X380.215 Y-230.649
X380.075 Y-230.857
X379.942 Y-231.052
X378.906 Y-232.316
X378.732 Y-232.513
X378.699 Y-232.55
X378.534 Y-232.72
X378.299 Y-232.927
X377.036 Y-233.963
X376.834 Y-234.106
X376.627 Y-234.243
X376.42 Y-234.368
X375.176 Y-235.032
X374.969 Y-235.142
X374.762 Y-235.242
X374.555 Y-235.328
X374.348 Y-235.402
X373.105 Y-235.78
X372.897 Y-235.839
X372.483 Y-235.955
X372.276 Y-235.995
X371.861 Y-236.048
X371.654 Y-236.071
X370.411 Y-236.194
X369.79 Y-236.218
X369.582 Y-236.219
X340.857
G3 X340.603 Y-236.272 Z-3.047 I0 J-0.635 F200
G1 X340.513 Y-236.304 Z-3.028
X340.42 Y-236.321 Z-3.009
X340.104 Y-236.357 Z-2.946
X339.878 Y-236.383 Z-2.9 F400
X338.618 Y-236.525
X338.548 Y-236.53
X338.479 Y-236.526
X338.41 Y-236.515
X338.345 Y-236.497 Z-2.914
X338.282 Y-236.472 Z-2.927
X338.222 Y-236.44 Z-2.941
X338.202 Y-236.428 Z-2.946
G3 X337.468 Y-236.219 Z-3.1 I-0.788 J-1.372
G1 X257.053
G3 X256.799 Y-236.272 Z-3.047 I0 J-0.635 F200
G1 X256.729 Y-236.298 Z-3.033
X256.657 Y-236.315 Z-3.018
X256.583 Y-236.324 Z-3.003
X256.298 Y-236.342 Z-2.946
X256.072 Y-236.355 Z-2.9 F400
X253.224 Y-236.528
X253.136
X253.049 Y-236.515
X252.984 Y-236.497 Z-2.914
X252.921 Y-236.472 Z-2.927
X252.861 Y-236.44 Z-2.941
G3 X252.107 Y-236.219 Z-3.1 I-0.809 J-1.36
G1 X155.651
G3 X155.397 Y-236.272 Z-3.047 I0 J-0.635 F200
G1 X155.327 Y-236.298 Z-3.033
X155.255 Y-236.315 Z-3.018
X155.182 Y-236.324 Z-3.003
X154.896 Y-236.342 Z-2.946
X154.67 Y-236.356 Z-2.9 F400
X151.911 Y-236.528
X151.822
X151.735 Y-236.515
X151.67 Y-236.497 Z-2.914
X151.607 Y-236.472 Z-2.927
X151.547 Y-236.44 Z-2.941
G3 X150.793 Y-236.219 Z-3.1 I-0.809 J-1.36
G1 X70.425
G3 X70.17 Y-236.272 Z-3.047 I0 J-0.635 F200
G1 X70.1 Y-236.298 Z-3.033
X70.028 Y-236.315 Z-3.018
X69.954 Y-236.324 Z-3.003
X69.67 Y-236.341 Z-2.946
X69.443 Y-236.355 Z-2.9 F400
X66.548 Y-236.528
X66.461
X66.374 Y-236.515
X66.309 Y-236.497 Z-2.914
X66.246 Y-236.472 Z-2.927
X66.186 Y-236.44 Z-2.941
G3 X65.432 Y-236.219 Z-3.1 I-0.809 J-1.36
G1 X30.418
X30.21 Y-236.218
X29.589 Y-236.194
X28.346 Y-236.071
X28.139 Y-236.048
X27.724 Y-235.995
X27.517 Y-235.955
X27.059 Y-235.827
X26.895 Y-235.78
X25.652 Y-235.402
X25.445 Y-235.328
X25.238 Y-235.242
X25.031 Y-235.142
X24.76 Y-234.998
X23.58 Y-234.368
X23.373 Y-234.243
X23.166 Y-234.106
X22.959 Y-233.958
X21.701 Y-232.927
X21.466 Y-232.72
X21.301 Y-232.55
X21.268 Y-232.513
X21.087 Y-232.306
X20.67 Y-231.798
G3 X19.953 Y-231.63 I-0.477 J-0.42 F200
G1 X19.861 Y-231.668 Z-3.092
X19.771 Y-231.704 Z-3.069
X19.686 Y-231.739 Z-3.031
X19.607 Y-231.771 Z-2.979
X19.537 Y-231.8 Z-2.914
X19.477 Y-231.825 Z-2.838
X19.429 Y-231.844 Z-2.753
X19.394 Y-231.859 Z-2.661
X19.372 Y-231.867 Z-2.564
X19.365 Y-231.87 Z-2.465
G0 Z15

G28 G91 Z0
G90
G28 G91 X0 Y0
G90
M5
M30
