(glassSheild_12mm_holes_02)
(T50 D=3.175 CR=0 - ZMIN=-14 - flat end mill)
G90 G94
G17
G21
G28 G91 Z0
G90

(2D Contour16)
T50
S18000 M3
G17 G90 G94
G54
G0 X251.066 Y-246
Z15
G0 Z5
G1 Z0.635 F50
Z-14
G3 X250.24 Y-246 I-0.413 J0
X251.066 Y-246 I0.413 J0
G0 Z5
X336.358
G1 Z0.635 F50
Z-14
G3 X335.534 Y-246 I-0.412 J0
X336.358 Y-246 I0.412 J0
G0 Z5
X392.413 Y-207.277
G1 Z0.635 F50
Z-14
G3 X391.587 Y-207.277 I-0.413 J0
X392.413 Y-207.277 I0.413 J0
G0 Z5
Y-171.937
G1 Z0.635 F50
Z-14
G3 X391.587 Y-171.937 I-0.413 J0
X392.413 Y-171.937 I0.413 J0
G0 Z5
Y-82.063
G1 Z0.635 F50
Z-14
G3 X391.587 Y-82.063 I-0.413 J0
X392.413 Y-82.063 I0.413 J0
G0 Z5
Y-46.723
G1 Z0.635 F50
Z-14
G3 X391.587 Y-46.723 I-0.413 J0
X392.413 Y-46.723 I0.413 J0
G0 Z5
X336.358 Y-8
G1 Z0.635 F50
Z-14
G3 X335.534 Y-8 I-0.412 J0
X336.358 Y-8 I0.412 J0
G0 Z5
X251.066
G1 Z0.635 F50
Z-14
G3 X250.24 Y-8 I-0.413 J0
X251.066 Y-8 I0.413 J0
G0 Z5
X149.76
G1 Z0.635 F50
Z-14
G3 X148.934 Y-8 I-0.413 J0
X149.76 Y-8 I0.413 J0
G0 Z5
X64.346 Y-7.708
G1 Z0.635 F50
Z-14
G3 X63.762 Y-8.292 I-0.292 J-0.292
X64.346 Y-7.708 I0.292 J0.292
G0 Z5
X8.413 Y-46.723
G1 Z0.635 F50
Z-14
G3 X7.587 Y-46.723 I-0.413 J0
X8.413 Y-46.723 I0.413 J0
G0 Z5
Y-82.063
G1 Z0.635 F50
Z-14
G3 X7.587 Y-82.063 I-0.413 J0
X8.413 Y-82.063 I0.413 J0
G0 Z5
Y-171.937
G1 Z0.635 F50
Z-14
G3 X7.587 Y-171.937 I-0.413 J0
X8.413 Y-171.937 I0.413 J0
G0 Z5
Y-207.277
G1 Z0.635 F50
Z-14
G3 X7.587 Y-207.277 I-0.413 J0
X8.413 Y-207.277 I0.413 J0
G0 Z5
X64.467 Y-246
G1 Z0.635 F50
Z-14
G3 X63.642 Y-246 I-0.412 J0
X64.467 Y-246 I0.412 J0
G0 Z5
X149.76
G1 Z0.635 F50
Z-14
G3 X148.934 Y-246 I-0.413 J0
X149.76 Y-246 I0.413 J0
G0 Z15

G28 G91 Z0
G90
G28 G91 X0 Y0
G90
M5
M30
