(glassSheild_12mm_outline_01)
(T8 D=6.35 CR=0 - ZMIN=-14 - flat end mill)
G90 G94
G17
G21
G28 G91 Z0
G90

(2D Contour17)
T8
S18000 M3
G17 G90 G94
G54
M8
G0 X385.635 Y-259.08
Z15
G0 Z5
G1 Z1 F16.7
Z-13.365
G19 G3 Y-258.445 Z-14 J0.635 K0 F50
G1 Y-257.81
G17 G3 X385 Y-257.175 I-0.635 J0
G1 X15
G2 X-3.175 Y-239 I0 J18.175
G1 Y-15
G2 X15 Y3.175 I18.175 J0
G1 X385
G2 X403.175 Y-15 I0 J-18.175
G1 Y-239
G2 X385 Y-257.175 I-18.175 J0
G3 X384.365 Y-257.81 I0 J-0.635
G1 Y-258.445
G19 G2 Y-259.08 Z-13.365 J0 K0.635
G0 Z15
G17

M9
G28 G91 Z0
G90
G28 G91 X0 Y0
G90
M5
M30
