(holder_v1)
(T1 D=3.175 CR=0 - ZMIN=-13.7 - flat end mill)
G90 G94
G17
G21
G28 G91 Z0
G90

(2D Contour1)
T1
S18000 M3
G17 G90 G94
G54
G0 X100.09 Y-13.09
Z15
G0 Z5
G1 Z1 F25
Z-13.383
X100.096 Y-13.095 Z-13.453
X100.113 Y-13.112 Z-13.52
X100.139 Y-13.139 Z-13.58
X100.175 Y-13.174 Z-13.631
X100.217 Y-13.217 Z-13.669
X100.265 Y-13.264 Z-13.692
X100.315 Y-13.314 Z-13.7
X100.539 Y-13.539
G3 X100.988 Y-13.539 I0.224 J0.225
G1 X106.582 Y-7.944
G3 X105.584 Y-5.533 I-0.998 J0.999
G1 X89.416
G3 X88.417 Y-7.944 I0 J-1.412
G1 X94.972 Y-14.499
G3 X95.97 Y-14.913 I0.999 J0.999
G1 X99.03
G3 X100.028 Y-14.499 I0 J1.413
G1 X100.988 Y-13.539
G3 X100.988 Y-13.09 I-0.225 J0.224
G1 X100.764 Y-12.865
X100.714 Y-12.815 Z-13.692
X100.666 Y-12.768 Z-13.669
X100.624 Y-12.725 Z-13.631
X100.588 Y-12.69 Z-13.58
X100.562 Y-12.663 Z-13.52
X100.545 Y-12.646 Z-13.453
X100.539 Y-12.641 Z-13.383
G0 Z5
X125.418 Y-7.804
G1 Z1 F25
Z-13.383
X125.423 Y-7.798 Z-13.453
X125.44 Y-7.782 Z-13.52
X125.467 Y-7.755 Z-13.58
X125.502 Y-7.719 Z-13.631
X125.545 Y-7.677 Z-13.669
X125.592 Y-7.629 Z-13.692
X125.642 Y-7.579 Z-13.7
X125.867 Y-7.355
G3 X125.867 Y-6.906 I-0.225 J0.224
G1 X124.907 Y-5.946
G3 X123.908 Y-5.533 I-0.999 J-0.999
G1 X121.14
G3 X120.142 Y-5.947 I0 J-1.412
G1 X113.588 Y-12.501
G3 X114.586 Y-14.913 I0.998 J-0.999
G1 X130.467
G3 X131.465 Y-12.501 I0 J1.412
G1 X125.867 Y-6.906
G3 X125.418 Y-6.906 I-0.224 J-0.225
G1 X125.193 Y-7.13
X125.143 Y-7.18 Z-13.692
X125.096 Y-7.228 Z-13.669
X125.053 Y-7.27 Z-13.631
X125.018 Y-7.306 Z-13.58
X124.991 Y-7.333 Z-13.52
X124.974 Y-7.349 Z-13.453
X124.969 Y-7.355 Z-13.383
G0 Z5
X147.066 Y-13.96
G1 Z1 F25
Z-13.383
G19 G2 Y-14.278 Z-13.7 J-0.318 K0
G1 Y-14.595
G17 G3 X147.384 Y-14.913 I0.317 J0
G1 X148.87
G3 X149.868 Y-14.499 I0 J1.412
G1 X156.424 Y-7.944
G3 X155.425 Y-5.533 I-0.999 J0.999
G1 X139.472
G3 X138.473 Y-7.944 I0 J-1.413
G1 X145.027 Y-14.499
G3 X146.026 Y-14.913 I0.999 J0.999
G1 X147.384
G3 X147.701 Y-14.595 I0 J0.318
G1 Y-14.278
G19 G3 Y-13.96 Z-13.383 J0 K0.318
G0 Z5
X173.886 Y-11.182
G1 Z1 F25
Z-13.383
G18 G2 X174.204 Z-13.7 I0.318 K0
G1 X174.521
G17 G3 X174.839 Y-10.864 I0 J0.317
G1 Y-8.929
G3 X171.146 Y-5.528 I-3.412 J0
G1 X171.016 Y-5.533
X170.981
G3 X169.983 Y-5.947 I0 J-1.412
G1 X163.427 Y-12.501
G3 X164.426 Y-14.913 I0.999 J-0.999
G1 X171.426
G3 X174.839 Y-11.5 I0 J3.413
G1 Y-10.864
G3 X174.521 Y-10.547 I-0.318 J0
G1 X174.204
G18 G3 X173.886 Z-13.383 I0 K0.318
G0 Z5
X188.973 Y-10.031
G1 Z1 F25
Z-13.383
X188.981 Y-10.03 Z-13.453
X189.004 Y-10.029 Z-13.52
X189.042 Y-10.026 Z-13.58
X189.092 Y-10.022 Z-13.631
X189.152 Y-10.018 Z-13.669
X189.219 Y-10.013 Z-13.692
X189.289 Y-10.008 Z-13.7
X189.606 Y-9.985
G17 G3 X189.9 Y-9.646 I-0.023 J0.317
X180.1 Y-10.354 I-4.9 J-0.354
X189.9 Y-9.646 I4.9 J0.354
X189.56 Y-9.352 I-0.317 J-0.023
G1 X189.243 Y-9.375
X189.173 Y-9.38 Z-13.692
X189.106 Y-9.385 Z-13.669
X189.046 Y-9.389 Z-13.631
X188.996 Y-9.393 Z-13.58
X188.958 Y-9.395 Z-13.52
X188.935 Y-9.397 Z-13.453
X188.927 Y-9.398 Z-13.383
G0 Z5
X72.766 Y-6.486
G1 Z1 F25
Z-13.383
G19 G3 Y-6.168 Z-13.7 J0.318 K0
G1 Y-5.851
G17 G3 X72.449 Y-5.533 I-0.318 J0
G1 X71.092
G3 X70.093 Y-5.946 I0 J-1.413
G1 X63.535 Y-12.501
G3 X64.533 Y-14.913 I0.999 J-0.999
G1 X80.414
G3 X81.413 Y-12.501 I0 J1.413
G1 X74.858 Y-5.947
G3 X73.86 Y-5.533 I-0.999 J-0.999
G1 X72.449
G3 X72.131 Y-5.851 I0 J-0.318
G1 Y-6.168
G19 G2 Y-6.486 Z-13.383 J0 K0.318
G0 Z5
X50.034 Y-13.09
G1 Z1 F25
Z-13.383
X50.04 Y-13.096 Z-13.453
X50.057 Y-13.112 Z-13.52
X50.083 Y-13.139 Z-13.58
X50.119 Y-13.174 Z-13.631
X50.161 Y-13.217 Z-13.669
X50.209 Y-13.264 Z-13.692
X50.259 Y-13.314 Z-13.7
X50.483 Y-13.539
G17 G3 X50.932 Y-13.539 I0.225 J0.225
G1 X56.527 Y-7.944
G3 X55.528 Y-5.533 I-0.999 J0.999
G1 X39.575
G3 X38.577 Y-7.944 I0 J-1.412
G1 X45.131 Y-14.499
G3 X46.13 Y-14.913 I0.999 J0.999
G1 X48.974
G3 X49.973 Y-14.499 I0 J1.412
G1 X50.932 Y-13.539
G3 X50.932 Y-13.09 I-0.225 J0.225
G1 X50.708 Y-12.865
X50.658 Y-12.815 Z-13.692
X50.611 Y-12.768 Z-13.669
X50.568 Y-12.725 Z-13.631
X50.532 Y-12.69 Z-13.58
X50.506 Y-12.663 Z-13.52
X50.489 Y-12.647 Z-13.453
X50.483 Y-12.641 Z-13.383
G0 Z5
X26.624 Y-8.9
G1 Z1 F25
Z-13.383
X26.629 Y-8.894 Z-13.453
X26.646 Y-8.877 Z-13.52
X26.673 Y-8.851 Z-13.58
X26.708 Y-8.815 Z-13.631
X26.751 Y-8.772 Z-13.669
X26.798 Y-8.725 Z-13.692
X26.848 Y-8.675 Z-13.7
X27.073 Y-8.45
G3 X27.073 Y-8.001 I-0.225 J0.225
G1 X25.018 Y-5.947
G3 X24.019 Y-5.533 I-0.999 J-0.999
G1 X23.984
X23.854 Y-5.528
G3 X20.162 Y-8.929 I-0.28 J-3.401
G1 Y-11.5
G3 X23.574 Y-14.913 I3.412 J0
G1 X30.573
G3 X31.572 Y-12.501 I0 J1.412
G1 X27.073 Y-8.001
G3 X26.624 Y-8.001 I-0.225 J-0.225
G1 X26.399 Y-8.226
X26.349 Y-8.276 Z-13.692
X26.302 Y-8.323 Z-13.669
X26.259 Y-8.366 Z-13.631
X26.223 Y-8.402 Z-13.58
X26.197 Y-8.428 Z-13.52
X26.18 Y-8.445 Z-13.453
X26.175 Y-8.45 Z-13.383
G0 Z5
X13.96 Y-10.318
G1 Z1 F25
Z-13.383
G18 G2 X14.278 Z-13.7 I0.318 K0
G1 X14.595
G17 G3 X14.913 Y-10 I0 J0.318
X5.087 Y-10 I-4.913 J0
X14.913 Y-10 I4.913 J0
X14.595 Y-9.682 I-0.318 J0
G1 X14.278
G18 G3 X13.96 Z-13.383 I0 K0.318
G0 Z15
G17
G28 G91 Z0
G90
G28 G91 X0 Y0
G90
M5
M30
