(hole_04)
(T1 D=3.175 CR=0 - ZMIN=-13.7 - flat end mill)
G90 G94
G17
G21
G28 G91 Z0
G90

(2D Contour1)
T1
S18000 M3
G17 G90 G94
G54
G0 X12.46 Y-10.318
Z15
G0 Z5
G1 Z1 F25
Z-13.383
G18 G2 X12.778 Z-13.7 I0.318 K0
G1 X13.095
G17 G3 X13.413 Y-10 I0 J0.318
X6.587 Y-10 I-3.413 J0
X13.413 Y-10 I3.413 J0
X13.095 Y-9.682 I-0.318 J0
G1 X12.778
G18 G3 X12.46 Z-13.383 I0 K0.318
G0 Z15
G17
G28 G91 Z0
G90
G28 G91 X0 Y0
G90
M5
M30
