(1001)
(T1 D=3.175 CR=0 - ZMIN=-6.76 - flat end mill)
G90 G94
G17
G21
G28 G91 Z0
G90

(2D Contour1)
T1
S18000 M3
G17 G90 G94
G54
G0 X225.837 Y-67.272
Z15
G0 Z5
G1 Z0.635 F50
Z-6.443
X225.843 Y-67.266 Z-6.513 F75
X225.859 Y-67.249 Z-6.58
X225.886 Y-67.223 Z-6.64
X225.921 Y-67.187 Z-6.691
X225.964 Y-67.145 Z-6.729
X226.011 Y-67.097 Z-6.752
X226.061 Y-67.047 Z-6.76
X226.286 Y-66.823
G3 X226.286 Y-66.374 I-0.225 J0.225
G1 X218.861 Y-58.949
G3 X218.278 Y-58.949 I-0.292 J-0.292
G1 X203.429 Y-73.798
G3 X203.428 Y-74.382 I0.291 J-0.292
G1 X250.098 Y-121.05
G3 X250.681 Y-121.051 I0.292 J0.291
G1 X265.53 Y-106.201
G3 X265.53 Y-105.619 I-0.291 J0.291
G1 X226.286 Y-66.374
G3 X225.837 Y-66.374 I-0.225 J-0.225
G1 X225.612 Y-66.598
X225.562 Y-66.648 Z-6.752
X225.515 Y-66.696 Z-6.729
X225.472 Y-66.738 Z-6.691
X225.437 Y-66.774 Z-6.64
X225.41 Y-66.8 Z-6.58
X225.394 Y-66.817 Z-6.513
X225.388 Y-66.823 Z-6.443
G0 Z5
X257.079 Y-66.688
G1 Z0.635 F50
Z-6.443
X257.084 Y-66.682 Z-6.513 F75
X257.1 Y-66.665 Z-6.58
X257.126 Y-66.637 Z-6.64
X257.16 Y-66.6 Z-6.691
X257.201 Y-66.556 Z-6.729
X257.247 Y-66.507 Z-6.752
X257.295 Y-66.456 Z-6.76
X257.512 Y-66.224
G3 X257.497 Y-65.775 I-0.232 J0.217
X243.027 Y-66.021 I-7.108 J-7.609
G1 X240.551 Y-68.495
G3 X240.551 Y-69.078 I0.292 J-0.292
G1 X255.401 Y-83.928
G3 X255.984 Y-83.928 I0.292 J0.292
G1 X258.458 Y-81.453
G3 X258.458 Y-66.728 I-7.362 J7.363
G1 X257.751 Y-66.021
G3 X257.497 Y-65.775 I-7.362 J-7.363
X257.048 Y-65.79 I-0.217 J-0.232
G1 X256.831 Y-66.022
X256.783 Y-66.074 Z-6.752
X256.737 Y-66.123 Z-6.729
X256.696 Y-66.167 Z-6.691
X256.662 Y-66.203 Z-6.64
X256.636 Y-66.231 Z-6.58
X256.62 Y-66.248 Z-6.513
X256.615 Y-66.254 Z-6.443
G0 Z5
X310.137 Y-112.817
G1 Z0.635 F50
Z-6.443
G18 G2 X310.454 Z-6.76 I0.318 K0 F75
G1 X310.772
G17 G3 X311.09 Y-112.5 I0 J0.317
G1 Y-57
G3 X310.677 Y-56.588 I-0.413 J0
G1 X289.677
G3 X289.264 Y-57 I0 J-0.412
G1 Y-113
G3 X299.677 Y-123.412 I10.413 J0
G1 X300.677
G3 X311.09 Y-113 I0 J10.412
G1 Y-112.5
G3 X310.772 Y-112.183 I-0.318 J0
G1 X310.454
G18 G3 X310.137 Z-6.443 I0 K0.318
G0 Z5
X347.46 Y-67.817
G1 Z0.635 F50
Z-6.443
G2 X347.777 Z-6.76 I0.318 K0 F75
G1 X348.095
G17 G3 X348.413 Y-67.5 I0 J0.317
G1 Y-67
G3 X338 Y-56.588 I-10.413 J0
G1 X337
G3 X326.587 Y-67 I0 J-10.412
G1 Y-123
G3 X327 Y-123.412 I0.413 J0
G1 X348
G3 X348.413 Y-123 I0 J0.412
G1 Y-67.5
G3 X348.095 Y-67.183 I-0.318 J0
G1 X347.777
G18 G3 X347.46 Z-6.443 I0 K0.318
G0 Z5
X220.534 Y-104.395
G1 Z0.635 F50
Z-6.443
X220.539 Y-104.389 Z-6.513 F75
X220.556 Y-104.373 Z-6.58
X220.583 Y-104.346 Z-6.64
X220.618 Y-104.31 Z-6.691
X220.661 Y-104.268 Z-6.729
X220.708 Y-104.22 Z-6.752
X220.758 Y-104.17 Z-6.76
X220.983 Y-103.946
G17 G3 X220.983 Y-103.497 I-0.225 J0.225
G1 X219.014 Y-101.529
G3 X213.235 Y-103.381 I-2.413 J-2.412
G1 X211.758 Y-112.247
G3 X212.232 Y-112.722 I0.407 J-0.069
G1 X221.099 Y-111.244
G3 X222.951 Y-105.465 I-0.561 J3.366
G1 X220.983 Y-103.497
G3 X220.534 Y-103.497 I-0.225 J-0.225
G1 X220.309 Y-103.721
X220.259 Y-103.771 Z-6.752
X220.212 Y-103.819 Z-6.729
X220.169 Y-103.861 Z-6.691
X220.134 Y-103.897 Z-6.64
X220.107 Y-103.923 Z-6.58
X220.09 Y-103.94 Z-6.513
X220.085 Y-103.946 Z-6.443
G0 Z5
X182.46 Y-67.817
G1 Z0.635 F50
Z-6.443
G18 G2 X182.777 Z-6.76 I0.317 K0 F75
G1 X183.095
G17 G3 X183.413 Y-67.5 I0 J0.317
G1 Y-67
G3 X173 Y-56.588 I-10.413 J0
G1 X172
G3 X161.587 Y-67 I0 J-10.412
G1 Y-113
G3 X172 Y-123.412 I10.413 J0
G1 X173
G3 X183.413 Y-113 I0 J10.412
G1 Y-67.5
G3 X183.095 Y-67.183 I-0.318 J0
G1 X182.777
G18 G3 X182.46 Z-6.443 I0 K0.318
G0 Z5
X136.01 Y-100.044
G1 Z0.635 F50
Z-6.443
G19 G2 Y-100.361 Z-6.76 J-0.318 K0 F75
G1 Y-100.679
G17 G3 X136.328 Y-100.996 I0.318 J0
X147.212 Y-90.113 I0 J10.884
X125.443 Y-90.113 I-10.884 J0
X136.328 Y-100.996 I10.884 J0.001
X136.645 Y-100.678 I0 J0.318
G1 Y-100.361
G19 G3 Y-100.043 Z-6.443 J0 K0.318
G0 Z5
X109.783 Y-67.817
G1 Z0.635 F50
Z-6.443
G18 G2 X110.101 Z-6.76 I0.318 K0 F75
G1 X110.418
G17 G3 X110.735 Y-67.5 I0 J0.317
G1 Y-57
G3 X110.323 Y-56.588 I-0.412 J0
G1 X89.323
G3 X88.911 Y-57 I0 J-0.412
G1 Y-123
G3 X89.323 Y-123.412 I0.413 J0
G1 X110.323
G3 X110.735 Y-123 I0 J0.412
G1 Y-67.5
G3 X110.418 Y-67.182 I-0.317 J0
G1 X110.101
G18 G3 X109.783 Z-6.443 I0 K0.318
G0 Z5
X72.46 Y-67.817
G1 Z0.635 F50
Z-6.443
G2 X72.777 Z-6.76 I0.317 K0 F75
G1 X73.095
G17 G3 X73.412 Y-67.5 I0 J0.317
G1 Y-57
G3 X73 Y-56.588 I-0.412 J0
G1 X52
G3 X51.588 Y-57 I0 J-0.412
G1 Y-68
G3 X62 Y-78.412 I10.412 J0
G1 X63
G3 X73.412 Y-68 I0 J10.412
G1 Y-67.5
G3 X73.095 Y-67.183 I-0.317 J0
G1 X72.777
G18 G3 X72.46 Z-6.443 I0 K0.318
G0 Z5
Y-112.817
G1 Z0.635 F50
Z-6.443
G2 X72.777 Z-6.76 I0.317 K0 F75
G1 X73.095
G17 G3 X73.412 Y-112.5 I0 J0.317
G1 Y-101.958
G3 X63 Y-91.545 I-10.413 J0
G1 X62
G3 X51.588 Y-101.958 I0 J-10.413
G1 Y-123
G3 X52 Y-123.412 I0.412 J0
G1 X73
G3 X73.412 Y-123 I0 J0.412
G1 Y-112.5
G3 X73.095 Y-112.183 I-0.317 J0
G1 X72.777
G18 G3 X72.46 Z-6.443 I0 K0.318
G0 Z15
G17

G28 G91 Z0
G90
G28 G91 X0 Y0
G90
M5
M30
