(lightAdampterClearing_v1)
(T1 D=3.175 CR=0 - ZMIN=-1 - flat end mill)
G90 G94
G17
G21
G28 G91 Z0
G90

(2D Adaptive1)
T1
S18000 M3
G17 G90 G94
G54
M8
G0 X63.576 Y-12.742
Z15
G0 Z5
Z-0.365
G1 Z-0.683 F50
X63.57 Y-12.738 Z-0.753
X63.549 Y-12.726 Z-0.82
X63.517 Y-12.706 Z-0.88
X63.474 Y-12.681 Z-0.931
X63.422 Y-12.65 Z-0.969
X63.364 Y-12.616 Z-0.992
X63.304 Y-12.58 Z-1
G3 X61.628 Y-12.087 I-1.798 J-3.024
G1 X61.438
X61.401 Y-12.089
X61.285 Y-12.185
X61.184 Y-12.296
X61.094 Y-12.416
X60.999 Y-12.569
X60.896 Y-12.766
X60.788 Y-13.022
X60.675 Y-13.366
X60.558 Y-13.851
X60.457 Y-14.485
X60.398 Y-15.133
X60.415 Y-15.332
X60.484 Y-15.519
X60.601 Y-15.682
X60.757 Y-15.807
X60.94 Y-15.886
X61.138 Y-15.913
G3 X61.443 Y-15.625 Z-0.816 I-0.011 J0.317
G1 X61.447 Y-15.584 Z-0.8
X61.47 Y-15.337
X61.722 Y-12.663
X61.743 Y-12.435
X61.745 Y-12.416
G3 X61.438 Y-12.087 Z-1 I-0.317 J0.011
G1 X61.002
X60.852 Y-12.095
X60.715 Y-12.158
X60.587 Y-12.236
X60.467 Y-12.326
X60.346 Y-12.435
X60.215 Y-12.574
X60.09 Y-12.73
X59.951 Y-12.934
X59.811 Y-13.18
X59.672 Y-13.477
X59.543 Y-13.823
X59.46 Y-14.116
X59.413 Y-14.355
X59.387 Y-14.579
X59.38 Y-14.786
X59.388 Y-14.965
X59.412 Y-15.155
X59.446 Y-15.317
X59.465 Y-15.381
X59.541 Y-15.555
X59.66 Y-15.703
X59.812 Y-15.817
X59.987 Y-15.888
X60.176 Y-15.913
G3 X60.472 Y-15.675 Z-0.837 I-0.011 J0.317
G1 X60.495 Y-15.586 Z-0.8
X60.557 Y-15.346
X61.253 Y-12.657
X61.298 Y-12.484
X61.308 Y-12.416
G3 X61.002 Y-12.087 Z-1 I-0.317 J0.011
G1 X60.317
X60.168 Y-12.095
X60.021 Y-12.128
X59.88 Y-12.18
X59.745 Y-12.245
X59.617 Y-12.322
X59.482 Y-12.419
X59.337 Y-12.541
X59.193 Y-12.684
X59.052 Y-12.849
X58.914 Y-13.039
X58.786 Y-13.248
X58.674 Y-13.471
X58.578 Y-13.705
X58.501 Y-13.948
X58.444 Y-14.198
X58.409 Y-14.436
X58.394 Y-14.658
X58.397 Y-14.868
X58.414 Y-15.049
X58.448 Y-15.237
X58.489 Y-15.396
X58.496 Y-15.416
X58.603 Y-15.617
X58.767 Y-15.776
X58.97 Y-15.877
X59.195 Y-15.913
X60.176
G3 X60.482 Y-15.609 Z-0.81 I-0.011 J0.317
G1 X60.483 Y-15.584 Z-0.8
X60.494 Y-15.336
X60.613 Y-12.664
X60.624 Y-12.419
Y-12.416
G3 X60.317 Y-12.087 Z-1 I-0.317 J0.011
G1 X59.364
X59.214 Y-12.095
X59.067 Y-12.126
X58.925 Y-12.174
X58.788 Y-12.236
X58.656 Y-12.309
X58.518 Y-12.402
X58.383 Y-12.509
X58.24 Y-12.642
X58.103 Y-12.793
X57.971 Y-12.963
X57.844 Y-13.157
X57.728 Y-13.371
X57.627 Y-13.598
X57.585 Y-13.717
X57.548 Y-13.838
X57.483 Y-14.081
X57.438 Y-14.33
X57.415 Y-14.559
X57.411 Y-14.766
X57.424 Y-14.978
X57.449 Y-15.152
X57.487 Y-15.321
X57.509 Y-15.392
X57.613 Y-15.602
X57.777 Y-15.768
X57.985 Y-15.876
X58.216 Y-15.913
X59.195
G3 X59.501 Y-15.612 Z-0.811 I-0.011 J0.317
G1 X59.503 Y-15.584 Z-0.8
X59.516 Y-15.336
X59.657 Y-12.664
X59.67 Y-12.422
Y-12.416
G3 X59.364 Y-12.087 Z-1 I-0.317 J0.011
G1 X58.424
X58.274 Y-12.095
X58.126 Y-12.119
X57.982 Y-12.16
X57.843 Y-12.217
X57.71 Y-12.285
X57.573 Y-12.371
X57.442 Y-12.47
X57.308 Y-12.588
X57.252 Y-12.646
X57.144 Y-12.765
X57.014 Y-12.858
X56.866 Y-12.92
X56.708 Y-12.949
X56.066 Y-12.928
X55.456 Y-12.726
X55.2 Y-12.655
X54.913 Y-12.601
X54.683 Y-12.576
X54.526 Y-12.572
X54.335 Y-12.582
X54.145 Y-12.608
X53.998 Y-12.64
X53.856 Y-12.687
X53.696 Y-12.756
X53.564 Y-12.826
X53.441 Y-12.912
X53.328 Y-13.011
X53.223 Y-13.119
X53.133 Y-13.239
X53.059 Y-13.369
X52.997 Y-13.506
X52.954 Y-13.649
X52.931 Y-13.798
X52.923 Y-13.947
X52.937 Y-14.097
X52.972 Y-14.243
X53.021 Y-14.384
X53.094 Y-14.515
X53.183 Y-14.636
X53.284 Y-14.747
X53.404 Y-14.837
X53.535 Y-14.911
X53.674 Y-14.966
X53.821 Y-14.998
X53.97 Y-15.013
X54.12 Y-15.002
X54.266 Y-14.97
X54.426 Y-14.955
X54.745 Y-14.994
X55.326 Y-15.266
X55.817 Y-15.68
X55.855 Y-15.714
X56.005 Y-15.822
X56.176 Y-15.89
X56.359 Y-15.913
X58.216
G3 X58.522 Y-15.616 Z-0.813 I-0.011 J0.317
G1 X58.524 Y-15.584 Z-0.8
X58.54 Y-15.337
X58.714 Y-12.663
X58.73 Y-12.425
Y-12.416
G3 X58.424 Y-12.087 Z-1 I-0.317 J0.011
G1 X53.83
X53.68 Y-12.095
X53.531 Y-12.116
X53.386 Y-12.152
X53.244 Y-12.201
X53.107 Y-12.263
X52.977 Y-12.337
X52.852 Y-12.421
X52.736 Y-12.515
X52.628 Y-12.619
X52.528 Y-12.731
X52.434 Y-12.857
X52.354 Y-12.983
X52.283 Y-13.12
X52.224 Y-13.259
X52.176 Y-13.404
X52.138 Y-13.56
X52.115 Y-13.708
X52.102 Y-13.863
X52.103 Y-14.015
X52.116 Y-14.169
X52.142 Y-14.329
X52.178 Y-14.474
X52.228 Y-14.621
X52.287 Y-14.758
X52.359 Y-14.895
X52.442 Y-15.025
X52.532 Y-15.144
X52.633 Y-15.257
X52.741 Y-15.361
X52.863 Y-15.459
X52.987 Y-15.544
X53.464 Y-15.816
X53.58 Y-15.869
X53.704 Y-15.902
X53.831 Y-15.913
X56.359
G3 X56.665 Y-15.584 Z-0.8 I-0.011 J0.317
G1 X56.656 Y-15.518
X56.633 Y-15.455
X56.597 Y-15.398
X56.568 Y-15.362
X54.361 Y-12.577
X54.206 Y-12.383
X54.067 Y-12.208 Z-0.89
G3 X53.83 Y-12.087 Z-1 I-0.249 J-0.197
G1 X52.81
X52.66 Y-12.095
X52.512 Y-12.12
X52.369 Y-12.164
X52.232 Y-12.225
X52.102 Y-12.3
X51.981 Y-12.388
X51.868 Y-12.487
X51.763 Y-12.594
X51.664 Y-12.716
X51.572 Y-12.848
X51.488 Y-12.992
X51.413 Y-13.15
X51.347 Y-13.32
X51.294 Y-13.5
X51.255 Y-13.688
X51.231 Y-13.881
X51.222 Y-14.08
X51.229 Y-14.282
X51.253 Y-14.487
X51.294 Y-14.692
X51.352 Y-14.895
X51.427 Y-15.096
X51.518 Y-15.292
X51.626 Y-15.481
X51.699 Y-15.589
X51.818 Y-15.724
X51.965 Y-15.827
X52.133 Y-15.891
X52.312 Y-15.913
X53.831
G3 X54.137 Y-15.584 Z-0.8 I-0.011 J0.317
G1 X54.132 Y-15.541
X54.122 Y-15.498
X54.073 Y-15.345
X53.21 Y-12.649
X53.135 Y-12.412
X53.102 Y-12.308 Z-0.844
G3 X52.81 Y-12.087 Z-1 I-0.302 J-0.097
G1 X51.936
X51.787 Y-12.095
X51.639 Y-12.121
X51.496 Y-12.167
X51.36 Y-12.23
X51.231 Y-12.307
X51.111 Y-12.396
X50.999 Y-12.496
X50.893 Y-12.607
X50.787 Y-12.737
X50.686 Y-12.884
X50.594 Y-13.043
X50.511 Y-13.219
X50.437 Y-13.413
X50.377 Y-13.622
X50.332 Y-13.842
X50.305 Y-14.071
X50.295 Y-14.312
X50.305 Y-14.562
X50.336 Y-14.818
X50.385 Y-15.06
X50.451 Y-15.288
X50.523 Y-15.478
X50.528 Y-15.488
X50.643 Y-15.662
X50.801 Y-15.798
X50.991 Y-15.883
X51.198 Y-15.913
X52.312
G3 X52.618 Y-15.584 Z-0.8 I-0.011 J0.317
G1 X52.616 Y-15.558
X52.59 Y-15.338
X52.275 Y-12.662
X52.246 Y-12.415
X52.241 Y-12.368 Z-0.819
G3 X51.936 Y-12.087 Z-1 I-0.315 J-0.037
G1 X51.063
X50.913 Y-12.095
X50.765 Y-12.122
X50.623 Y-12.169
X50.487 Y-12.232
X50.358 Y-12.309
X50.237 Y-12.397
X50.122 Y-12.497
X50.003 Y-12.618
X49.891 Y-12.752
X49.782 Y-12.906
X49.676 Y-13.084
X49.582 Y-13.276
X49.5 Y-13.487
X49.429 Y-13.721
X49.374 Y-13.973
X49.339 Y-14.235
X49.324 Y-14.505
X49.331 Y-14.751
X49.355 Y-14.974
X49.395 Y-15.181
X49.442 Y-15.353
X49.468 Y-15.425
X49.576 Y-15.622
X49.739 Y-15.778
X49.941 Y-15.878
X50.164 Y-15.913
X51.198
G3 X51.504 Y-15.584 Z-0.8 I-0.011 J0.317
G1 Y-15.582
X51.493 Y-15.336
X51.38 Y-12.664
X51.37 Y-12.416
X51.369 Y-12.391 Z-0.81
G3 X51.063 Y-12.087 Z-1 I-0.317 J-0.013
G1 X50.189
X50.039 Y-12.095
X49.891 Y-12.12
X49.748 Y-12.164
X49.61 Y-12.224
X49.48 Y-12.298
X49.356 Y-12.383
X49.229 Y-12.486
X49.108 Y-12.603
X48.983 Y-12.744
X48.861 Y-12.907
X48.748 Y-13.085
X48.641 Y-13.291
X48.544 Y-13.518
X48.464 Y-13.758
X48.402 Y-14.009
X48.359 Y-14.268
X48.339 Y-14.52
Y-14.739
X48.357 Y-14.968
X48.387 Y-15.153
X48.429 Y-15.326
X48.455 Y-15.405
X48.561 Y-15.61
X48.725 Y-15.772
X48.93 Y-15.877
X49.158 Y-15.913
X50.164
G3 X50.471 Y-15.598 Z-0.805 I-0.011 J0.317
G1 Y-15.584 Z-0.8
X50.473 Y-15.336
X50.493 Y-12.664
X50.495 Y-12.416
Y-12.407 Z-0.803
G3 X50.189 Y-12.087 Z-1 I-0.317 J0.002
G1 X49.25
X49.1 Y-12.095
X48.952 Y-12.123
X48.809 Y-12.168
X48.672 Y-12.229
X48.541 Y-12.302
X48.417 Y-12.387
X48.283 Y-12.494
X48.155 Y-12.615
X48.024 Y-12.76
X47.895 Y-12.929
X47.777 Y-13.113
X47.665 Y-13.32
X47.567 Y-13.545
X47.483 Y-13.788
X47.419 Y-14.038
X47.375 Y-14.292
X47.353 Y-14.531
X47.351 Y-14.75
X47.366 Y-14.969
X47.393 Y-15.147
X47.435 Y-15.323
X47.459 Y-15.398
X47.564 Y-15.606
X47.728 Y-15.77
X47.935 Y-15.876
X48.164 Y-15.913
X49.158
G3 X49.465 Y-15.604 Z-0.808 I-0.011 J0.317
G1 Y-15.584 Z-0.8
X49.472 Y-15.336
X49.549 Y-12.664
X49.556 Y-12.416
Y-12.414 Z-0.801
G3 X49.25 Y-12.087 Z-1 I-0.317 J0.009
G1 X48.296
X48.146 Y-12.095
X47.999 Y-12.123
X47.855 Y-12.168
X47.718 Y-12.228
X47.587 Y-12.301
X47.458 Y-12.387
X47.321 Y-12.495
X47.19 Y-12.616
X47.056 Y-12.764
X46.924 Y-12.933
X46.803 Y-13.118
X46.689 Y-13.325
X46.589 Y-13.55
X46.504 Y-13.79
X46.438 Y-14.038
X46.392 Y-14.291
X46.369 Y-14.525
X46.365 Y-14.744
X46.378 Y-14.961
X46.404 Y-15.137
X46.443 Y-15.312
X46.446 Y-15.32
X46.53 Y-15.5
X46.658 Y-15.651
X46.821 Y-15.762
G3 X47.242 Y-15.606 Z-0.8 I0.132 J0.289
G1 X47.245 Y-15.6
X47.341 Y-15.378
X48.524 Y-12.65
X48.576 Y-12.531
X48.594 Y-12.475
X48.602 Y-12.416
G3 X48.296 Y-12.087 Z-1 I-0.317 J0.011
G1 X47.648
X47.502 Y-12.097
X47.131 Y-12.147
X47.065 Y-12.156
X46.953 Y-12.177
X46.919 Y-12.189
X46.774 Y-12.262
X46.592 Y-12.355
X46.555 Y-12.38
X46.483 Y-12.449
X46.317 Y-12.615
X46.282 Y-12.651
X46.253 Y-12.688
X46.213 Y-12.761
X46.139 Y-12.906
X46.068 Y-13.052
X46.046 Y-13.158
X46.039 Y-13.198
X46.021 Y-13.344
X45.987 Y-13.635
X45.974 Y-13.781
Y-14.219
X45.987 Y-14.365
X46.021 Y-14.656
X46.039 Y-14.802
X46.046 Y-14.842
X46.068 Y-14.948
X46.139 Y-15.094
X46.213 Y-15.239
X46.253 Y-15.312
X46.282 Y-15.349
X46.337 Y-15.406
X46.483 Y-15.551
X46.555 Y-15.62
X46.592 Y-15.645
X46.774 Y-15.738
X46.919 Y-15.811
X46.953 Y-15.823
X47.065 Y-15.844
X47.502 Y-15.903
X47.648 Y-15.913
X48.164
G3 X48.341 Y-15.339 I-0.011 J0.317
G1 X48.284 Y-15.297 Z-0.992
X48.23 Y-15.258 Z-0.969
X48.181 Y-15.222 Z-0.931
X48.141 Y-15.192 Z-0.88
X48.11 Y-15.17 Z-0.82
X48.091 Y-15.156 Z-0.753
X48.085 Y-15.151 Z-0.683
G0 Z15

M9
G28 G91 Z0
G90
G28 G91 X0 Y0
G90
M5
M30
