(lightAdampterDrilling_v1)
(T9 D=1.5 CR=0 TAPER=118deg - ZMIN=-3.76 - drill)
G90 G94
G17
G21
G28 G91 Z0
G90

(Drill2)
T9
S18000 M3
G17 G90 G94
G54
G0 X3.026 Y-6.25
Z15
G0 Z5
G1 Z-3.76 F50
G0 Z5
X8.276
G1 Z-3.76 F50
G0 Z5
X13.526
G1 Z-3.76 F50
G0 Z5
X18.776
G1 Z-3.76 F50
G0 Z5
X24.026
G1 Z-3.76 F50
G0 Z5
X39 Y-7
G1 Z-3.76 F50
G0 Z5
X51
G1 Z-3.76 F50
G0 Z5
X54 Y-14
G1 Z-3.76 F50
G0 Z5
X51 Y-21
G1 Z-3.76 F50
G0 Z5
X39
G1 Z-3.76 F50
G0 Z5
X24.026 Y-21.75
G1 Z-3.76 F50
G0 Z5
X18.776
G1 Z-3.76 F50
G0 Z5
X13.526
G1 Z-3.76 F50
G0 Z5
X8.276
G1 Z-3.76 F50
G0 Z5
X3.026
G1 Z-3.76 F50
G0 Z5
Z15

G28 G91 Z0
G90
G28 G91 X0 Y0
G90
M5
M30
