(lightAdampterContourung_v1)
(T1 D=3.175 CR=0 - ZMIN=-4.76 - flat end mill)
G90 G94
G17
G21
G28 G91 Z0
G90

(2D Contour3)
T1
S5013 M3
G17 G90 G94
G54
G0 X2.682 Y2.54
Z15
G0 Z5
G1 Z0.635 F50
Z-4.443
G19 G2 Y2.223 Z-4.76 J-0.317 K0
G1 Y1.905
G17 G3 X3 Y1.587 I0.318 J0
G1 X57
G2 X61.588 Y-3 I0 J-4.587
G1 Y-25
G2 X57 Y-29.587 I-4.588 J0
G1 X3
G2 X-1.587 Y-25 I0 J4.587
G1 Y-3
G2 X3 Y1.587 I4.587 J0
G3 X3.318 Y1.905 I0 J0.317
G1 Y2.223
G19 G3 Y2.54 Z-4.443 J0 K0.318
G0 Z15
G17

G28 G91 Z0
G90
G28 G91 X0 Y0
G90
M5
M30
