(1001)
(T7  D=3.175 CR=0 - ZMIN=-4.452 - flat end mill)
G90 G94
G17
G21
G28 G91 Z0
G90

(2D Contour2)
T7
S5000 M3
G54
M8
G0 X7.46 Y-67.74
Z15
Z5
G1 Z1 F33.3
Z-4.135
G18 G2 X7.778 Z-4.452 I0.318 K0 F100
G1 X8.095
G17 G3 X8.413 Y-67.422 I0 J0.318
G1 Y-32.578
G2 X17.578 Y-23.413 I9.165 J0
G1 X42.422
G2 X51.588 Y-32.578 I0 J-9.165
G1 Y-67.422
G2 X42.422 Y-76.588 I-9.166 J0
G1 X17.578
G2 X8.413 Y-67.422 I0 J9.166
G3 X8.095 Y-67.104 I-0.318 J0
G1 X7.778
G18 G3 X7.46 Z-4.135 I0 K0.318
G0 Z15
G17
M9
G28 G91 Z0
G90
G28 G91 X0 Y0
G90
M5
M30
