(1001)
(T2  D=6.35 CR=0 TAPER=45deg - ZMIN=-1.231 - chamfer mill)
G90 G94
G17
G21
G28 G91 Z0
G90

(Engrave9)
T2
S5000 M3
G54
M8
G0 X19.233 Y-46.532
Z15
Z4
G1 Z-1.001 F1000
X19.463 Y-46.302 Z-1.231
Y-35.013
G2 X20.702 Y-33.774 I1.238 J0
G1 X39.413
G2 X40.651 Y-35.013 I0 J-1.238
G1 Y-37.654
X40.881 Y-37.884 Z-1.001
X40.651 Y-37.654 Z-1.231
X23.581
G3 X23.35 Y-37.885 I0 J-0.231
G1 Y-42.188
G3 X23.581 Y-42.419 I0.231 J0
G1 X40.651
X40.881 Y-42.189 Z-1.001
X40.651 Y-42.419 Z-1.231
Y-58.053
G2 X39.413 Y-59.292 I-1.238 J0
G1 X36.765
X36.534 Y-59.522 Z-1.001
X36.765 Y-59.292 Z-1.231
Y-55.193
G3 X36.534 Y-54.962 I-0.231 J0
G1 X23.581
G3 X23.35 Y-55.193 I0 J-0.231
G1 Y-59.292
X23.58 Y-59.522 Z-1.001
X23.35 Y-59.292 Z-1.231
X20.702
G2 X19.464 Y-58.053 I0 J1.238
G1 Y-51.095
X19.233 Y-50.865 Z-1.001
X19.464 Y-51.095 Z-1.231
X36.56
G3 X36.791 Y-50.864 I0 J0.231
G1 Y-46.533
G3 X36.56 Y-46.302 I-0.231 J0
G1 X19.463
G0 Z15
M9
G28 G91 Z0
G90
G28 G91 X0 Y0
G90
M5
M30
