(1001)
(T1  D=6.35 CR=0 - ZMIN=-2.3 - flat end mill)
G90 G94
G17
G21
G28 G91 Z0
G90

(2D Adaptive2)
T1
S18000 M3
G54
M8
G0 X58.786 Y-62.868
Z15
Z5
Z2.55
G3 X61.639 Y-57.553 Z2.219 I1.427 J2.657 F100
X58.786 Y-62.868 Z1.888 I-1.427 J-2.657
X61.639 Y-57.553 Z1.557 I1.427 J2.657
X58.786 Y-62.868 Z1.226 I-1.427 J-2.657
X61.639 Y-57.553 Z0.895 I1.427 J2.657
X58.786 Y-62.868 Z0.565 I-1.427 J-2.657
X61.639 Y-57.553 Z0.234 I1.427 J2.657
X58.786 Y-62.868 Z-0.097 I-1.427 J-2.657
X61.639 Y-57.553 Z-0.428 I1.427 J2.657
X58.786 Y-62.868 Z-0.759 I-1.427 J-2.657
X61.639 Y-57.553 Z-1.09 I1.427 J2.657
X58.786 Y-62.868 Z-1.421 I-1.427 J-2.657
X61.639 Y-57.553 Z-1.752 I1.427 J2.657
X58.786 Y-62.868 Z-2.083 I-1.427 J-2.657
X63.229 Y-60.21 Z-2.3 I1.427 J2.657
X57.196 Y-60.21 I-3.016 J0
X63.229 Y-60.21 I3.016 J0
G1 X63.233 Y-59.982 F500
X63.388 Y-59.084
X63.442 Y-58.944
X63.479 Y-58.799
X63.502 Y-58.65
X63.511 Y-58.501
X63.508 Y-58.342
X63.491 Y-58.173
X63.458 Y-57.994
X63.408 Y-57.807
X63.339 Y-57.614
X63.251 Y-57.417
X63.141 Y-57.217
X63.009 Y-57.018
X62.856 Y-56.821
X62.679 Y-56.629
X62.481 Y-56.445
X62.26 Y-56.272
X62.019 Y-56.112
X61.758 Y-55.967
X61.479 Y-55.84
X61.183 Y-55.734
X60.872 Y-55.65
X60.549 Y-55.59
X60.216 Y-55.555
X59.876 Y-55.547
X59.531 Y-55.566
X59.184 Y-55.614
X58.838 Y-55.69
X58.496 Y-55.795
X58.159 Y-55.929
X57.832 Y-56.09
X57.517 Y-56.279
X57.215 Y-56.493
X56.93 Y-56.733
X56.664 Y-56.996
X56.419 Y-57.281
X56.197 Y-57.585
X55.999 Y-57.908
X55.827 Y-58.247
X55.682 Y-58.599
X55.566 Y-58.962
X55.479 Y-59.335
X55.423 Y-59.714
X55.396 Y-60.097
X55.401 Y-60.481
X55.437 Y-60.864
X55.503 Y-61.244
X55.6 Y-61.617
X55.726 Y-61.981
X55.881 Y-62.335
X56.064 Y-62.675
X56.274 Y-62.999
X56.51 Y-63.306
X56.77 Y-63.593
X57.051 Y-63.858
X57.354 Y-64.1
X57.674 Y-64.317
X58.012 Y-64.508
X58.363 Y-64.67
X58.727 Y-64.804
X59.1 Y-64.909
X59.48 Y-64.983
X59.866 Y-65.027
X60.253 Y-65.039
X60.64 Y-65.02
X61.025 Y-64.971
X61.404 Y-64.89
X61.776 Y-64.78
X62.137 Y-64.64
X62.487 Y-64.471
X62.821 Y-64.275
X63.139 Y-64.052
X63.438 Y-63.805
X63.716 Y-63.535
X63.971 Y-63.243
X64.203 Y-62.931
X64.443 Y-62.547
X64.848 Y-61.766
X65.11 Y-61.141
X65.287 Y-60.604
X65.404 Y-60.117
X65.478 Y-59.653
X65.512 Y-59.203
X65.51 Y-58.767
X65.475 Y-58.342
X65.406 Y-57.927
X65.304 Y-57.522
X65.171 Y-57.126
X65.005 Y-56.741
X64.808 Y-56.369
X64.581 Y-56.01
X64.323 Y-55.668
X64.035 Y-55.345
X63.719 Y-55.042
X63.375 Y-54.762
X63.004 Y-54.508
X62.609 Y-54.28
X62.191 Y-54.082
X61.752 Y-53.916
X61.296 Y-53.784
X60.825 Y-53.688
X60.342 Y-53.63
X59.851 Y-53.61
X59.354 Y-53.63
X58.856 Y-53.69
X58.36 Y-53.791
X57.87 Y-53.932
X57.39 Y-54.114
X56.922 Y-54.335
X56.471 Y-54.595
X56.04 Y-54.891
X55.632 Y-55.223
X55.25 Y-55.589
X54.897 Y-55.985
X54.575 Y-56.411
X54.288 Y-56.862
X54.037 Y-57.337
X53.824 Y-57.832
X53.652 Y-58.343
X53.52 Y-58.868
X53.431 Y-59.403
X53.385 Y-59.945
X53.383 Y-60.489
X53.424 Y-61.032
X53.509 Y-61.571
X53.638 Y-62.102
X53.808 Y-62.622
X54.02 Y-63.126
X54.272 Y-63.613
X54.562 Y-64.078
X54.889 Y-64.518
X55.25 Y-64.931
X55.644 Y-65.314
X56.067 Y-65.664
X56.517 Y-65.979
X56.991 Y-66.257
X57.485 Y-66.496
X57.998 Y-66.695
X58.525 Y-66.852
X59.063 Y-66.966
X59.608 Y-67.037
X60.158 Y-67.063
X60.708 Y-67.046
X61.254 Y-66.984
X61.794 Y-66.879
X62.324 Y-66.731
X62.841 Y-66.54
X63.34 Y-66.309
X63.82 Y-66.039
X64.276 Y-65.73
X64.716 Y-65.379
X65.194 Y-64.928
X65.648 Y-64.426
X66.075 Y-63.871
X66.461 Y-63.276
X66.792 Y-62.662
X67.066 Y-62.038
X67.284 Y-61.411
X67.446 Y-60.784
X67.556 Y-60.158
X67.614 Y-59.535
X67.621 Y-58.917
X67.58 Y-58.307
X67.49 Y-57.707
X67.353 Y-57.119
X67.17 Y-56.545
X66.942 Y-55.989
X66.67 Y-55.452
X66.354 Y-54.938
X65.997 Y-54.448
X65.6 Y-53.986
X65.164 Y-53.555
X64.691 Y-53.158
X64.184 Y-52.796
X63.646 Y-52.474
X63.078 Y-52.194
X62.485 Y-51.958
X61.869 Y-51.77
X61.236 Y-51.63
X60.588 Y-51.54
X59.93 Y-51.503
X59.267 Y-51.518
X58.603 Y-51.588
X57.942 Y-51.711
X57.289 Y-51.888
X56.649 Y-52.118
X56.026 Y-52.4
X55.424 Y-52.733
X54.848 Y-53.115
X54.303 Y-53.545
X53.791 Y-54.018
X53.317 Y-54.533
X52.884 Y-55.087
X52.496 Y-55.675
X52.155 Y-56.295
X51.865 Y-56.942
X51.626 Y-57.611
X51.442 Y-58.299
X51.313 Y-59.001
X51.241 Y-59.712
X51.226 Y-60.428
X51.269 Y-61.144
X51.369 Y-61.854
X51.526 Y-62.555
X51.739 Y-63.242
X52.007 Y-63.91
X52.328 Y-64.555
X52.699 Y-65.173
X53.12 Y-65.759
X53.586 Y-66.31
X54.095 Y-66.822
X54.643 Y-67.291
X55.228 Y-67.715
X55.845 Y-68.091
X56.491 Y-68.416
X57.16 Y-68.689
X57.85 Y-68.906
X58.555 Y-69.068
X59.27 Y-69.173
X59.992 Y-69.22
X60.716 Y-69.209
X61.436 Y-69.14
X62.148 Y-69.013
X62.848 Y-68.829
X63.531 Y-68.59
X64.196 Y-68.296
X64.857 Y-67.937
X65.507 Y-67.513
X66.14 Y-67.024
X66.747 Y-66.471
X67.317 Y-65.862
X67.84 Y-65.204
X68.309 Y-64.506
X68.719 Y-63.775
X69.066 Y-63.02
X69.349 Y-62.245
X69.567 Y-61.457
X69.72 Y-60.661
X69.807 Y-59.861
X69.83 Y-59.063
X69.79 Y-58.27
X69.686 Y-57.487
X69.52 Y-56.717
X69.294 Y-55.966
X69.008 Y-55.235
X68.664 Y-54.529
X68.265 Y-53.853
X67.811 Y-53.209
X67.306 Y-52.601
X66.75 Y-52.034
X66.149 Y-51.511
X65.504 Y-51.035
X64.818 Y-50.61
X64.097 Y-50.239
X63.344 Y-49.925
X62.563 Y-49.671
X61.76 Y-49.48
X60.939 Y-49.353
X60.106 Y-49.292
X59.266 Y-49.298
X58.425 Y-49.372
X57.588 Y-49.514
X56.761 Y-49.723
X55.949 Y-50
X55.159 Y-50.342
X54.396 Y-50.749
X53.664 Y-51.217
X52.97 Y-51.744
X52.318 Y-52.328
X51.713 Y-52.964
X51.16 Y-53.649
X50.661 Y-54.378
X50.222 Y-55.147
X49.845 Y-55.95
X49.533 Y-56.782
X49.288 Y-57.639
X49.113 Y-58.514
X49.008 Y-59.402
X48.975 Y-60.297
X49.014 Y-61.193
X49.124 Y-62.083
X49.306 Y-62.963
X49.558 Y-63.826
X49.879 Y-64.667
X50.267 Y-65.48
X50.719 Y-66.259
X51.232 Y-67.001
X51.803 Y-67.699
X52.429 Y-68.349
X53.105 Y-68.947
X53.828 Y-69.489
X54.591 Y-69.972
X55.391 Y-70.392
X56.223 Y-70.746
X57.08 Y-71.032
X57.958 Y-71.249
X58.851 Y-71.395
X59.752 Y-71.468
X60.657 Y-71.469
X61.558 Y-71.398
X62.452 Y-71.254
X63.336 Y-71.038
X64.201 Y-70.751
X65.041 Y-70.396
X65.85 Y-69.975
X66.624 Y-69.494
X67.36 Y-68.955
X68.053 Y-68.362
X68.701 Y-67.721
X69.301 Y-67.034
X69.85 Y-66.306
X70.345 Y-65.541
X70.785 Y-64.742
X71.165 Y-63.913
X71.483 Y-63.058
X71.737 Y-62.183
X71.925 Y-61.29
X72.047 Y-60.387
X72.101 Y-59.477
X72.088 Y-58.565
X72.006 Y-57.657
X71.857 Y-56.757
X71.641 Y-55.871
X71.358 Y-55.004
X71.012 Y-54.161
X70.603 Y-53.346
X70.133 Y-52.564
X69.607 Y-51.82
X69.026 Y-51.117
X68.394 Y-50.46
X67.714 Y-49.853
X66.99 Y-49.298
X66.227 Y-48.799
X65.429 Y-48.358
X64.601 Y-47.977
X63.747 Y-47.657
X62.872 Y-47.399
X61.981 Y-47.206
X61.078 Y-47.076
X60.169 Y-47.012
X59.257 Y-47.014
X58.348 Y-47.082
X57.446 Y-47.215
X56.555 Y-47.412
X55.681 Y-47.671
X54.827 Y-47.99
X53.997 Y-48.367
X53.195 Y-48.8
X52.426 Y-49.29
X51.693 Y-49.833
X51 Y-50.426
X50.35 Y-51.065
X49.744 Y-51.747
X49.186 Y-52.468
X48.679 Y-53.225
X48.226 Y-54.017
X47.829 Y-54.838
X47.489 Y-55.684
X47.207 Y-56.551
X46.984 Y-57.435
X46.821 Y-58.332
X46.719 Y-59.238
X46.681 Y-60.149
X46.705 Y-61.061
X46.791 Y-61.969
X46.937 Y-62.869
X47.142 Y-63.757
X47.406 Y-64.63
X47.731 Y-65.482
X48.113 Y-66.31
X48.55 Y-67.11
X49.039 Y-67.879
X49.579 Y-68.614
X50.165 Y-69.312
X50.799 Y-69.968
X51.476 Y-70.579
X52.193 Y-71.142
X52.946 Y-71.657
X53.731 Y-72.12
X54.545 Y-72.531
X55.385 Y-72.885
X56.248 Y-73.18
X57.129 Y-73.417
X58.023 Y-73.594
X58.927 Y-73.711
X59.837 Y-73.769
X60.749 Y-73.765
X61.658 Y-73.698
X62.561 Y-73.569
X63.453 Y-73.381
X64.331 Y-73.135
X65.191 Y-72.833
X66.029 Y-72.473
X66.842 Y-72.059
X67.625 Y-71.592
X68.377 Y-71.077
X69.096 Y-70.516
X69.779 Y-69.912
X70.424 Y-69.267
X71.026 Y-68.582
X71.585 Y-67.862
X72.098 Y-67.108
X72.565 Y-66.325
X72.984 Y-65.515
X73.353 Y-64.681
X73.668 Y-63.826
X73.928 Y-62.952
X74.133 Y-62.063
X74.283 Y-61.164
X74.378 Y-60.257
X74.417 Y-59.346
X74.398 Y-58.434
X74.32 Y-57.526
X74.184 Y-56.624
X73.993 Y-55.733
X73.747 Y-54.855
X73.446 Y-53.994
X73.093 Y-53.153
X72.685 Y-52.338
X72.226 Y-51.55
X71.719 Y-50.792
X71.165 Y-50.068
X70.567 Y-49.379
X69.928 Y-48.729
X69.247 Y-48.122
X68.53 Y-47.56
X67.778 Y-47.044
X66.996 Y-46.575
X66.187 Y-46.155
X65.354 Y-45.784
X64.499 Y-45.466
X63.626 Y-45.202
X62.739 Y-44.993
X61.84 Y-44.837
X60.934 Y-44.737
X60.024 Y-44.69
X59.112 Y-44.699
X58.202 Y-44.765
X57.299 Y-44.887
X56.404 Y-45.063
X55.521 Y-45.291
X54.653 Y-45.57
X53.803 Y-45.899
X52.974 Y-46.279
X52.17 Y-46.709
X51.393 Y-47.187
X50.646 Y-47.71
X49.931 Y-48.276
X49.25 Y-48.881
X48.604 Y-49.525
X47.998 Y-50.206
X47.434 Y-50.923
X46.913 Y-51.671
X46.437 Y-52.449
X46.006 Y-53.253
X45.622 Y-54.08
X45.287 Y-54.927
X45.002 Y-55.794
X44.768 Y-56.675
X44.587 Y-57.569
X44.457 Y-58.471
X44.379 Y-59.38
X44.353 Y-60.291
X44.38 Y-61.202
X44.46 Y-62.111
X44.593 Y-63.013
X44.778 Y-63.906
X45.014 Y-64.786
X45.3 Y-65.652
X45.634 Y-66.501
X46.017 Y-67.328
X46.448 Y-68.131
X46.925 Y-68.909
X47.445 Y-69.658
X48.008 Y-70.375
X48.61 Y-71.06
X49.25 Y-71.709
X49.927 Y-72.32
X50.639 Y-72.89
X51.382 Y-73.418
X52.154 Y-73.903
X52.952 Y-74.344
X53.774 Y-74.738
X54.618 Y-75.085
X55.48 Y-75.382
X56.358 Y-75.628
X57.248 Y-75.823
X58.149 Y-75.967
X59.056 Y-76.061
X59.967 Y-76.102
X60.878 Y-76.091
X61.788 Y-76.027
X62.692 Y-75.91
X63.588 Y-75.742
X64.474 Y-75.524
X65.345 Y-75.256
X66.201 Y-74.941
X67.037 Y-74.578
X67.852 Y-74.167
X68.641 Y-73.712
X69.405 Y-73.214
X70.141 Y-72.676
X70.847 Y-72.099
X71.522 Y-71.485
X72.163 Y-70.837
X72.767 Y-70.154
X73.334 Y-69.439
X73.861 Y-68.696
X74.349 Y-67.925
X74.795 Y-67.13
X75.2 Y-66.313
X75.56 Y-65.475
X75.874 Y-64.619
X76.141 Y-63.747
X76.36 Y-62.862
X76.532 Y-61.967
X76.656 Y-61.063
X76.732 Y-60.155
X76.76 Y-59.243
X76.738 Y-58.332
X76.665 Y-57.423
X76.542 Y-56.519
X76.371 Y-55.624
X76.153 Y-54.739
X75.887 Y-53.866
X75.576 Y-53.009
X75.218 Y-52.171
X74.813 Y-51.354
X74.364 Y-50.56
X73.873 Y-49.792
X73.342 Y-49.051
X72.771 Y-48.339
X72.164 Y-47.659
X71.52 Y-47.014
X70.842 Y-46.405
X70.13 Y-45.834
X69.39 Y-45.302
X68.622 Y-44.811
X67.829 Y-44.361
X67.013 Y-43.953
X66.177 Y-43.588
X65.323 Y-43.27
X64.453 Y-42.998
X63.569 Y-42.773
X62.675 Y-42.595
X61.772 Y-42.464
X60.865 Y-42.379
X59.953 Y-42.342
X59.042 Y-42.354
X58.132 Y-42.414
X57.227 Y-42.523
X56.328 Y-42.678
X55.439 Y-42.88
X54.561 Y-43.126
X53.697 Y-43.416
X52.848 Y-43.751
X52.019 Y-44.13
X51.211 Y-44.553
X50.426 Y-45.017
X49.666 Y-45.52
X48.932 Y-46.061
X48.226 Y-46.638
X47.55 Y-47.25
X46.906 Y-47.896
X46.297 Y-48.574
X45.724 Y-49.284
X45.188 Y-50.021
X44.69 Y-50.785
X44.231 Y-51.573
X43.811 Y-52.382
X43.433 Y-53.212
X43.097 Y-54.06
X42.806 Y-54.924
X42.559 Y-55.802
X42.357 Y-56.691
X42.2 Y-57.589
X42.087 Y-58.494
X42.02 Y-59.403
X41.997 Y-60.314
X42.022 Y-61.226
X42.094 Y-62.135
X42.211 Y-63.039
X42.374 Y-63.936
X42.581 Y-64.824
X42.831 Y-65.701
X43.125 Y-66.564
X43.461 Y-67.412
X43.841 Y-68.241
X44.262 Y-69.05
X44.724 Y-69.836
X45.224 Y-70.598
X45.761 Y-71.335
X46.334 Y-72.045
X46.941 Y-72.725
X47.581 Y-73.374
X48.255 Y-73.989
X48.958 Y-74.569
X49.69 Y-75.113
X50.448 Y-75.62
X51.229 Y-76.089
X52.033 Y-76.52
X52.857 Y-76.91
X53.7 Y-77.257
X54.56 Y-77.561
X55.434 Y-77.821
X56.32 Y-78.037
X57.215 Y-78.209
X58.118 Y-78.337
X59.026 Y-78.421
X59.937 Y-78.459
X60.849 Y-78.45
X61.759 Y-78.395
X62.665 Y-78.295
X63.565 Y-78.15
X64.457 Y-77.961
X65.339 Y-77.729
X66.209 Y-77.454
X67.064 Y-77.137
X67.902 Y-76.778
X68.721 Y-76.377
X69.519 Y-75.937
X70.296 Y-75.459
X71.049 Y-74.945
X71.777 Y-74.396
X72.479 Y-73.814
X73.153 Y-73.2
X73.796 Y-72.553
X74.407 Y-71.877
X74.986 Y-71.172
X75.531 Y-70.441
X76.041 Y-69.686
X76.517 Y-68.907
X76.956 Y-68.108
X77.357 Y-67.29
X77.719 Y-66.453
X78.04 Y-65.599
X78.319 Y-64.731
X78.558 Y-63.851
X78.755 Y-62.961
X78.911 Y-62.063
X79.026 Y-61.158
X79.098 Y-60.249
X79.126 Y-59.338
X79.11 Y-58.426
X79.049 Y-57.516
X78.946 Y-56.61
X78.8 Y-55.71
X78.613 Y-54.818
X78.384 Y-53.935
X78.114 Y-53.064
X77.802 Y-52.207
X77.449 Y-51.367
X77.056 Y-50.544
X76.623 Y-49.741
X76.154 Y-48.96
X75.648 Y-48.201
X75.107 Y-47.467
X74.533 Y-46.759
X73.925 Y-46.079
X73.285 Y-45.43
X72.614 Y-44.812
X71.915 Y-44.227
X71.188 Y-43.676
X70.437 Y-43.159
X69.663 Y-42.677
X68.868 Y-42.232
X68.052 Y-41.824
X67.218 Y-41.456
X66.367 Y-41.128
X65.502 Y-40.841
X64.624 Y-40.594
X63.736 Y-40.388
X62.839 Y-40.222
X61.936 Y-40.098
X61.028 Y-40.015
X60.117 Y-39.975
X59.205 Y-39.978
X58.294 Y-40.024
X57.387 Y-40.113
X56.484 Y-40.242
X55.588 Y-40.412
X54.701 Y-40.621
X53.824 Y-40.87
X52.959 Y-41.16
X52.109 Y-41.489
X51.275 Y-41.858
X50.459 Y-42.265
X49.662 Y-42.708
X48.886 Y-43.187
X48.132 Y-43.699
X47.401 Y-44.245
X46.695 Y-44.822
X46.017 Y-45.431
X45.368 Y-46.072
X44.748 Y-46.741
X44.16 Y-47.437
X43.603 Y-48.159
X43.079 Y-48.905
X42.587 Y-49.673
X42.131 Y-50.462
X41.709 Y-51.271
X41.326 Y-52.098
X40.981 Y-52.942
X40.674 Y-53.801
X40.406 Y-54.672
X40.176 Y-55.555
X39.986 Y-56.447
X39.835 Y-57.346
X39.723 Y-58.251
X39.652 Y-59.16
X39.623 Y-60.071
X39.635 Y-60.983
X39.688 Y-61.893
X39.781 Y-62.8
X39.914 Y-63.702
X40.086 Y-64.598
X40.297 Y-65.485
X40.546 Y-66.362
X40.836 Y-67.226
X41.164 Y-68.077
X41.53 Y-68.912
X41.933 Y-69.73
X42.372 Y-70.53
X42.845 Y-71.309
X43.351 Y-72.067
X43.89 Y-72.803
X44.461 Y-73.514
X45.064 Y-74.198
X45.697 Y-74.854
X46.359 Y-75.481
X47.048 Y-76.078
X47.762 Y-76.645
X48.501 Y-77.18
X49.262 Y-77.682
X50.044 Y-78.151
X50.846 Y-78.584
X51.667 Y-78.981
X52.505 Y-79.34
X53.359 Y-79.661
X54.225 Y-79.944
X55.104 Y-80.19
X55.992 Y-80.396
X56.888 Y-80.565
X57.79 Y-80.694
X58.698 Y-80.782
X59.609 Y-80.828
X60.52 Y-80.834
X61.431 Y-80.8
X62.34 Y-80.726
X63.245 Y-80.612
X64.144 Y-80.459
X65.036 Y-80.268
X65.918 Y-80.039
X66.789 Y-79.77
X67.648 Y-79.462
X68.492 Y-79.118
X69.32 Y-78.737
X70.131 Y-78.32
X70.924 Y-77.87
X71.698 Y-77.387
X72.45 Y-76.873
X73.181 Y-76.327
X73.886 Y-75.749
X74.567 Y-75.142
X75.221 Y-74.507
X75.847 Y-73.844
X76.446 Y-73.156
X77.015 Y-72.444
X77.554 Y-71.709
X78.063 Y-70.953
X78.541 Y-70.176
X78.985 Y-69.379
X79.394 Y-68.564
X79.768 Y-67.733
X80.107 Y-66.886
X80.41 Y-66.027
X80.678 Y-65.155
X80.909 Y-64.273
X81.104 Y-63.382
X81.262 Y-62.484
X81.381 Y-61.58
X81.461 Y-60.672
X81.502 Y-59.761
X81.505 Y-58.849
X81.469 Y-57.938
X81.395 Y-57.029
X81.284 Y-56.124
X81.135 Y-55.225
X80.949 Y-54.332
X80.725 Y-53.448
X80.463 Y-52.575
X80.164 Y-51.713
X79.828 Y-50.866
X79.456 Y-50.033
X79.05 Y-49.217
X78.61 Y-48.418
X78.138 Y-47.638
X77.634 Y-46.878
X77.097 Y-46.141
X76.529 Y-45.428
X75.931 Y-44.74
X75.304 Y-44.078
X74.65 Y-43.443
X73.969 Y-42.835
X73.264 Y-42.257
X72.536 Y-41.708
X71.786 Y-41.19
X71.015 Y-40.704
X70.223 Y-40.251
X69.413 Y-39.833
X68.586 Y-39.448
X67.744 Y-39.099
X66.888 Y-38.785
X66.02 Y-38.506
X65.141 Y-38.263
X64.253 Y-38.056
X63.357 Y-37.886
X62.455 Y-37.754
X61.548 Y-37.661
X60.638 Y-37.605
X59.726 Y-37.586
X58.814 Y-37.606
X57.904 Y-37.662
X56.997 Y-37.755
X56.095 Y-37.885
X55.198 Y-38.051
X54.309 Y-38.254
X53.43 Y-38.494
X52.561 Y-38.77
X51.704 Y-39.081
X50.86 Y-39.427
X50.031 Y-39.807
X49.218 Y-40.22
X48.422 Y-40.665
X47.645 Y-41.142
X46.888 Y-41.649
X46.152 Y-42.188
X45.438 Y-42.756
X44.749 Y-43.353
X44.084 Y-43.977
X43.445 Y-44.627
X42.833 Y-45.302
X42.247 Y-46.002
X41.69 Y-46.723
X41.162 Y-47.467
X40.665 Y-48.231
X40.199 Y-49.015
X39.765 Y-49.817
X39.364 Y-50.636
X38.997 Y-51.47
X38.662 Y-52.319
X38.362 Y-53.18
X38.096 Y-54.052
X37.864 Y-54.934
X37.668 Y-55.824
X37.508 Y-56.722
X37.385 Y-57.625
X37.298 Y-58.533
X37.247 Y-59.443
X37.233 Y-60.355
X37.254 Y-61.266
X37.312 Y-62.176
X37.405 Y-63.083
X37.534 Y-63.986
X37.699 Y-64.883
X37.9 Y-65.772
X38.137 Y-66.653
X38.409 Y-67.523
X38.715 Y-68.382
X39.055 Y-69.228
X39.428 Y-70.06
X39.833 Y-70.877
X40.27 Y-71.677
X40.739 Y-72.459
X41.238 Y-73.222
X41.768 Y-73.964
X42.327 Y-74.685
X42.914 Y-75.382
X43.529 Y-76.056
X44.17 Y-76.704
X44.835 Y-77.328
X45.525 Y-77.924
X46.237 Y-78.493
X46.972 Y-79.034
X47.727 Y-79.544
X48.503 Y-80.024
X49.297 Y-80.472
X50.108 Y-80.888
X50.935 Y-81.272
X51.777 Y-81.623
X52.631 Y-81.941
X53.498 Y-82.225
X54.375 Y-82.475
X55.261 Y-82.689
X56.155 Y-82.868
X57.056 Y-83.011
X57.961 Y-83.118
X58.87 Y-83.189
X59.781 Y-83.224
X60.693 Y-83.223
X61.604 Y-83.187
X62.513 Y-83.115
X63.419 Y-83.007
X64.319 Y-82.864
X65.213 Y-82.685
X66.099 Y-82.47
X66.976 Y-82.221
X67.843 Y-81.938
X68.698 Y-81.621
X69.54 Y-81.272
X70.369 Y-80.89
X71.182 Y-80.478
X71.978 Y-80.034
X72.757 Y-79.559
X73.516 Y-79.055
X74.256 Y-78.522
X74.975 Y-77.961
X75.672 Y-77.373
X76.346 Y-76.759
X76.997 Y-76.12
X77.623 Y-75.457
X78.224 Y-74.772
X78.798 Y-74.064
X79.346 Y-73.334
X79.865 Y-72.585
X80.355 Y-71.816
X80.816 Y-71.029
X81.247 Y-70.226
X81.647 Y-69.406
X82.017 Y-68.573
X82.355 Y-67.726
X82.661 Y-66.867
X82.934 Y-65.997
X83.174 Y-65.118
X83.381 Y-64.229
X83.553 Y-63.334
X83.692 Y-62.433
X83.796 Y-61.527
X83.866 Y-60.618
X83.902 Y-59.707
X83.903 Y-58.795
X83.87 Y-57.884
X83.802 Y-56.974
X83.7 Y-56.068
X83.563 Y-55.167
X83.392 Y-54.271
X83.187 Y-53.383
X82.948 Y-52.503
X82.676 Y-51.633
X82.371 Y-50.773
X82.034 Y-49.926
X81.665 Y-49.092
X81.265 Y-48.273
X80.833 Y-47.47
X80.371 Y-46.684
X79.88 Y-45.916
X79.359 Y-45.167
X78.81 Y-44.439
X78.234 Y-43.732
X77.632 Y-43.048
X77.004 Y-42.386
X76.352 Y-41.749
X75.676 Y-41.137
X74.977 Y-40.552
X74.256 Y-39.993
X73.515 Y-39.462
X72.754 Y-38.96
X71.975 Y-38.486
X71.178 Y-38.042
X70.366 Y-37.629
X69.538 Y-37.246
X68.697 Y-36.894
X67.843 Y-36.574
X66.978 Y-36.287
X66.102 Y-36.032
X65.218 Y-35.811
X64.325 Y-35.623
X63.427 Y-35.468
X62.523 Y-35.346
X61.616 Y-35.259
X60.705 Y-35.205
X59.794 Y-35.185
X58.882 Y-35.199
X57.971 Y-35.246
X57.063 Y-35.328
X56.159 Y-35.443
X55.259 Y-35.592
X54.366 Y-35.774
X53.479 Y-35.988
X52.602 Y-36.235
X51.734 Y-36.514
X50.876 Y-36.825
X50.031 Y-37.167
X49.199 Y-37.54
X48.382 Y-37.944
X47.579 Y-38.377
X46.793 Y-38.839
X46.025 Y-39.33
X45.275 Y-39.848
X44.544 Y-40.394
X43.834 Y-40.966
X43.145 Y-41.563
X42.478 Y-42.185
X41.834 Y-42.83
X41.215 Y-43.5
X40.62 Y-44.191
X40.051 Y-44.903
X39.508 Y-45.636
X38.992 Y-46.387
X38.504 Y-47.157
X38.044 Y-47.945
X37.612 Y-48.748
X37.21 Y-49.566
X36.837 Y-50.398
X36.496 Y-51.244
X36.185 Y-52.101
X35.906 Y-52.969
X35.658 Y-53.847
X35.442 Y-54.732
X35.258 Y-55.626
X35.106 Y-56.525
X34.987 Y-57.429
X34.901 Y-58.336
X34.846 Y-59.247
X34.826 Y-60.158
X34.838 Y-61.07
X34.883 Y-61.981
X34.962 Y-62.889
X35.072 Y-63.794
X35.215 Y-64.695
X35.391 Y-65.589
X35.598 Y-66.477
X35.837 Y-67.357
X36.107 Y-68.228
X36.409 Y-69.088
X36.742 Y-69.937
X37.105 Y-70.774
X37.498 Y-71.596
X37.921 Y-72.405
X38.372 Y-73.197
X38.851 Y-73.973
X39.358 Y-74.731
X39.891 Y-75.47
X40.451 Y-76.19
X41.036 Y-76.89
X41.646 Y-77.567
X42.28 Y-78.222
X42.937 Y-78.854
X43.617 Y-79.462
X44.318 Y-80.045
X45.039 Y-80.603
X45.78 Y-81.134
X46.54 Y-81.639
X47.317 Y-82.116
X48.11 Y-82.566
X48.919 Y-82.986
X49.743 Y-83.376
X50.581 Y-83.737
X51.431 Y-84.067
X52.292 Y-84.367
X53.163 Y-84.636
X54.043 Y-84.873
X54.932 Y-85.079
X55.827 Y-85.252
X56.728 Y-85.394
X57.633 Y-85.504
X58.541 Y-85.581
X59.452 Y-85.624
X60.364 Y-85.635
X61.275 Y-85.614
X62.186 Y-85.56
X63.093 Y-85.473
X63.997 Y-85.354
X64.897 Y-85.204
X65.79 Y-85.021
X66.676 Y-84.807
X67.555 Y-84.562
X68.423 Y-84.286
X69.282 Y-83.978
X70.129 Y-83.641
X70.964 Y-83.274
X71.785 Y-82.877
X72.592 Y-82.453
X73.384 Y-82.001
X74.159 Y-81.521
X74.918 Y-81.015
X75.658 Y-80.483
X76.38 Y-79.926
X77.081 Y-79.343
X77.762 Y-78.737
X78.422 Y-78.107
X79.059 Y-77.455
X79.674 Y-76.782
X80.265 Y-76.088
X80.832 Y-75.374
X81.375 Y-74.641
X81.892 Y-73.89
X82.384 Y-73.122
X82.848 Y-72.337
X83.285 Y-71.537
X83.694 Y-70.722
X84.075 Y-69.894
X84.427 Y-69.053
X84.751 Y-68.2
X85.044 Y-67.337
X85.309 Y-66.464
X85.543 Y-65.583
X85.747 Y-64.694
X85.921 Y-63.799
X86.063 Y-62.899
X86.174 Y-61.994
X86.254 Y-61.085
X86.302 Y-60.175
X86.318 Y-59.263
X86.304 Y-58.351
X86.258 Y-57.441
X86.181 Y-56.532
X86.073 Y-55.627
X85.933 Y-54.726
X85.763 Y-53.83
X85.562 Y-52.94
X85.33 Y-52.059
X85.067 Y-51.186
X84.774 Y-50.322
X84.452 Y-49.469
X84.1 Y-48.628
X83.72 Y-47.799
X83.311 Y-46.984
X82.874 Y-46.184
X82.411 Y-45.399
X81.92 Y-44.63
X81.403 Y-43.879
X80.86 Y-43.146
X80.292 Y-42.433
X79.699 Y-41.74
X79.083 Y-41.068
X78.444 Y-40.418
X77.784 Y-39.789
X77.102 Y-39.184
X76.399 Y-38.603
X75.678 Y-38.045
X74.937 Y-37.513
X74.179 Y-37.007
X73.403 Y-36.527
X72.612 Y-36.075
X71.805 Y-35.65
X70.984 Y-35.252
X70.151 Y-34.883
X69.305 Y-34.543
X68.448 Y-34.232
X67.581 Y-33.949
X66.705 Y-33.697
X65.82 Y-33.474
X64.929 Y-33.281
X64.032 Y-33.119
X63.13 Y-32.988
X62.223 Y-32.888
X61.314 Y-32.819
X60.403 Y-32.781
X59.491 Y-32.773
X58.58 Y-32.796
X57.669 Y-32.849
X56.762 Y-32.933
X55.857 Y-33.048
X54.957 Y-33.192
X54.062 Y-33.368
X53.174 Y-33.574
X52.293 Y-33.809
X51.42 Y-34.074
X50.557 Y-34.368
X49.704 Y-34.691
X48.863 Y-35.042
X48.034 Y-35.421
X47.217 Y-35.828
X46.415 Y-36.261
X45.627 Y-36.72
X44.856 Y-37.206
X44.101 Y-37.718
X43.364 Y-38.255
X42.645 Y-38.816
X41.946 Y-39.4
X41.266 Y-40.008
X40.606 Y-40.638
X39.968 Y-41.289
X39.352 Y-41.961
X38.758 Y-42.652
X38.187 Y-43.363
X37.64 Y-44.093
X37.118 Y-44.841
X36.621 Y-45.605
X36.15 Y-46.386
X35.705 Y-47.182
X35.287 Y-47.992
X34.896 Y-48.816
X34.531 Y-49.652
X34.195 Y-50.499
X33.886 Y-51.357
X33.606 Y-52.225
X33.355 Y-53.101
X33.133 Y-53.986
X32.94 Y-54.877
X32.777 Y-55.774
X32.644 Y-56.676
X32.541 Y-57.582
X32.467 Y-58.491
X32.424 Y-59.402
X32.41 Y-60.313
X32.426 Y-61.225
X32.472 Y-62.136
X32.547 Y-63.044
X32.653 Y-63.95
X32.788 Y-64.852
X32.954 Y-65.748
X33.149 Y-66.639
X33.373 Y-67.523
X33.626 Y-68.399
X33.907 Y-69.266
X34.217 Y-70.124
X34.555 Y-70.971
X34.92 Y-71.806
X35.312 Y-72.63
X35.731 Y-73.439
X36.177 Y-74.235
X36.648 Y-75.015
X37.145 Y-75.78
X37.667 Y-76.527
X38.214 Y-77.257
X38.783 Y-77.969
X39.376 Y-78.662
X39.991 Y-79.335
X40.628 Y-79.988
X41.286 Y-80.619
X41.964 Y-81.229
X42.661 Y-81.816
X43.378 Y-82.38
X44.113 Y-82.919
X44.865 Y-83.435
X45.634 Y-83.925
X46.419 Y-84.39
X47.218 Y-84.829
X48.031 Y-85.241
X48.857 Y-85.627
X49.695 Y-85.986
X50.545 Y-86.317
X51.405 Y-86.621
X52.274 Y-86.896
X53.152 Y-87.141
X54.038 Y-87.358
X54.93 Y-87.546
X55.828 Y-87.704
X56.731 Y-87.833
X57.637 Y-87.932
X58.546 Y-88.002
X59.457 Y-88.042
X60.369 Y-88.053
X61.281 Y-88.034
X62.191 Y-87.985
X63.099 Y-87.906
X64.005 Y-87.797
X64.906 Y-87.659
X65.802 Y-87.491
X66.693 Y-87.295
X67.576 Y-87.07
X68.452 Y-86.816
X69.319 Y-86.535
X70.177 Y-86.225
X71.024 Y-85.888
X71.861 Y-85.525
X72.684 Y-85.134
X73.495 Y-84.717
X74.292 Y-84.274
X75.075 Y-83.806
X75.842 Y-83.313
X76.593 Y-82.796
X77.327 Y-82.256
X78.044 Y-81.692
X78.743 Y-81.106
X79.423 Y-80.499
X80.083 Y-79.87
X80.723 Y-79.221
X81.343 Y-78.552
X81.94 Y-77.863
X82.516 Y-77.156
X83.069 Y-76.431
X83.599 Y-75.689
X84.106 Y-74.931
X84.588 Y-74.157
X85.046 Y-73.369
X85.479 Y-72.566
X85.887 Y-71.751
X86.269 Y-70.923
X86.625 Y-70.083
X86.954 Y-69.233
X87.256 Y-68.372
X87.53 Y-67.503
X87.777 Y-66.625
X87.996 Y-65.74
X88.188 Y-64.849
X88.351 Y-63.951
X88.486 Y-63.05
X88.592 Y-62.144
X88.67 Y-61.236
X88.72 Y-60.325
X88.741 Y-59.414
X88.732 Y-58.502
X88.695 Y-57.591
X88.629 Y-56.681
X88.534 Y-55.775
X88.41 Y-54.871
X88.258 Y-53.972
X88.078 Y-53.078
X87.87 Y-52.191
X87.634 Y-51.31
X87.37 Y-50.437
X87.078 Y-49.573
X86.76 Y-48.719
X86.414 Y-47.875
X86.042 Y-47.043
X85.643 Y-46.223
X85.219 Y-45.416
X84.769 Y-44.622
X84.295 Y-43.844
X83.796 Y-43.081
X83.273 Y-42.333
X82.727 Y-41.603
X82.158 Y-40.891
X81.567 Y-40.196
X80.954 Y-39.521
X80.32 Y-38.866
X79.666 Y-38.231
X78.991 Y-37.617
X78.298 Y-37.025
X77.587 Y-36.455
X76.858 Y-35.907
X76.112 Y-35.383
X75.35 Y-34.882
X74.572 Y-34.405
X73.78 Y-33.953
X72.975 Y-33.526
X72.156 Y-33.125
X71.325 Y-32.75
X70.483 Y-32.401
X69.63 Y-32.078
X68.767 Y-31.783
X68.384 Y-31.665
X68.343 Y-31.654
X66.871 Y-31.269
X66.664 Y-31.216
X66.037 Y-31.067
X65.836 Y-31.033
X63.263 Y-30.652
X63.144 Y-30.638
X62.523 Y-30.593
X62.316 Y-30.583
X60.453 Y-30.511
X60.038 Y-30.499
X59.831 Y-30.494
X59.624 Y-30.492
X56.933 Y-30.681
X56.726 Y-30.703
X56.311 Y-30.758
X56.104 Y-30.786
X54.034 Y-31.16
X53.413 Y-31.276
X53.206 Y-31.327
X50.514 Y-32.123
X50.307 Y-32.194
X50.1 Y-32.266
X47.822 Y-33.219
X47.615 Y-33.31
X46.994 Y-33.607
X46.716 Y-33.759
X44.923 Y-34.749
X44.844 Y-34.795
X44.491 Y-35.002
X44.302 Y-35.119
X42.115 Y-36.659
X42.025 Y-36.726
X41.601 Y-37.073
X41.404 Y-37.238
X39.943 Y-38.523
X39.719 Y-38.73
X39.282 Y-39.145
X39.126 Y-39.308
X37.572 Y-41.009
X37.47 Y-41.123
X37.207 Y-41.423
X36.848 Y-41.911
X35.69 Y-43.494
X35.606 Y-43.617
X35.192 Y-44.237
X35.141 Y-44.323
X34.066 Y-46.187
X33.949 Y-46.394
X33.63 Y-47.016
X33.535 Y-47.223
X32.707 Y-49.103
X32.627 Y-49.294
X32.46 Y-49.708
X32.378 Y-49.915
X31.527 Y-52.608
X31.47 Y-52.815
X31.303 Y-53.644
X30.93 Y-55.508
X30.836 Y-56.129
X30.811 Y-56.336
X30.571 Y-59.029
X30.567 Y-59.236
X30.561 Y-59.65
X30.56 Y-59.858
Y-63.793
X30.605 Y-64.704
X30.666 Y-65.613
X30.782 Y-66.518
X30.943 Y-67.415
X31.144 Y-68.305
X31.381 Y-69.185
X31.649 Y-70.057
X31.948 Y-70.918
X32.276 Y-71.769
X32.631 Y-72.609
X33.013 Y-73.437
X33.421 Y-74.252
X33.854 Y-75.055
X34.312 Y-75.843
X34.794 Y-76.617
X35.299 Y-77.376
X35.827 Y-78.12
X36.377 Y-78.847
X36.949 Y-79.557
X37.541 Y-80.25
X38.154 Y-80.925
X38.788 Y-81.581
X39.44 Y-82.218
X40.113 Y-82.834
X40.803 Y-83.43
X41.511 Y-84.004
X42.237 Y-84.556
X42.978 Y-85.087
X43.736 Y-85.595
X44.508 Y-86.08
X45.294 Y-86.542
X46.094 Y-86.98
X46.906 Y-87.394
X47.73 Y-87.783
X48.566 Y-88.147
X49.413 Y-88.486
X50.27 Y-88.799
X51.135 Y-89.085
X52.009 Y-89.345
X52.89 Y-89.579
X53.778 Y-89.786
X54.672 Y-89.966
X55.571 Y-90.12
X56.474 Y-90.247
X57.38 Y-90.346
X58.289 Y-90.419
X59.2 Y-90.464
X60.112 Y-90.482
X61.023 Y-90.471
X61.934 Y-90.433
X62.844 Y-90.368
X63.751 Y-90.275
X64.655 Y-90.156
X65.555 Y-90.009
X66.45 Y-89.836
X67.34 Y-89.636
X68.223 Y-89.41
X69.099 Y-89.158
X69.968 Y-88.88
X70.827 Y-88.576
X71.678 Y-88.247
X72.518 Y-87.892
X73.347 Y-87.512
X74.164 Y-87.108
X74.969 Y-86.68
X75.761 Y-86.229
X76.54 Y-85.754
X77.304 Y-85.257
X78.054 Y-84.738
X78.788 Y-84.197
X78.849 Y-84.15
X78.936 Y-84.076
X79.017 Y-83.996
X79.091 Y-83.91
X81.572 Y-80.824
X81.986 Y-80.315
X82.123 Y-80.156
X82.193 Y-80.084
X82.814 Y-79.513
X83.473 Y-78.914
X83.643 Y-78.77
X84.318 Y-78.157
X84.955 Y-77.505
X85.546 Y-76.81
X86.096 Y-76.083
X86.61 Y-75.33
X87.093 Y-74.556
X87.545 Y-73.765
X87.97 Y-72.958
X88.366 Y-72.137
X88.735 Y-71.303
X89.079 Y-70.458
X89.396 Y-69.603
X89.687 Y-68.739
X89.952 Y-67.867
X90.191 Y-66.987
X90.405 Y-66.101
X90.593 Y-65.208
X90.754 Y-64.311
X90.89 Y-63.409
X90.923 Y-63.132
X90.934 Y-62.865
X90.902 Y-62.6
X90.827 Y-62.343
X90.749 Y-62.136
X90.391 Y-61.1
X90.322 Y-60.893
X90.195 Y-60.479
X90.138 Y-60.272
X90.034 Y-59.65
X89.937 Y-59.029
X89.843 Y-58.408
X89.815 Y-58.201
X89.515 Y-55.715
X89.488 Y-55.508
X89.397 Y-54.886
X89.354 Y-54.679
X88.775 Y-52.194
X88.725 Y-51.987
X88.592 Y-51.572
X88.524 Y-51.365
X87.784 Y-49.256
X87.718 Y-49.087
X87.462 Y-48.465
X86.471 Y-46.394
X86.364 Y-46.187
X86.127 Y-45.742
X86.026 Y-45.566
X84.87 Y-43.701
X84.738 Y-43.494
X84.308 Y-42.873
X82.689 Y-40.802
X82.607 Y-40.701
X82.193 Y-40.259
X80.705 Y-38.73
X80.537 Y-38.562
X80.123 Y-38.175
X80.048 Y-38.109
X78.041 Y-36.452
X77.845 Y-36.309
X77.431 Y-36.022
X77.224 Y-35.879
X75.259 Y-34.588
X75.153 Y-34.52
X74.887 Y-34.381
X72.459 Y-33.138
X72.255 Y-33.042
X72.048 Y-32.957
X69.563 Y-32.009
X69.356 Y-31.943
X68.942 Y-31.816
X68.735 Y-31.756
X68.343 Y-31.654
G0 Z5
X82.292 Y-79.172
Z-1.03
G1 Z-1.665 F500
X82.3 Y-79.17 Z-1.764
X82.323 Y-79.167 Z-1.861
X82.36 Y-79.161 Z-1.953
X82.412 Y-79.153 Z-2.038
X82.476 Y-79.144 Z-2.114
X82.551 Y-79.132 Z-2.179
X82.635 Y-79.12 Z-2.231
X82.726 Y-79.106 Z-2.269
X82.821 Y-79.091 Z-2.292
X82.92 Y-79.076 Z-2.3
G3 X83.643 Y-78.77 I-0.237 J1.565
G1 X83.72 Y-78.706
X83.85 Y-78.603
X84.057 Y-78.467
X84.264 Y-78.335
X85.329 Y-77.671
X85.506 Y-77.564
X86.127 Y-77.267
X86.541 Y-77.103
X86.908 Y-76.936
X87.236 Y-76.754
X87.605 Y-76.508
X88.016 Y-76.184
X88.469 Y-75.763
X88.979 Y-75.207
X89.54 Y-74.488
X90.042 Y-73.727
X90.494 Y-72.935
X90.905 Y-72.121
X91.279 Y-71.29
X91.62 Y-70.444
X91.931 Y-69.587
X92.213 Y-68.72
X92.467 Y-67.844
X92.694 Y-66.961
X92.818 Y-66.416
X92.853 Y-66.15
X92.84 Y-65.881
X92.778 Y-65.619
X92.67 Y-65.372
X92.519 Y-65.149
X92.339 Y-64.93
X92.261 Y-64.829
X91.925 Y-64.381
X91.821 Y-64.207
X91.127 Y-62.965
X91.097 Y-62.908
X90.827 Y-62.343
G3 X89.653 Y-62.463 I-0.563 J-0.293
G1 X85.718 Y-76.331
G3 X86.541 Y-77.103 I0.611 J-0.173
G1 X87.37 Y-76.775
X87.577 Y-76.702
X87.991 Y-76.571
X88.198 Y-76.517
X89.026 Y-76.352
X89.263 Y-76.293
X89.531 Y-76.202
X89.82 Y-76.078
X90.135 Y-75.911
X90.491 Y-75.684
X90.868 Y-75.399
X91.287 Y-75.026
X91.749 Y-74.542
X92.239 Y-73.938
X92.755 Y-73.187
X93.212 Y-72.398
X93.619 Y-71.582
X93.983 Y-70.746
X94.309 Y-69.894
X94.601 Y-69.03
X94.747 Y-68.491
X94.797 Y-68.161
X94.773 Y-67.829
X94.674 Y-67.51
X94.507 Y-67.221
X94.279 Y-66.977
X93.947 Y-66.693
X93.788 Y-66.555
X93.479 Y-66.279
X93.374 Y-66.177
X93.278 Y-66.071
X93.167 Y-65.94
X92.519 Y-65.149
G3 X91.435 Y-65.382 I-0.477 J-0.42
G1 X88.317 Y-75.539
G3 X89.026 Y-76.352 I0.607 J-0.186
G1 X89.44 Y-76.27
X90.061 Y-76.159
X90.268 Y-76.149
X90.683 Y-76.132
X91.097 Y-76.125
X91.247 Y-76.115
X91.477 Y-76.081
X91.729 Y-76.024
X91.997 Y-75.939
X92.313 Y-75.81
X92.634 Y-75.648
X92.994 Y-75.429
X93.378 Y-75.151
X93.799 Y-74.791
X94.237 Y-74.351
X94.717 Y-73.783
X95.229 Y-73.068
X95.7 Y-72.287
X96.114 Y-71.475
X96.397 Y-70.801
X96.571 Y-70.27
X96.68 Y-69.818
X96.684 Y-69.798
X96.698 Y-69.471
X96.641 Y-69.148
X96.514 Y-68.846
X96.323 Y-68.579
X96.079 Y-68.36
X95.191 Y-67.729
X95.031 Y-67.609
X94.919 Y-67.521
X94.279 Y-66.977
G3 X93.284 Y-67.266 I-0.395 J-0.497
G1 X90.509 Y-75.282
G3 X91.097 Y-76.125 I0.6 J-0.208
G1 X91.925 Y-76.113
X92.132 Y-76.112
X92.339 Y-76.117
X92.546 Y-76.139
X92.753 Y-76.167
X92.867 Y-76.186
X93.042 Y-76.206
X93.234 Y-76.213
X93.457 Y-76.203
X93.689 Y-76.174
X93.965 Y-76.117
X94.253 Y-76.032
X94.572 Y-75.91
X94.932 Y-75.737
X95.293 Y-75.527
X95.708 Y-75.239
X96.123 Y-74.898
X96.573 Y-74.463
X97.026 Y-73.949
X97.441 Y-73.394
X97.807 Y-72.813
X98.067 Y-72.316
X98.267 Y-71.844
X98.404 Y-71.433
X98.46 Y-71.202
X98.502 Y-70.91
X98.485 Y-70.617
X98.41 Y-70.332
X98.281 Y-70.068
X98.102 Y-69.835
X97.88 Y-69.641
X96.079 Y-68.36
G3 X95.141 Y-68.649 I-0.35 J-0.53
G1 X92.406 Y-75.323
X92.38 Y-75.401
X92.364 Y-75.481
X92.359 Y-75.563
Y-75.564
G3 X92.867 Y-76.186 I0.635 J0
G1 X93.995 Y-76.375
X94.41 Y-76.454
X94.617 Y-76.495
X94.679 Y-76.514
X94.825 Y-76.55
X95.013 Y-76.577
X95.224 Y-76.59
X95.454 Y-76.585
X95.724 Y-76.558
X95.999 Y-76.508
X96.322 Y-76.422
X96.647 Y-76.307
X97.019 Y-76.14
X97.386 Y-75.939
X97.789 Y-75.674
X98.191 Y-75.36
X98.578 Y-75.005
X98.954 Y-74.6
X99.301 Y-74.16
X99.585 Y-73.732
X99.808 Y-73.33
X99.984 Y-72.944
X100.111 Y-72.59
X100.151 Y-72.446
X100.2 Y-72.15
X100.188 Y-71.85
X100.116 Y-71.558
X99.987 Y-71.287
X99.805 Y-71.048
X99.58 Y-70.85
X97.88 Y-69.641
G3 X96.954 Y-69.906 I-0.35 J-0.53
G1 X94.309 Y-75.648
G3 X94.679 Y-76.514 I0.577 J-0.266
G1 X94.824 Y-76.558
X95.238 Y-76.699
X95.445 Y-76.772
X96.066 Y-76.997
X96.273 Y-77.073
X96.471 Y-77.135
X96.663 Y-77.178
X96.866 Y-77.207
X97.107 Y-77.221
X97.357 Y-77.216
X97.646 Y-77.187
X97.941 Y-77.133
X98.275 Y-77.044
X98.614 Y-76.924
X98.977 Y-76.761
X99.357 Y-76.552
X99.729 Y-76.307
X100.097 Y-76.02
X100.455 Y-75.691
X100.792 Y-75.328
X101.07 Y-74.974
X101.31 Y-74.613
X101.496 Y-74.278
X101.65 Y-73.939
X101.766 Y-73.617
X101.771 Y-73.598
X101.82 Y-73.302
X101.808 Y-73.002
X101.736 Y-72.71
X101.607 Y-72.439
X101.426 Y-72.2
X101.2 Y-72.002
X99.58 Y-70.85
G3 X98.669 Y-71.081 I-0.35 J-0.53
G1 X95.952 Y-76.186
G3 X96.273 Y-77.073 I0.561 J-0.298
G1 X96.48 Y-77.149
X96.687 Y-77.232
X97.131 Y-77.464
X97.308 Y-77.558
X97.629 Y-77.745
X97.766 Y-77.815
X97.916 Y-77.878
X98.098 Y-77.938
X98.292 Y-77.985
X98.521 Y-78.021
X98.76 Y-78.039
X99.036 Y-78.038
X99.321 Y-78.014
X99.638 Y-77.961
X99.972 Y-77.877
X100.316 Y-77.761
X100.681 Y-77.604
X101.05 Y-77.409
X101.412 Y-77.179
X101.765 Y-76.912
X102.106 Y-76.609
X102.419 Y-76.281
X102.676 Y-75.965
X102.893 Y-75.649
X103.073 Y-75.337
X103.22 Y-75.026
X103.289 Y-74.843
X103.37 Y-74.53
X103.38 Y-74.206
X103.32 Y-73.888
X103.193 Y-73.59
X103.003 Y-73.328
X102.761 Y-73.112
X101.2 Y-72.002
G3 X100.31 Y-72.199 I-0.35 J-0.53
G1 X97.427 Y-76.874
G3 X97.629 Y-77.745 I0.541 J-0.333
G1 X98.551 Y-78.282
X98.567 Y-78.292
X98.758 Y-78.421
X98.965 Y-78.566
X99.127 Y-78.667
X99.272 Y-78.743
X99.441 Y-78.815
X99.631 Y-78.878
X99.843 Y-78.93
X100.083 Y-78.968
X100.338 Y-78.988
X100.627
X100.923 Y-78.963
X101.251 Y-78.91
X101.595 Y-78.825
X101.945 Y-78.708
X102.308 Y-78.553
X102.676 Y-78.36
X103.037 Y-78.132
X103.385 Y-77.87
X103.708 Y-77.584
X103.993 Y-77.288
X104.242 Y-76.983
X104.445 Y-76.69
X104.624 Y-76.382
X104.76 Y-76.094
X104.82 Y-75.937
X104.902 Y-75.623
X104.913 Y-75.299
X104.854 Y-74.98
X104.726 Y-74.682
X104.537 Y-74.418
X104.294 Y-74.202
X102.761 Y-73.112
G3 X101.89 Y-73.28 I-0.35 J-0.53
G1 X98.825 Y-77.697
G3 X98.965 Y-78.566 I0.522 J-0.362
G1 X99.379 Y-78.857
X100.414 Y-79.593
X100.554 Y-79.682
X100.705 Y-79.762
X100.885 Y-79.84
X101.08 Y-79.906
X101.308 Y-79.964
X101.548 Y-80.004
X101.823 Y-80.028
X102.113 Y-80.029
X102.424 Y-80.006
X102.764 Y-79.953
X103.108 Y-79.87
X103.465 Y-79.754
X103.833 Y-79.6
X104.202 Y-79.41
X104.563 Y-79.185
X104.91 Y-78.928
X105.229 Y-78.649
X105.512 Y-78.36
X105.758 Y-78.063
X105.961 Y-77.775
X106.14 Y-77.471
X106.277 Y-77.188
X106.339 Y-77.03
X106.423 Y-76.714
X106.436 Y-76.388
X106.377 Y-76.067
X106.25 Y-75.767
X106.06 Y-75.502
X105.816 Y-75.285
X104.294 Y-74.202
G3 X103.43 Y-74.361 I-0.35 J-0.53
G1 X100.285 Y-78.717
G3 X100.414 Y-79.593 I0.515 J-0.372
G1 X101.863 Y-80.623
X102.044 Y-80.738
X102.198 Y-80.82
X102.382 Y-80.9
X102.58 Y-80.967
X102.813 Y-81.026
X103.057 Y-81.067
X103.336 Y-81.091
X103.631 Y-81.092
X103.945 Y-81.069
X104.288 Y-81.015
X104.638 Y-80.931
X104.995 Y-80.815
X105.364 Y-80.661
X105.732 Y-80.471
X106.094 Y-80.245
X106.441 Y-79.989
X106.756 Y-79.713
X107.04 Y-79.423
X107.281 Y-79.132
X107.484 Y-78.843
X107.66 Y-78.543
X107.798 Y-78.261
X107.857 Y-78.109
X107.941 Y-77.794
X107.954 Y-77.468
X107.895 Y-77.147
X107.768 Y-76.846
X107.578 Y-76.581
X107.335 Y-76.364
X105.816 Y-75.285
G3 X104.958 Y-75.434 I-0.35 J-0.53
G1 X101.741 Y-79.739
G3 X101.863 Y-80.623 I0.509 J-0.38
G1 X103.427 Y-81.735
X103.553 Y-81.816
X103.711 Y-81.898
X103.898 Y-81.978
X104.099 Y-82.045
X104.335 Y-82.103
X104.583 Y-82.143
X104.865 Y-82.166
X105.164
X105.481 Y-82.141
X105.826 Y-82.085
X106.179 Y-81.999
X106.538 Y-81.879
X106.907 Y-81.723
X107.275 Y-81.531
X107.636 Y-81.303
X107.983 Y-81.044
X108.294 Y-80.769
X108.577 Y-80.477
X108.813 Y-80.189
X109.015 Y-79.898
X109.188 Y-79.601
X109.324 Y-79.317
X109.376 Y-79.181
X109.459 Y-78.866
X109.47 Y-78.541
X109.411 Y-78.222
X109.284 Y-77.923
X109.094 Y-77.659
X108.851 Y-77.443
X107.335 Y-76.364
G3 X106.472 Y-76.519 I-0.35 J-0.53
G1 X103.3 Y-80.856
G3 X103.427 Y-81.735 I0.513 J-0.375
G1 X104.876 Y-82.766
X105.06 Y-82.883
X105.219 Y-82.967
X105.402 Y-83.046
X105.605 Y-83.115
X105.838 Y-83.174
X106.084 Y-83.215
X106.367 Y-83.239
X106.66 Y-83.241
X106.98 Y-83.217
X107.324 Y-83.163
X107.672 Y-83.08
X108.034 Y-82.962
X108.403 Y-82.807
X108.773 Y-82.617
X109.133 Y-82.392
X109.48 Y-82.136
X109.795 Y-81.861
X110.076 Y-81.573
X110.317 Y-81.282
X110.519 Y-80.995
X110.695 Y-80.696
X110.831 Y-80.414
X110.889 Y-80.266
X110.974 Y-79.95
X110.987 Y-79.624
X110.928 Y-79.303
X110.801 Y-79.003
X110.611 Y-78.738
X110.367 Y-78.521
X108.851 Y-77.443
G3 X107.995 Y-77.59 I-0.35 J-0.53
G1 X104.755 Y-81.878
G3 X104.627 Y-82.261 I0.507 J-0.383
X104.876 Y-82.766 I0.635 J0
G1 X106.419 Y-83.862
X106.572 Y-83.96
X106.73 Y-84.044
X106.915 Y-84.124
X107.116 Y-84.192
X107.351 Y-84.251
X107.598 Y-84.293
X107.88 Y-84.317
X108.176 Y-84.319
X108.494 Y-84.295
X108.839 Y-84.241
X109.19 Y-84.157
X109.55 Y-84.039
X109.919 Y-83.885
X110.287 Y-83.695
X110.649 Y-83.47
X110.996 Y-83.213
X111.31 Y-82.939
X111.593 Y-82.649
X111.833 Y-82.36
X112.035 Y-82.072
X112.211 Y-81.774
X112.348 Y-81.492
X112.405 Y-81.344
X112.489 Y-81.028
X112.503 Y-80.702
X112.444 Y-80.381
X112.317 Y-80.081
X112.127 Y-79.816
X111.883 Y-79.598
X110.367 Y-78.521
G3 X109.509 Y-78.671 I-0.35 J-0.53
G1 X106.296 Y-82.978
G3 X106.419 Y-83.862 I0.509 J-0.38
G1 X107.906 Y-84.92
X108.09 Y-85.037
X108.247 Y-85.121
X108.432 Y-85.201
X108.634 Y-85.269
X108.868 Y-85.328
X109.115 Y-85.369
X109.397 Y-85.394
X109.693 Y-85.395
X110.011 Y-85.372
X110.356 Y-85.318
X110.706 Y-85.234
X111.066 Y-85.116
X111.435 Y-84.962
X111.804 Y-84.772
X112.166 Y-84.547
X112.512 Y-84.29
X112.826 Y-84.016
X113.109 Y-83.727
X113.348 Y-83.438
X113.551 Y-83.149
X113.726 Y-82.851
X113.863 Y-82.569
X113.921 Y-82.421
X114.005 Y-82.106
X114.018 Y-81.78
X113.96 Y-81.459
X113.832 Y-81.159
X113.642 Y-80.893
X113.399 Y-80.676
X111.883 Y-79.598
G3 X111.027 Y-79.746 I-0.35 J-0.53
G1 X107.786 Y-84.033
G3 X107.657 Y-84.416 I0.507 J-0.383
X107.906 Y-84.92 I0.635 J0
G1 X109.452 Y-86.019
X109.602 Y-86.115
X109.76 Y-86.199
X109.945 Y-86.279
X110.147 Y-86.347
X110.382 Y-86.406
X110.629 Y-86.448
X110.911 Y-86.472
X111.207 Y-86.474
X111.526 Y-86.45
X111.871 Y-86.396
X112.221 Y-86.312
X112.581 Y-86.195
X112.95 Y-86.04
X113.319 Y-85.85
X113.681 Y-85.625
X114.028 Y-85.368
X114.342 Y-85.094
X114.624 Y-84.805
X114.864 Y-84.516
X115.067 Y-84.227
X115.242 Y-83.929
X115.379 Y-83.647
X115.437 Y-83.499
X115.521 Y-83.184
X115.534 Y-82.858
X115.475 Y-82.537
X115.348 Y-82.236
X115.158 Y-81.971
X114.915 Y-81.754
X113.399 Y-80.676
G3 X112.54 Y-80.827 I-0.35 J-0.53
G1 X109.329 Y-85.135
G3 X109.452 Y-86.019 I0.509 J-0.379
G1 X110.974 Y-87.101
X111.118 Y-87.193
X111.276 Y-87.277
X111.461 Y-87.357
X111.663 Y-87.425
X111.897 Y-87.485
X112.144 Y-87.526
X112.427 Y-87.55
X112.722 Y-87.552
X113.041 Y-87.528
X113.386 Y-87.474
X113.737 Y-87.39
X114.097 Y-87.273
X114.466 Y-87.118
X114.835 Y-86.928
X115.197 Y-86.703
X115.544 Y-86.446
X115.857 Y-86.172
X116.14 Y-85.883
X116.38 Y-85.594
X116.582 Y-85.305
X116.758 Y-85.007
X116.895 Y-84.725
X116.952 Y-84.577
X117.037 Y-84.262
X117.05 Y-83.936
X116.991 Y-83.615
X116.864 Y-83.314
X116.674 Y-83.049
X116.43 Y-82.832
X114.915 Y-81.754
G3 X114.055 Y-81.905 I-0.35 J-0.53
G1 X110.85 Y-86.218
G3 X110.974 Y-87.101 I0.51 J-0.379
G1 X112.423 Y-88.132
X112.639 Y-88.27
X112.796 Y-88.353
X112.981 Y-88.433
X113.182 Y-88.501
X113.417 Y-88.56
X113.663 Y-88.602
X113.946 Y-88.626
X114.241 Y-88.628
X114.56 Y-88.604
X114.904 Y-88.55
X115.254 Y-88.466
X115.614 Y-88.349
X115.983 Y-88.194
X116.352 Y-88.004
X116.713 Y-87.779
X117.06 Y-87.522
X117.374 Y-87.249
X117.656 Y-86.959
X117.896 Y-86.671
X118.098 Y-86.382
X118.274 Y-86.084
X118.41 Y-85.802
X118.468 Y-85.655
X118.552 Y-85.339
X118.565 Y-85.013
X118.507 Y-84.692
X118.379 Y-84.392
X118.189 Y-84.127
X117.946 Y-83.909
X116.43 Y-82.832
G3 X115.577 Y-82.975 I-0.35 J-0.53
G1 X112.305 Y-87.241
G3 X112.423 Y-88.132 I0.504 J-0.386
G1 X114.024 Y-89.27
X114.15 Y-89.351
X114.309 Y-89.434
X114.495 Y-89.514
X114.697 Y-89.583
X114.932 Y-89.641
X115.18 Y-89.682
X115.463 Y-89.706
X115.76 Y-89.708
X116.079 Y-89.683
X116.424 Y-89.628
X116.776 Y-89.544
X117.136 Y-89.425
X117.505 Y-89.27
X117.874 Y-89.079
X118.236 Y-88.853
X118.582 Y-88.595
X118.895 Y-88.321
X119.177 Y-88.031
X119.416 Y-87.743
X119.618 Y-87.453
X119.793 Y-87.156
X119.929 Y-86.874
X119.985 Y-86.73
X120.068 Y-86.415
X120.081 Y-86.089
X120.022 Y-85.769
X119.895 Y-85.469
X119.705 Y-85.204
X119.462 Y-84.987
X117.946 Y-83.909
G3 X117.085 Y-84.063 I-0.35 J-0.53
G1 X113.898 Y-88.389
G3 X114.024 Y-89.27 I0.511 J-0.377
G1 X115.48 Y-90.306
X115.668 Y-90.426
X115.826 Y-90.509
X116.011 Y-90.589
X116.212 Y-90.658
X116.447 Y-90.716
X116.693 Y-90.758
X116.976 Y-90.782
X117.271 Y-90.784
X117.59 Y-90.76
X117.935 Y-90.706
X118.284 Y-90.622
X118.645 Y-90.505
X119.014 Y-90.35
X119.383 Y-90.16
X119.744 Y-89.935
X120.091 Y-89.678
X120.405 Y-89.404
X120.687 Y-89.116
X120.927 Y-88.826
X121.129 Y-88.538
X121.305 Y-88.24
X121.442 Y-87.958
X121.499 Y-87.81
X121.583 Y-87.495
X121.597 Y-87.169
X121.538 Y-86.848
X121.411 Y-86.547
X121.221 Y-86.282
X120.977 Y-86.065
X119.462 Y-84.987
G3 X118.606 Y-85.134 I-0.35 J-0.53
G1 X115.36 Y-89.418
G3 X115.48 Y-90.306 I0.506 J-0.383
G1 X116.978 Y-91.371
X117.184 Y-91.502
X117.342 Y-91.586
X117.527 Y-91.666
X117.729 Y-91.734
X117.963 Y-91.793
X118.21 Y-91.835
X118.492 Y-91.859
X118.788 Y-91.861
X119.106 Y-91.837
X119.451 Y-91.783
X119.801 Y-91.699
X120.161 Y-91.582
X120.53 Y-91.427
X120.898 Y-91.237
X121.26 Y-91.012
X121.607 Y-90.756
X121.921 Y-90.482
X122.203 Y-90.192
X122.442 Y-89.904
X122.645 Y-89.615
X122.82 Y-89.317
X122.957 Y-89.035
X123.015 Y-88.888
X123.099 Y-88.573
X123.112 Y-88.246
X123.054 Y-87.925
X122.926 Y-87.625
X122.736 Y-87.36
X122.493 Y-87.143
X120.977 Y-86.065
G3 X120.123 Y-86.21 I-0.35 J-0.53
G1 X116.86 Y-90.481
G3 X116.978 Y-91.371 I0.505 J-0.385
G1 X118.542 Y-92.483
X118.696 Y-92.581
X118.854 Y-92.665
X119.039 Y-92.745
X119.241 Y-92.813
X119.476 Y-92.872
X119.723 Y-92.914
X120.005 Y-92.938
X120.301 Y-92.94
X120.62 Y-92.916
X120.965 Y-92.862
X121.315 Y-92.778
X121.675 Y-92.66
X122.044 Y-92.506
X122.413 Y-92.316
X122.775 Y-92.09
X123.122 Y-91.834
X123.436 Y-91.56
X123.718 Y-91.271
X123.82 Y-91.149
X123.882 Y-91.068
X123.938 Y-90.984
X123.989 Y-90.896
G3 X123.234 Y-90.011 I-0.571 J0.277
G1 X118.743 Y-91.37
G3 X118.542 Y-92.483 I0.184 J-0.608
G1 X119.267 Y-92.998
X119.463 Y-93.115
X119.67 Y-93.232
X120.009 Y-93.413
X120.084 Y-93.448
X120.291 Y-93.504
X120.498 Y-93.551
X120.705 Y-93.589
X120.913 Y-93.585
X121.12 Y-93.577
X121.223 Y-93.573
X121.327 Y-93.556
X121.534 Y-93.494
X121.796 Y-93.413
X121.872 Y-93.38
X121.948 Y-93.337
X122.158 Y-93.206
X122.362 Y-93.07
X122.436 Y-92.998
X122.821 Y-92.584
X122.987 Y-92.377
X123.397 Y-91.805
X123.604 Y-91.514
X123.811 Y-91.215
X123.862 Y-91.134
X124.082 Y-90.72
X124.189 Y-90.513
X124.21 Y-90.458
X124.225 Y-90.403
X124.295 Y-90.099
X124.336 Y-89.891
X124.333 Y-89.684
X124.321 Y-89.374
X124.307 Y-89.27
X124.246 Y-89.063
X124.182 Y-88.856
X124.147 Y-88.752
X124.094 Y-88.649
X123.964 Y-88.442
X123.83 Y-88.234
X123.811 Y-88.212
X123.604 Y-88.015
X123.385 Y-87.82
X123.144 Y-87.613
X122.983 Y-87.491
X122.493 Y-87.143
G0 Z5
X31.106 Y-62.494
Z-1.03
G1 Z-1.665 F500
X31.102 Y-62.5 Z-1.764
X31.09 Y-62.52 Z-1.861
X31.07 Y-62.553 Z-1.953
X31.044 Y-62.598 Z-2.038
X31.01 Y-62.654 Z-2.114
X30.972 Y-62.719 Z-2.179
X30.928 Y-62.792 Z-2.231
X30.881 Y-62.871 Z-2.269
X30.832 Y-62.954 Z-2.292
X30.781 Y-63.039 Z-2.3
G3 X30.56 Y-63.793 I1.36 J-0.809
G1 Y-71.25
X30.602 Y-72.097
X30.688 Y-72.754
X30.857 Y-73.543
X31.119 Y-74.416
X31.444 Y-75.268
X31.819 Y-76.099
X32.234 Y-76.911
X32.684 Y-77.704
X33.165 Y-78.479
X33.673 Y-79.236
X34.205 Y-79.976
X34.76 Y-80.7
X35.337 Y-81.406
X35.935 Y-82.094
X36.552 Y-82.765
X37.188 Y-83.418
X37.843 Y-84.053
X38.516 Y-84.669
X39.205 Y-85.265
X39.911 Y-85.842
X40.633 Y-86.399
X41.371 Y-86.935
X42.123 Y-87.45
X42.89 Y-87.944
X43.67 Y-88.417
X44.462 Y-88.867
X45.267 Y-89.296
X46.084 Y-89.701
X46.911 Y-90.084
X47.749 Y-90.444
X48.597 Y-90.78
X49.454 Y-91.092
X50.319 Y-91.381
X51.191 Y-91.645
X52.071 Y-91.885
X52.957 Y-92.099
X53.849 Y-92.289
X54.746 Y-92.454
X55.647 Y-92.594
X56.551 Y-92.709
X57.459 Y-92.799
X58.368 Y-92.863
X59.279 Y-92.902
X60.191 Y-92.916
X61.103 Y-92.905
X62.014 Y-92.868
X62.924 Y-92.806
X63.831 Y-92.719
X64.736 Y-92.606
X65.637 Y-92.468
X66.534 Y-92.305
X67.427 Y-92.117
X68.313 Y-91.905
X69.194 Y-91.669
X70.068 Y-91.408
X70.934 Y-91.124
X71.792 Y-90.816
X72.642 Y-90.484
X73.482 Y-90.129
X74.128 Y-89.835
X74.329 Y-89.724
X74.511 Y-89.583
X74.669 Y-89.415
X79.091 Y-83.91
G3 X79.109 Y-83.174 I-0.509 J0.38
G1 X79.053 Y-83.092 Z-2.292
X78.999 Y-83.012 Z-2.269
X78.947 Y-82.936 Z-2.231
X78.9 Y-82.865 Z-2.179
X78.857 Y-82.803 Z-2.114
X78.821 Y-82.749 Z-2.038
X78.792 Y-82.706 Z-1.953
X78.77 Y-82.674 Z-1.861
X78.757 Y-82.655 Z-1.764
X78.753 Y-82.649 Z-1.665
G0 Z5
X31.106 Y-69.95
Z-1.03
G1 Z-1.665 F500
X31.102 Y-69.957 Z-1.764
X31.09 Y-69.977 Z-1.861
X31.07 Y-70.01 Z-1.953
X31.044 Y-70.055 Z-2.038
X31.01 Y-70.11 Z-2.114
X30.972 Y-70.175 Z-2.179
X30.928 Y-70.248 Z-2.231
X30.881 Y-70.328 Z-2.269
X30.832 Y-70.411 Z-2.292
X30.781 Y-70.496 Z-2.3
G3 X30.56 Y-71.25 I1.36 J-0.809
G1 Y-76.221
X30.59 Y-76.82
X30.653 Y-77.303
X30.776 Y-77.879
X30.974 Y-78.54
X31.283 Y-79.333
X31.681 Y-80.153
X32.135 Y-80.944
X32.631 Y-81.709
X33.163 Y-82.449
X33.725 Y-83.168
X34.313 Y-83.865
X34.923 Y-84.542
X35.555 Y-85.2
X36.205 Y-85.839
X36.874 Y-86.459
X37.559 Y-87.06
X38.261 Y-87.642
X38.979 Y-88.205
X39.711 Y-88.748
X40.458 Y-89.271
X41.218 Y-89.775
X41.991 Y-90.258
X42.777 Y-90.721
X43.574 Y-91.163
X44.383 Y-91.585
X45.202 Y-91.985
X46.031 Y-92.365
X46.87 Y-92.722
X47.717 Y-93.058
X48.573 Y-93.372
X49.437 Y-93.664
X50.309 Y-93.933
X51.187 Y-94.178
X52.071 Y-94.401
X52.961 Y-94.601
X53.855 Y-94.777
X54.754 Y-94.93
X55.657 Y-95.06
X56.562 Y-95.166
X57.47 Y-95.25
X58.38 Y-95.309
X59.291 Y-95.346
X60.203 Y-95.359
X61.115 Y-95.348
X62.026 Y-95.314
X62.936 Y-95.256
X63.844 Y-95.175
X64.75 Y-95.069
X65.652 Y-94.94
X66.551 Y-94.788
X67.446 Y-94.613
X68.336 Y-94.415
X69.221 Y-94.194
X70.099 Y-93.951
X70.888 Y-93.71
X71.16 Y-93.597
X71.404 Y-93.431
X71.611 Y-93.221
X74.669 Y-89.415
G3 X74.686 Y-88.679 I-0.509 J0.38
G1 X74.631 Y-88.596 Z-2.292
X74.576 Y-88.516 Z-2.269
X74.525 Y-88.44 Z-2.231
X74.477 Y-88.37 Z-2.179
X74.435 Y-88.307 Z-2.114
X74.399 Y-88.253 Z-2.038
X74.369 Y-88.21 Z-1.953
X74.348 Y-88.178 Z-1.861
X74.335 Y-88.159 Z-1.764
X74.331 Y-88.153 Z-1.665
G0 Z5
X31.106 Y-74.921
Z-1.03
G1 Z-1.665 F500
X31.102 Y-74.928 Z-1.764
X31.09 Y-74.948 Z-1.861
X31.07 Y-74.981 Z-1.953
X31.044 Y-75.026 Z-2.038
X31.01 Y-75.081 Z-2.114
X30.972 Y-75.146 Z-2.179
X30.928 Y-75.22 Z-2.231
X30.881 Y-75.299 Z-2.269
X30.832 Y-75.382 Z-2.292
X30.781 Y-75.467 Z-2.3
G3 X30.56 Y-76.221 I1.36 J-0.809
G1 Y-80.363
X30.582 Y-80.818
X30.637 Y-81.236
X30.737 Y-81.702
X30.902 Y-82.253
X31.153 Y-82.899
X31.515 Y-83.644
X31.978 Y-84.43
X32.495 Y-85.181
X33.054 Y-85.901
X33.647 Y-86.593
X34.269 Y-87.261
X34.914 Y-87.905
X35.58 Y-88.528
X36.264 Y-89.13
X36.967 Y-89.712
X37.684 Y-90.274
X38.417 Y-90.817
X39.164 Y-91.34
X39.923 Y-91.845
X40.695 Y-92.33
X41.479 Y-92.796
X42.274 Y-93.242
X43.08 Y-93.669
X43.896 Y-94.075
X44.722 Y-94.462
X45.557 Y-94.828
X46.401 Y-95.174
X47.252 Y-95.499
X48.112 Y-95.803
X48.979 Y-96.087
X49.852 Y-96.349
X50.732 Y-96.589
X51.617 Y-96.809
X52.507 Y-97.006
X53.401 Y-97.183
X54.3 Y-97.337
X55.202 Y-97.47
X56.107 Y-97.582
X57.014 Y-97.671
X57.924 Y-97.737
X58.834 Y-97.782
X59.746 Y-97.805
X60.658 Y-97.806
X61.569 Y-97.785
X62.48 Y-97.741
X63.39 Y-97.676
X64.297 Y-97.588
X65.202 Y-97.479
X66.105 Y-97.348
X67.004 Y-97.195
X67.899 Y-97.02
X68.19 Y-96.956
X68.429 Y-96.882
X68.653 Y-96.768
X68.854 Y-96.619
X69.027 Y-96.437
X71.611 Y-93.221
G3 X71.628 Y-92.485 I-0.509 J0.38
G1 X71.573 Y-92.403 Z-2.292
X71.518 Y-92.322 Z-2.269
X71.467 Y-92.246 Z-2.231
X71.419 Y-92.176 Z-2.179
X71.377 Y-92.113 Z-2.114
X71.34 Y-92.059 Z-2.038
X71.311 Y-92.016 Z-1.953
X71.29 Y-91.985 Z-1.861
X71.277 Y-91.965 Z-1.764
X71.272 Y-91.959 Z-1.665
G0 Z5
X31.106 Y-79.064
Z-1.03
G1 Z-1.665 F500
X31.102 Y-79.071 Z-1.764
X31.09 Y-79.091 Z-1.861
X31.07 Y-79.124 Z-1.953
X31.044 Y-79.168 Z-2.038
X31.01 Y-79.224 Z-2.114
X30.972 Y-79.289 Z-2.179
X30.928 Y-79.362 Z-2.231
X30.881 Y-79.441 Z-2.269
X30.832 Y-79.525 Z-2.292
X30.781 Y-79.61 Z-2.3
G3 X30.56 Y-80.363 I1.36 J-0.809
G1 Y-84.092
X30.577 Y-84.43
X30.626 Y-84.806
X30.714 Y-85.219
X30.86 Y-85.707
X31.076 Y-86.259
X31.383 Y-86.893
X31.82 Y-87.635
X32.344 Y-88.381
X32.918 Y-89.089
X33.53 Y-89.765
X34.173 Y-90.411
X34.841 Y-91.032
X35.531 Y-91.628
X36.24 Y-92.202
X36.965 Y-92.755
X37.705 Y-93.287
X38.459 Y-93.8
X39.226 Y-94.293
X40.005 Y-94.767
X40.795 Y-95.222
X41.596 Y-95.658
X42.407 Y-96.074
X43.227 Y-96.472
X44.057 Y-96.85
X44.895 Y-97.21
X45.741 Y-97.549
X46.595 Y-97.87
X47.456 Y-98.171
X48.323 Y-98.452
X49.197 Y-98.713
X50.076 Y-98.954
X50.961 Y-99.175
X51.85 Y-99.376
X52.744 Y-99.557
X53.641 Y-99.718
X54.542 Y-99.858
X55.446 Y-99.977
X56.353 Y-100.075
X57.261 Y-100.152
X58.171 Y-100.209
X59.082 Y-100.246
X59.994 Y-100.261
X60.906 Y-100.256
X61.817 Y-100.231
X62.728 Y-100.184
X63.637 Y-100.117
X64.545 Y-100.03
X65.45 Y-99.922
X65.748 Y-99.88
X66.018 Y-99.815
X66.272 Y-99.7
X66.5 Y-99.54
X66.694 Y-99.341
X69.027 Y-96.437
G3 X69.044 Y-95.701 I-0.509 J0.38
G1 X68.989 Y-95.619 Z-2.292
X68.934 Y-95.539 Z-2.269
X68.883 Y-95.462 Z-2.231
X68.835 Y-95.392 Z-2.179
X68.793 Y-95.329 Z-2.114
X68.756 Y-95.276 Z-2.038
X68.727 Y-95.233 Z-1.953
X68.706 Y-95.201 Z-1.861
X68.693 Y-95.182 Z-1.764
X68.688 Y-95.175 Z-1.665
G0 Z5
X31.106 Y-82.792
Z-1.03
G1 Z-1.665 F500
X31.102 Y-82.799 Z-1.764
X31.09 Y-82.819 Z-1.861
X31.07 Y-82.852 Z-1.953
X31.044 Y-82.897 Z-2.038
X31.01 Y-82.952 Z-2.114
X30.972 Y-83.017 Z-2.179
X30.928 Y-83.09 Z-2.231
X30.881 Y-83.17 Z-2.269
X30.832 Y-83.253 Z-2.292
X30.781 Y-83.338 Z-2.3
G3 X30.56 Y-84.092 I1.36 J-0.809
G1 Y-87.406
X30.58 Y-87.802
X30.624 Y-88.145
X30.707 Y-88.529
X30.84 Y-88.974
X31.034 Y-89.473
X31.309 Y-90.039
X31.695 Y-90.695
X32.219 Y-91.441
X32.801 Y-92.144
X33.426 Y-92.808
X34.084 Y-93.439
X34.769 Y-94.041
X35.476 Y-94.616
X36.203 Y-95.167
X36.945 Y-95.696
X37.703 Y-96.203
X38.474 Y-96.69
X39.257 Y-97.157
X40.051 Y-97.605
X40.856 Y-98.034
X41.67 Y-98.444
X42.494 Y-98.836
X43.325 Y-99.21
X44.165 Y-99.564
X45.013 Y-99.901
X45.867 Y-100.219
X46.729 Y-100.519
X47.596 Y-100.799
X48.469 Y-101.062
X49.348 Y-101.305
X50.232 Y-101.53
X51.12 Y-101.735
X52.013 Y-101.921
X52.909 Y-102.088
X53.809 Y-102.235
X54.712 Y-102.363
X55.617 Y-102.471
X56.525 Y-102.56
X57.434 Y-102.629
X58.344 Y-102.679
X59.256 Y-102.71
X60.167 Y-102.721
X61.079 Y-102.712
X61.99 Y-102.684
X62.901 Y-102.637
X63.474 Y-102.595
X63.773 Y-102.542
X64.055 Y-102.429
X64.308 Y-102.261
X64.521 Y-102.046
X66.694 Y-99.341
G3 X66.712 Y-98.605 I-0.509 J0.38
G1 X66.656 Y-98.522 Z-2.292
X66.602 Y-98.442 Z-2.269
X66.55 Y-98.366 Z-2.231
X66.502 Y-98.295 Z-2.179
X66.46 Y-98.233 Z-2.114
X66.424 Y-98.179 Z-2.038
X66.394 Y-98.136 Z-1.953
X66.373 Y-98.104 Z-1.861
X66.36 Y-98.085 Z-1.764
X66.356 Y-98.079 Z-1.665
G0 Z5
X31.106 Y-86.107
Z-1.03
G1 Z-1.665 F500
X31.102 Y-86.113 Z-1.764
X31.09 Y-86.133 Z-1.861
X31.07 Y-86.166 Z-1.953
X31.044 Y-86.211 Z-2.038
X31.01 Y-86.266 Z-2.114
X30.972 Y-86.332 Z-2.179
X30.928 Y-86.405 Z-2.231
X30.881 Y-86.484 Z-2.269
X30.832 Y-86.567 Z-2.292
X30.781 Y-86.652 Z-2.3
G3 X30.56 Y-87.406 I1.36 J-0.809
G1 Y-90.72
X30.573 Y-90.993
X30.615 Y-91.311
X30.693 Y-91.677
X30.818 Y-92.092
X30.999 Y-92.558
X31.253 Y-93.081
X31.607 Y-93.683
X32.089 Y-94.369
X32.671 Y-95.07
X33.302 Y-95.729
X33.97 Y-96.35
X34.667 Y-96.938
X35.387 Y-97.497
X36.127 Y-98.03
X36.884 Y-98.539
X37.655 Y-99.025
X38.438 Y-99.491
X39.234 Y-99.937
X40.04 Y-100.364
X40.855 Y-100.772
X41.679 Y-101.161
X42.512 Y-101.533
X43.352 Y-101.887
X44.2 Y-102.223
X45.055 Y-102.541
X45.915 Y-102.841
X46.782 Y-103.124
X47.655 Y-103.389
X48.532 Y-103.637
X49.415 Y-103.866
X50.302 Y-104.077
X51.193 Y-104.269
X52.088 Y-104.443
X52.987 Y-104.599
X53.888 Y-104.736
X54.792 Y-104.855
X55.698 Y-104.956
X56.606 Y-105.038
X57.516 Y-105.102
X58.427 Y-105.148
X59.338 Y-105.175
X60.25 Y-105.184
X61.162 Y-105.174
X61.374 Y-105.165
X61.691 Y-105.117
X61.99 Y-105.001
X62.257 Y-104.824
X62.48 Y-104.594
X62.638 Y-104.391
X62.803 Y-104.183
X64.521 Y-102.046
G3 X64.538 Y-101.309 I-0.509 J0.38
G1 X64.483 Y-101.227 Z-2.292
X64.428 Y-101.147 Z-2.269
X64.377 Y-101.071 Z-2.231
X64.329 Y-101 Z-2.179
X64.287 Y-100.938 Z-2.114
X64.25 Y-100.884 Z-2.038
X64.221 Y-100.841 Z-1.953
X64.2 Y-100.809 Z-1.861
X64.187 Y-100.79 Z-1.764
X64.182 Y-100.784 Z-1.665
G0 Z5
X31.106 Y-89.421
Z-1.03
G1 Z-1.665 F500
X31.102 Y-89.427 Z-1.764
X31.09 Y-89.447 Z-1.861
X31.07 Y-89.48 Z-1.953
X31.044 Y-89.525 Z-2.038
X31.01 Y-89.58 Z-2.114
X30.972 Y-89.646 Z-2.179
X30.928 Y-89.719 Z-2.231
X30.881 Y-89.798 Z-2.269
X30.832 Y-89.881 Z-2.292
X30.781 Y-89.966 Z-2.3
G3 X30.56 Y-90.72 I1.36 J-0.809
G1 Y-93.827
X30.572 Y-94.066
X30.611 Y-94.365
X30.688 Y-94.724
X30.804 Y-95.112
X30.978 Y-95.559
X31.215 Y-96.046
X31.546 Y-96.609
X31.991 Y-97.244
X32.574 Y-97.945
X33.21 Y-98.599
X33.885 Y-99.211
X34.592 Y-99.787
X35.323 Y-100.332
X36.074 Y-100.849
X36.842 Y-101.341
X37.624 Y-101.81
X38.418 Y-102.257
X39.224 Y-102.685
X40.039 Y-103.093
X40.864 Y-103.482
X41.696 Y-103.854
X42.537 Y-104.208
X43.384 Y-104.544
X44.238 Y-104.863
X45.099 Y-105.165
X45.965 Y-105.451
X46.836 Y-105.719
X47.713 Y-105.969
X48.594 Y-106.203
X49.48 Y-106.419
X50.37 Y-106.617
X51.264 Y-106.798
X52.161 Y-106.962
X53.061 Y-107.108
X53.963 Y-107.237
X54.868 Y-107.348
X55.775 Y-107.442
X56.684 Y-107.519
X57.594 Y-107.578
X58.505 Y-107.62
X59.416 Y-107.642
X59.51 Y-107.639
X59.838 Y-107.591
X60.148 Y-107.471
X60.423 Y-107.285
X60.65 Y-107.042
X62.159 Y-105.012
X62.316 Y-104.805
X62.48 Y-104.594
G3 X62.485 Y-103.858 I-0.515 J0.372
G1 X62.428 Y-103.777 Z-2.292
X62.373 Y-103.697 Z-2.269
X62.32 Y-103.622 Z-2.231
X62.271 Y-103.552 Z-2.179
X62.228 Y-103.49 Z-2.114
X62.191 Y-103.437 Z-2.038
X62.161 Y-103.395 Z-1.953
X62.139 Y-103.363 Z-1.861
X62.126 Y-103.344 Z-1.764
X62.121 Y-103.338 Z-1.665
G0 Z5
X31.106 Y-92.528
Z-1.03
G1 Z-1.665 F500
X31.102 Y-92.534 Z-1.764
X31.09 Y-92.554 Z-1.861
X31.07 Y-92.587 Z-1.953
X31.044 Y-92.632 Z-2.038
X31.01 Y-92.687 Z-2.114
X30.972 Y-92.753 Z-2.179
X30.928 Y-92.826 Z-2.231
X30.881 Y-92.905 Z-2.269
X30.832 Y-92.988 Z-2.292
X30.781 Y-93.073 Z-2.3
G3 X30.56 Y-93.827 I1.36 J-0.809
G1 Y-96.727
X30.576 Y-97.046
X30.614 Y-97.34
X30.689 Y-97.691
X30.799 Y-98.056
X30.967 Y-98.488
X31.19 Y-98.948
X31.503 Y-99.48
X31.92 Y-100.073
X32.469 Y-100.735
X33.106 Y-101.387
X33.786 Y-101.995
X34.499 Y-102.563
X35.237 Y-103.098
X35.996 Y-103.604
X36.772 Y-104.083
X37.562 Y-104.537
X38.365 Y-104.97
X39.178 Y-105.383
X40.001 Y-105.776
X40.832 Y-106.15
X41.671 Y-106.506
X42.518 Y-106.846
X43.371 Y-107.168
X44.23 Y-107.473
X45.095 Y-107.761
X45.965 Y-108.033
X46.841 Y-108.289
X47.721 Y-108.527
X48.605 Y-108.749
X49.494 Y-108.954
X50.386 Y-109.143
X51.281 Y-109.315
X52.18 Y-109.47
X53.081 Y-109.608
X53.984 Y-109.73
X54.89 Y-109.836
X55.798 Y-109.925
X56.707 Y-109.997
X57.617 Y-110.047
X57.81 Y-110.045
X58.102 Y-110.011
X58.381 Y-109.921
X58.637 Y-109.778
X58.86 Y-109.586
X59.041 Y-109.355
X59.561 Y-108.533
X59.624 Y-108.435
X60.038 Y-107.866
X60.246 Y-107.586
X60.65 Y-107.042
G3 X60.639 Y-106.306 I-0.523 J0.361
G1 X60.581 Y-106.226 Z-2.292
X60.523 Y-106.148 Z-2.269
X60.469 Y-106.074 Z-2.231
X60.419 Y-106.005 Z-2.179
X60.374 Y-105.944 Z-2.114
X60.336 Y-105.892 Z-2.038
X60.305 Y-105.85 Z-1.953
X60.282 Y-105.819 Z-1.861
X60.269 Y-105.8 Z-1.764
X60.264 Y-105.794 Z-1.665
G0 Z5
X31.106 Y-95.427
Z-1.03
G1 Z-1.665 F500
X31.102 Y-95.434 Z-1.764
X31.09 Y-95.454 Z-1.861
X31.07 Y-95.487 Z-1.953
X31.044 Y-95.532 Z-2.038
X31.01 Y-95.587 Z-2.114
X30.972 Y-95.652 Z-2.179
X30.928 Y-95.725 Z-2.231
X30.881 Y-95.805 Z-2.269
X30.832 Y-95.888 Z-2.292
X30.781 Y-95.973 Z-2.3
G3 X30.56 Y-96.727 I1.36 J-0.809
G1 Y-99.627
X30.576 Y-99.942
X30.614 Y-100.235
X30.687 Y-100.575
X30.793 Y-100.929
X30.956 Y-101.349
X31.169 Y-101.789
X31.469 Y-102.298
X31.866 Y-102.863
X32.384 Y-103.487
X33.021 Y-104.14
X33.704 Y-104.744
X34.421 Y-105.307
X35.166 Y-105.834
X35.931 Y-106.329
X36.714 Y-106.797
X37.511 Y-107.24
X38.32 Y-107.66
X39.14 Y-108.059
X39.969 Y-108.439
X40.806 Y-108.8
X41.651 Y-109.143
X42.502 Y-109.469
X43.36 Y-109.778
X44.224 Y-110.071
X45.093 Y-110.347
X45.966 Y-110.607
X46.845 Y-110.851
X47.728 Y-111.079
X48.615 Y-111.29
X49.506 Y-111.486
X50.4 Y-111.665
X51.297 Y-111.829
X52.196 Y-111.977
X53.099 Y-112.108
X54.003 Y-112.224
X54.909 Y-112.324
X55.818 Y-112.4
X56.273 Y-112.406
X56.574 Y-112.38
X56.863 Y-112.293
X57.129 Y-112.149
X57.36 Y-111.954
X57.546 Y-111.717
X59.041 Y-109.355
G3 X58.699 Y-108.434 I-0.548 J0.321
G1 X31.401 Y-99.048
G3 X30.56 Y-99.627 I-0.206 J-0.6
G1 Y-102.526
X30.572 Y-102.779
X30.611 Y-103.071
X30.68 Y-103.398
X30.785 Y-103.747
X30.944 Y-104.156
X31.152 Y-104.583
X31.441 Y-105.074
X31.823 Y-105.619
X32.318 Y-106.214
X32.954 Y-106.867
X33.64 Y-107.468
X34.361 Y-108.026
X35.11 Y-108.546
X35.881 Y-109.033
X36.669 Y-109.491
X37.472 Y-109.923
X38.287 Y-110.332
X39.112 Y-110.72
X39.947 Y-111.088
X40.789 Y-111.437
X41.639 Y-111.768
X42.495 Y-112.082
X43.356 Y-112.38
X44.224 Y-112.661
X45.096 Y-112.926
X45.973 Y-113.175
X46.855 Y-113.409
X47.74 Y-113.626
X48.629 Y-113.829
X49.522 Y-114.015
X50.417 Y-114.187
X51.316 Y-114.343
X52.217 Y-114.483
X53.12 Y-114.607
X54.026 Y-114.707
X54.75 Y-114.747
X55.026 Y-114.74
X55.336 Y-114.699
X55.63 Y-114.594
X55.896 Y-114.43
X56.121 Y-114.213
X56.296 Y-113.954
X56.976 Y-112.676
X57.091 Y-112.469
X57.347 Y-112.042
X57.464 Y-111.847
X57.546 Y-111.717
G3 X57.204 Y-110.796 I-0.548 J0.321
G1 X31.4 Y-101.948
G3 X30.56 Y-102.526 I-0.206 J-0.601
G1 Y-105.219
X30.578 Y-105.58
X30.616 Y-105.872
X30.683 Y-106.185
X30.787 Y-106.531
X30.941 Y-106.927
X31.144 Y-107.346
X31.425 Y-107.823
X31.795 Y-108.35
X32.27 Y-108.922
X32.902 Y-109.57
X33.589 Y-110.169
X34.314 Y-110.723
X35.067 Y-111.236
X35.842 Y-111.716
X36.635 Y-112.166
X37.443 Y-112.589
X38.263 Y-112.988
X39.093 Y-113.366
X39.932 Y-113.723
X40.778 Y-114.062
X41.632 Y-114.382
X42.492 Y-114.685
X43.357 Y-114.972
X44.228 Y-115.243
X45.103 Y-115.498
X45.983 Y-115.737
X46.867 Y-115.961
X47.755 Y-116.17
X48.646 Y-116.364
X49.54 Y-116.542
X50.437 Y-116.706
X51.337 Y-116.853
X52.24 Y-116.976
X53.134 Y-117.062
X53.758 Y-117.071
X53.855 Y-117.065
X54.157 Y-117.013
X54.443 Y-116.901
X54.699 Y-116.731
X54.915 Y-116.513
X55.081 Y-116.254
X55.214 Y-115.99
X56.296 Y-113.954
G3 X55.932 Y-113.075 I-0.571 J0.278
G1 X31.401 Y-104.641
G3 X30.56 Y-105.219 I-0.206 J-0.6
G1 Y-108.119
X30.57 Y-108.329
X30.609 Y-108.621
X30.674 Y-108.925
X30.776 Y-109.268
X30.928 Y-109.656
X31.128 Y-110.069
X31.402 Y-110.535
X31.763 Y-111.049
X32.224 Y-111.604
X32.834 Y-112.229
X33.521 Y-112.829
X34.247 Y-113.38
X35.003 Y-113.89
X35.782 Y-114.365
X36.578 Y-114.808
X37.39 Y-115.224
X38.213 Y-115.616
X39.047 Y-115.985
X39.89 Y-116.333
X40.74 Y-116.663
X41.597 Y-116.974
X42.46 Y-117.269
X43.328 Y-117.547
X44.202 Y-117.809
X45.08 Y-118.055
X45.962 Y-118.286
X46.848 Y-118.502
X47.737 Y-118.703
X48.63 Y-118.888
X49.526 Y-119.057
X50.425 Y-119.206
X51.329 Y-119.325
X52.101 Y-119.384
X52.684 Y-119.382
X52.843 Y-119.368
X53.154 Y-119.308
X53.446 Y-119.183
X53.704 Y-118.998
X53.917 Y-118.763
X54.075 Y-118.488
X54.862 Y-116.694
X54.901 Y-116.611
X55.081 Y-116.254
G3 X54.707 Y-115.386 I-0.576 J0.266
G1 X31.397 Y-107.539
G3 X30.56 Y-108.119 I-0.203 J-0.602
G1 Y-110.812
X30.572 Y-111.06
X30.61 Y-111.349
X30.673 Y-111.643
X30.776 Y-111.987
X30.923 Y-112.364
X31.121 Y-112.773
X31.389 Y-113.227
X31.744 Y-113.733
X32.191 Y-114.272
X32.783 Y-114.879
X33.47 Y-115.478
X34.198 Y-116.027
X34.956 Y-116.534
X35.737 Y-117.004
X36.537 Y-117.442
X37.352 Y-117.851
X38.179 Y-118.235
X39.016 Y-118.597
X39.862 Y-118.937
X40.715 Y-119.259
X41.575 Y-119.562
X42.441 Y-119.848
X43.312 Y-120.117
X44.188 Y-120.371
X45.068 Y-120.609
X45.952 Y-120.832
X46.84 Y-121.04
X47.732 Y-121.231
X48.627 Y-121.402
X49.527 Y-121.549
X50.432 Y-121.66
X51.175 Y-121.703
X51.742 Y-121.691
X51.818 Y-121.683
X52.14 Y-121.615
X52.44 Y-121.481
X52.705 Y-121.286
X52.923 Y-121.04
X53.084 Y-120.754
X53.353 Y-120.132
X54.075 Y-118.488
G3 X53.685 Y-117.65 I-0.59 J0.235
G1 X31.395 Y-110.231
G3 X30.56 Y-110.812 I-0.201 J-0.603
G1 Y-113.504
X30.573 Y-113.761
X30.61 Y-114.046
X30.672 Y-114.336
X30.775 Y-114.679
X30.918 Y-115.047
X31.115 Y-115.454
X31.377 Y-115.898
X31.727 Y-116.397
X32.164 Y-116.923
X32.741 Y-117.514
X33.428 Y-118.114
X34.157 Y-118.662
X34.917 Y-119.165
X35.701 Y-119.631
X36.504 Y-120.064
X37.321 Y-120.467
X38.151 Y-120.845
X38.991 Y-121.2
X39.84 Y-121.533
X40.696 Y-121.847
X41.559 Y-122.142
X42.427 Y-122.421
X43.3 Y-122.683
X44.178 Y-122.929
X45.061 Y-123.158
X45.947 Y-123.371
X46.838 Y-123.566
X47.733 Y-123.738
X48.634 Y-123.882
X49.54 Y-123.986
X50.242 Y-124.018
X50.798 Y-123.998
X51.071 Y-123.966
X51.392 Y-123.891
X51.689 Y-123.747
X51.947 Y-123.541
X52.153 Y-123.283
X52.296 Y-122.986
X52.863 Y-121.375
X53.084 Y-120.754
G3 X52.678 Y-119.959 I-0.605 J0.192
G1 X31.394 Y-112.924
G3 X30.56 Y-113.504 I-0.199 J-0.603
G1 Y-116.197
X30.572 Y-116.44
X30.608 Y-116.718
X30.67 Y-117.007
X30.773 Y-117.35
X30.913 Y-117.711
X31.109 Y-118.115
X31.367 Y-118.552
X31.712 Y-119.043
X32.14 Y-119.559
X32.705 Y-120.138
X33.392 Y-120.737
X34.122 Y-121.284
X34.884 Y-121.785
X35.67 Y-122.247
X36.475 Y-122.675
X37.295 Y-123.073
X38.128 Y-123.445
X38.97 Y-123.794
X39.821 Y-124.12
X40.68 Y-124.428
X41.545 Y-124.716
X42.416 Y-124.987
X43.291 Y-125.241
X44.172 Y-125.478
X45.057 Y-125.696
X45.947 Y-125.893
X46.843 Y-126.066
X47.743 Y-126.208
X48.65 Y-126.307
X49.403 Y-126.338
X49.962 Y-126.317
X50.279 Y-126.279
X50.557 Y-126.218
X50.819 Y-126.105
X51.054 Y-125.944
X51.254 Y-125.741
X51.411 Y-125.504
X51.52 Y-125.241
X51.626 Y-124.896
X51.697 Y-124.689
X52.296 Y-122.986
G3 X51.884 Y-122.192 I-0.606 J0.19
G1 X31.388 Y-115.615
G3 X30.56 Y-116.197 I-0.194 J-0.605
G1 Y-118.89
X30.57 Y-119.099
X30.606 Y-119.371
X30.668 Y-119.66
X30.771 Y-120.003
X30.908 Y-120.357
X31.103 Y-120.759
X31.356 Y-121.189
X31.698 Y-121.675
X32.119 Y-122.182
X32.673 Y-122.75
X33.36 Y-123.35
X34.091 Y-123.895
X34.855 Y-124.393
X35.643 Y-124.852
X36.45 Y-125.276
X37.272 Y-125.67
X38.107 Y-126.037
X38.952 Y-126.379
X39.805 Y-126.7
X40.666 Y-127.001
X41.534 Y-127.282
X42.407 Y-127.545
X43.285 Y-127.788
X44.17 Y-128.011
X45.059 Y-128.212
X45.954 Y-128.386
X46.855 Y-128.527
X47.761 Y-128.627
X48.543 Y-128.663
X49.13 Y-128.642
X49.61 Y-128.587
X49.761 Y-128.557
X50.075 Y-128.458
X50.359 Y-128.292
X50.599 Y-128.067
X50.784 Y-127.795
X50.904 Y-127.489
X51.436 Y-125.518
X51.52 Y-125.241
G3 X51.097 Y-124.47 I-0.613 J0.164
G1 X31.384 Y-118.306
G3 X30.56 Y-118.89 I-0.19 J-0.606
G1 Y-121.375
X30.579 Y-121.752
X30.613 Y-122.018
X30.675 Y-122.306
X30.778 Y-122.649
X30.913 Y-122.996
X31.107 Y-123.396
X31.356 Y-123.819
X31.693 Y-124.299
X32.108 Y-124.798
X32.652 Y-125.356
X33.339 Y-125.956
X34.071 Y-126.5
X34.836 Y-126.996
X35.626 Y-127.452
X36.435 Y-127.872
X37.26 Y-128.261
X38.097 Y-128.623
X38.944 Y-128.96
X39.8 Y-129.274
X40.663 Y-129.567
X41.533 Y-129.839
X42.41 Y-130.091
X43.293 Y-130.319
X44.181 Y-130.524
X45.076 Y-130.7
X45.976 Y-130.844
X46.882 Y-130.946
X47.735 Y-130.991
X48.392 Y-130.973
X48.911 Y-130.916
X49.139 Y-130.873
X49.419 Y-130.79
X49.678 Y-130.653
X49.905 Y-130.468
X50.092 Y-130.242
X50.23 Y-129.984
X50.314 Y-129.703
X50.323 Y-129.66
X50.376 Y-129.453
X50.598 Y-128.625
X50.904 Y-127.489
G3 X50.475 Y-126.739 I-0.619 J0.144
G1 X31.383 Y-120.791
G3 X30.56 Y-121.375 I-0.189 J-0.606
G1 Y-124.068
X30.575 Y-124.376
X30.61 Y-124.639
X30.671 Y-124.927
X30.774 Y-125.269
X30.908 Y-125.613
X31.101 Y-126.011
X31.347 Y-126.43
X31.681 Y-126.905
X32.091 Y-127.399
X32.628 Y-127.95
X33.315 Y-128.549
X34.048 Y-129.092
X34.814 Y-129.586
X35.605 Y-130.039
X36.416 Y-130.456
X37.243 Y-130.841
X38.082 Y-131.198
X38.932 Y-131.528
X39.791 Y-131.835
X40.657 Y-132.119
X41.531 Y-132.379
X42.412 Y-132.615
X43.299 Y-132.825
X44.193 Y-133.007
X45.092 Y-133.155
X45.997 Y-133.264
X46.907 Y-133.322
X47.618 Y-133.314
X48.17 Y-133.263
X48.627 Y-133.184
X48.791 Y-133.141
X49.103 Y-133.022
X49.381 Y-132.835
X49.61 Y-132.591
X49.778 Y-132.303
X49.877 Y-131.983
X50.201 Y-130.282
X50.314 Y-129.703
G3 X49.869 Y-128.994 I-0.627 J0.101
G1 X31.376 Y-123.482
G3 X30.56 Y-124.068 I-0.181 J-0.609
G1 Y-126.761
X30.571 Y-126.99
X30.605 Y-127.249
X30.667 Y-127.538
X30.769 Y-127.878
X30.902 Y-128.219
X31.094 Y-128.616
X31.338 Y-129.03
X31.67 Y-129.502
X32.075 Y-129.99
X32.605 Y-130.534
X33.288 Y-131.129
X34.021 Y-131.672
X34.788 Y-132.165
X35.581 Y-132.615
X36.394 Y-133.028
X37.222 Y-133.408
X38.064 Y-133.759
X38.917 Y-134.082
X39.779 Y-134.38
X40.649 Y-134.652
X41.527 Y-134.897
X42.412 Y-135.115
X43.304 Y-135.304
X44.203 Y-135.46
X45.107 Y-135.579
X46.016 Y-135.649
X46.85 Y-135.659
X47.505 Y-135.614
X48.009 Y-135.538
X48.327 Y-135.464
X48.601 Y-135.371
X48.852 Y-135.226
X49.07 Y-135.036
X49.246 Y-134.807
X49.375 Y-134.547
X49.451 Y-134.268
X49.532 Y-133.803
X49.609 Y-133.389
X49.877 Y-131.983
G3 X49.422 Y-131.275 I-0.628 J0.097
G1 X31.367 Y-126.172
G3 X30.56 Y-126.761 I-0.173 J-0.611
G1 Y-129.246
X30.578 Y-129.604
X30.611 Y-129.858
X30.673 Y-130.147
X30.774 Y-130.485
X30.905 Y-130.822
X31.097 Y-131.218
X31.338 Y-131.626
X31.666 Y-132.094
X32.066 Y-132.576
X32.589 Y-133.112
X33.26 Y-133.697
X33.993 Y-134.239
X34.761 Y-134.731
X35.555 Y-135.179
X36.37 Y-135.588
X37.201 Y-135.963
X38.046 Y-136.306
X38.902 Y-136.621
X39.767 Y-136.906
X40.642 Y-137.164
X41.525 Y-137.393
X42.415 Y-137.592
X43.311 Y-137.758
X44.214 Y-137.887
X45.121 Y-137.973
X46.033 Y-138.006
X46.785 Y-137.978
X47.35 Y-137.912
X47.823 Y-137.817
X48.127 Y-137.731
X48.397 Y-137.624
X48.642 Y-137.466
X48.851 Y-137.264
X49.016 Y-137.024
X49.132 Y-136.757
X49.193 Y-136.473
X49.425 Y-134.424
X49.451 Y-134.268
G3 X48.992 Y-133.572 I-0.629 J0.084
G1 X31.365 Y-128.657
G3 X30.56 Y-129.246 I-0.171 J-0.612
G1 Y-131.939
X30.572 Y-132.193
X30.606 Y-132.446
X30.667 Y-132.734
X30.768 Y-133.069
X30.898 Y-133.405
X31.091 Y-133.801
X31.328 Y-134.205
X31.654 Y-134.669
X32.05 Y-135.146
X32.565 Y-135.674
X33.224 Y-136.249
X33.957 Y-136.791
X34.726 Y-137.281
X35.522 Y-137.726
X36.339 Y-138.131
X37.173 Y-138.499
X38.021 Y-138.835
X38.881 Y-139.139
X39.751 Y-139.412
X40.629 Y-139.654
X41.516 Y-139.866
X42.411 Y-140.044
X43.311 Y-140.188
X44.217 Y-140.291
X45.127 Y-140.347
X46.039 Y-140.344
X46.749 Y-140.286
X47.294 Y-140.197
X47.75 Y-140.084
X47.936 Y-140.021
X48.199 Y-139.904
X48.434 Y-139.738
X48.632 Y-139.53
X48.787 Y-139.288
X48.891 Y-139.02
X48.943 Y-138.738
X48.957 Y-138.567
X48.979 Y-138.36
X49.193 Y-136.473
G3 X48.718 Y-135.808 I-0.633 J0.049
G1 X31.352 Y-131.346
G3 X30.56 Y-131.939 I-0.158 J-0.615
G1 Y-134.424
X30.578 Y-134.784
X30.61 Y-135.033
X30.672 Y-135.322
X30.771 Y-135.651
X30.901 Y-135.986
X31.092 Y-136.38
X31.327 Y-136.778
X31.649 Y-137.237
X32.039 Y-137.707
X32.545 Y-138.226
X33.189 Y-138.787
X33.922 Y-139.33
X34.692 Y-139.818
X35.49 Y-140.259
X36.31 Y-140.659
X37.147 Y-141.02
X37.999 Y-141.346
X38.862 Y-141.639
X39.736 Y-141.898
X40.62 Y-142.125
X41.511 Y-142.319
X42.408 Y-142.478
X43.312 Y-142.6
X44.22 Y-142.679
X45.132 Y-142.708
X46.019 Y-142.675
X46.688 Y-142.596
X47.213 Y-142.491
X47.653 Y-142.365
X47.879 Y-142.281
X48.139 Y-142.153
X48.369 Y-141.977
X48.56 Y-141.76
X48.706 Y-141.51
X48.8 Y-141.236
X48.839 Y-140.949
X48.906 Y-139.188
X48.943 Y-138.738
G3 X48.462 Y-138.091 I-0.634 J0.03
G1 X31.348 Y-133.83
G3 X30.56 Y-134.424 I-0.153 J-0.616
G1 Y-137.117
X30.571 Y-137.349
X30.604 Y-137.596
X30.666 Y-137.885
X30.763 Y-138.21
X30.893 Y-138.544
X31.084 Y-138.937
X31.315 Y-139.33
X31.634 Y-139.784
X32.019 Y-140.248
X32.516 Y-140.757
X33.146 Y-141.307
X33.879 Y-141.849
X34.65 Y-142.336
X35.45 Y-142.773
X36.272 Y-143.167
X37.113 Y-143.521
X37.968 Y-143.837
X38.835 Y-144.118
X39.713 Y-144.364
X40.6 Y-144.577
X41.494 Y-144.754
X42.395 Y-144.896
X43.301 Y-144.998
X44.211 Y-145.056
X45.123 Y-145.061
X46.003 Y-145.003
X46.679 Y-144.904
X47.202 Y-144.784
X47.647 Y-144.643
X47.831 Y-144.568
X48.082 Y-144.436
X48.304 Y-144.26
X48.487 Y-144.044
X48.627 Y-143.797
X48.716 Y-143.528
X48.753 Y-143.247
X48.839 Y-140.949
G3 X48.343 Y-140.328 I-0.635 J0.002
G1 X31.333 Y-136.52
G3 X30.56 Y-137.117 I-0.139 J-0.62
G1 Y-139.603
X30.575 Y-139.912
X30.607 Y-140.157
X30.669 Y-140.445
X30.764 Y-140.762
X30.894 Y-141.096
X31.083 Y-141.485
X31.311 Y-141.873
X31.625 Y-142.32
X32.004 Y-142.777
X32.49 Y-143.275
X33.105 Y-143.811
X33.838 Y-144.354
X34.61 Y-144.838
X35.412 Y-145.271
X36.238 Y-145.659
X37.081 Y-146.005
X37.94 Y-146.312
X38.811 Y-146.581
X39.692 Y-146.815
X40.582 Y-147.014
X41.48 Y-147.177
X42.383 Y-147.302
X43.291 Y-147.387
X44.202 Y-147.426
X45.113 Y-147.412
X45.999 Y-147.336
X46.673 Y-147.222
X47.194 Y-147.091
X47.637 Y-146.941
X47.848 Y-146.85
X48.099 Y-146.711
X48.319 Y-146.526
X48.499 Y-146.303
X48.632 Y-146.049
X48.714 Y-145.775
X48.742 Y-145.489
X48.743 Y-143.952
X48.75 Y-143.331
X48.753 Y-143.247
G3 X48.251 Y-142.626 I-0.635 J0
G1 X31.327 Y-139.004
G3 X30.56 Y-139.603 I-0.133 J-0.621
G1 Y-142.088
X30.578 Y-142.456
X30.61 Y-142.699
X30.672 Y-142.988
X30.765 Y-143.298
X30.895 Y-143.632
X31.081 Y-144.016
X31.307 Y-144.399
X31.616 Y-144.839
X31.989 Y-145.289
X32.465 Y-145.776
X33.064 Y-146.299
X33.797 Y-146.842
X34.571 Y-147.324
X35.375 Y-147.753
X36.203 Y-148.135
X37.05 Y-148.473
X37.912 Y-148.771
X38.786 Y-149.03
X39.67 Y-149.253
X40.563 Y-149.439
X41.463 Y-149.588
X42.368 Y-149.699
X43.277 Y-149.77
X44.188 Y-149.795
X45.099 Y-149.766
X45.994 Y-149.675
X46.689 Y-149.547
X47.215 Y-149.406
X47.671 Y-149.243
X47.869 Y-149.155
X48.114 Y-149.014
X48.329 Y-148.83
X48.505 Y-148.608
X48.635 Y-148.357
X48.715 Y-148.085
X48.742 Y-147.803
Y-145.489
G3 X48.233 Y-144.889 I-0.635 J-0.022
G1 X31.319 Y-141.488
G3 X30.56 Y-142.088 I-0.125 J-0.623
G1 Y-144.781
X30.569 Y-144.972
X30.601 Y-145.215
X30.663 Y-145.504
X30.754 Y-145.808
X30.884 Y-146.142
X31.068 Y-146.522
X31.292 Y-146.902
X31.597 Y-147.336
X31.965 Y-147.779
X32.431 Y-148.257
X33.019 Y-148.769
X33.739 Y-149.302
X34.513 Y-149.784
X35.319 Y-150.211
X36.149 Y-150.588
X36.998 Y-150.92
X37.863 Y-151.21
X38.739 Y-151.461
X39.626 Y-151.674
X40.52 Y-151.85
X41.422 Y-151.989
X42.328 Y-152.09
X43.238 Y-152.15
X44.149 Y-152.163
X45.06 Y-152.125
X45.967 Y-152.025
X46.686 Y-151.887
X47.223 Y-151.739
X47.688 Y-151.569
X47.879 Y-151.482
X48.122 Y-151.34
X48.334 Y-151.156
X48.508 Y-150.935
X48.636 Y-150.685
X48.716 Y-150.415
X48.742 Y-150.135
Y-147.803
G3 X48.219 Y-147.2 I-0.635 J-0.022
G1 X31.306 Y-144.178
G3 X30.56 Y-144.781 I-0.112 J-0.625
G1 Y-147.266
X30.571 Y-147.484
X30.602 Y-147.726
X30.664 Y-148.014
X30.753 Y-148.311
X30.883 Y-148.645
X31.063 Y-149.015
X31.286 Y-149.394
X31.585 Y-149.82
X31.949 Y-150.259
X32.405 Y-150.726
X32.979 Y-151.227
X33.682 Y-151.747
X34.456 Y-152.229
X35.263 Y-152.653
X36.095 Y-153.027
X36.946 Y-153.353
X37.812 Y-153.637
X38.691 Y-153.881
X39.579 Y-154.087
X40.476 Y-154.255
X41.378 Y-154.385
X42.285 Y-154.477
X43.196 Y-154.528
X44.107 Y-154.534
X45.018 Y-154.488
X45.924 Y-154.385
X46.664 Y-154.241
X47.212 Y-154.088
X47.686 Y-153.914
X47.882 Y-153.823
X48.17 Y-153.648
X48.41 Y-153.413
X48.591 Y-153.129
X48.704 Y-152.812
X48.742 Y-152.478
Y-150.135
G3 X48.214 Y-149.531 I-0.635 J-0.022
G1 X31.3 Y-146.663
G3 X30.56 Y-147.266 I-0.106 J-0.626
G1 Y-149.752
X30.571 Y-149.976
X30.603 Y-150.218
X30.664 Y-150.506
X30.751 Y-150.797
X30.881 Y-151.131
X31.056 Y-151.491
X31.28 Y-151.871
X31.573 Y-152.289
X31.934 Y-152.724
X32.381 Y-153.181
X32.944 Y-153.672
X33.632 Y-154.181
X34.406 Y-154.663
X35.213 Y-155.086
X36.047 Y-155.456
X36.9 Y-155.778
X37.768 Y-156.057
X38.648 Y-156.295
X39.538 Y-156.494
X40.435 Y-156.655
X41.339 Y-156.778
X42.247 Y-156.863
X43.158 Y-156.907
X44.069
X44.98 Y-156.857
X45.885 Y-156.75
X46.627 Y-156.605
X47.207 Y-156.442
X47.683 Y-156.267
X47.884 Y-156.174
X48.171 Y-155.999
X48.411 Y-155.763
X48.592 Y-155.48
X48.704 Y-155.163
X48.742 Y-154.829
Y-152.478
G3 X48.209 Y-151.873 I-0.635 J-0.022
G1 X31.295 Y-149.147
G3 X30.56 Y-149.752 I-0.101 J-0.627
G1 Y-152.238
X30.57 Y-152.452
X30.602 Y-152.694
X30.663 Y-152.979
X30.749 Y-153.266
X30.879 Y-153.6
X31.05 Y-153.953
X31.274 Y-154.333
X31.562 Y-154.743
X31.921 Y-155.175
X32.359 Y-155.624
X32.913 Y-156.107
X33.588 Y-156.607
X34.362 Y-157.089
X35.171 Y-157.51
X36.005 Y-157.877
X36.86 Y-158.196
X37.729 Y-158.47
X38.611 Y-158.703
X39.502 Y-158.896
X40.4 Y-159.052
X41.305 Y-159.169
X42.213 Y-159.248
X43.124 Y-159.287
X44.036 Y-159.282
X44.946 Y-159.228
X45.851 Y-159.119
X46.605 Y-158.971
X47.198 Y-158.805
X47.676 Y-158.628
X47.885 Y-158.531
X48.171 Y-158.356
X48.411 Y-158.121
X48.592 Y-157.838
X48.704 Y-157.521
X48.742 Y-157.187
Y-154.829
G3 X48.204 Y-154.224 I-0.635 J-0.022
G1 X31.29 Y-151.632
G3 X30.56 Y-152.238 I-0.096 J-0.628
G1 Y-154.723
X30.569 Y-154.913
X30.601 Y-155.155
X30.661 Y-155.437
X30.747 Y-155.723
X30.877 Y-156.057
X31.045 Y-156.402
X31.268 Y-156.782
X31.552 Y-157.186
X31.909 Y-157.616
X32.34 Y-158.057
X32.885 Y-158.533
X33.55 Y-159.025
X34.324 Y-159.507
X35.134 Y-159.927
X35.969 Y-160.292
X36.825 Y-160.608
X37.696 Y-160.878
X38.578 Y-161.107
X39.47 Y-161.296
X40.37 Y-161.446
X41.274 Y-161.559
X42.183 Y-161.633
X43.094 Y-161.668
X44.006 Y-161.66
X44.916 Y-161.603
X45.821 Y-161.492
X46.586 Y-161.342
X47.189 Y-161.172
X47.669 Y-160.994
X47.885 Y-160.894
X48.171 Y-160.719
X48.411 Y-160.484
X48.592 Y-160.2
X48.704 Y-159.884
X48.742 Y-159.55
Y-157.187
G3 X48.199 Y-156.581 I-0.635 J-0.022
G1 X31.286 Y-154.117
G3 X30.56 Y-154.723 I-0.092 J-0.628
G1 Y-157.209
X30.567 Y-157.361
X30.599 Y-157.603
X30.659 Y-157.883
X30.744 Y-158.167
X30.874 Y-158.501
X31.039 Y-158.841
X31.262 Y-159.22
X31.542 Y-159.619
X31.897 Y-160.046
X32.322 Y-160.482
X32.861 Y-160.952
X33.518 Y-161.438
X34.292 Y-161.92
X35.102 Y-162.339
X35.938 Y-162.702
X36.795 Y-163.015
X37.666 Y-163.282
X38.55 Y-163.507
X39.443 Y-163.692
X40.343 Y-163.839
X41.248 Y-163.948
X42.157 Y-164.019
X43.068 Y-164.05
X43.98 Y-164.039
X44.89 Y-163.98
X45.795 Y-163.867
X46.57 Y-163.715
X47.18 Y-163.543
X47.663 Y-163.364
X47.885 Y-163.261
X48.172 Y-163.086
X48.411 Y-162.851
X48.592 Y-162.568
X48.704 Y-162.251
X48.742 Y-161.918
Y-159.55
G3 X48.195 Y-158.943 I-0.635 J-0.022
G1 X31.281 Y-156.602
G3 X30.56 Y-157.209 I-0.087 J-0.629
G1 Y-159.487
X30.576 Y-159.808
X30.608 Y-160.05
X30.666 Y-160.326
X30.751 Y-160.609
X30.881 Y-160.942
X31.043 Y-161.276
X31.266 Y-161.655
X31.542 Y-162.047
X31.895 Y-162.473
X32.314 Y-162.903
X32.847 Y-163.367
X33.496 Y-163.847
X34.269 Y-164.329
X35.08 Y-164.747
X35.917 Y-165.108
X36.774 Y-165.419
X37.647 Y-165.683
X38.531 Y-165.906
X39.424 Y-166.087
X40.325 Y-166.231
X41.231 Y-166.336
X42.14 Y-166.404
X43.051 Y-166.433
X43.963 Y-166.419
X44.873 Y-166.358
X45.777 Y-166.244
X46.56 Y-166.09
X47.176 Y-165.916
X47.66 Y-165.737
X47.886 Y-165.632
X48.172 Y-165.457
X48.412 Y-165.221
X48.592 Y-164.938
X48.704 Y-164.622
X48.742 Y-164.288
Y-161.918
G3 X48.198 Y-161.311 I-0.635 J-0.022
G1 X31.285 Y-158.881
G3 X30.56 Y-159.487 I-0.09 J-0.629
G1 Y-161.973
X30.573 Y-162.233
X30.605 Y-162.476
X30.663 Y-162.749
X30.748 Y-163.032
X30.877 Y-163.365
X31.038 Y-163.696
X31.262 Y-164.076
X31.534 Y-164.464
X31.887 Y-164.889
X32.302 Y-165.314
X32.831 Y-165.776
X33.474 Y-166.251
X34.238 Y-166.727
X35.049 Y-167.145
X35.886 Y-167.506
X36.744 Y-167.815
X37.617 Y-168.078
X38.502 Y-168.299
X39.395 Y-168.478
X40.296 Y-168.62
X41.202 Y-168.723
X42.112 Y-168.789
X43.023 Y-168.816
X43.935 Y-168.801
X44.844 Y-168.739
X45.749 Y-168.625
X46.541 Y-168.47
X47.165 Y-168.294
X47.65 Y-168.115
X47.884 Y-168.006
X48.171 Y-167.831
X48.411 Y-167.596
X48.592 Y-167.312
X48.704 Y-166.996
X48.742 Y-166.662
Y-164.288
G3 X48.194 Y-163.681 I-0.635 J-0.022
G1 X31.28 Y-161.366
G3 X30.56 Y-161.973 I-0.086 J-0.629
G1 Y-164.458
X30.569 Y-164.653
X30.601 Y-164.895
X30.659 Y-165.167
X30.744 Y-165.45
X30.873 Y-165.781
X31.033 Y-166.111
X31.256 Y-166.49
X31.526 Y-166.874
X31.879 Y-167.299
X32.29 Y-167.72
X32.815 Y-168.178
X33.454 Y-168.651
X34.213 Y-169.123
X35.023 Y-169.541
X35.861 Y-169.901
X36.719 Y-170.21
X37.592 Y-170.472
X38.477 Y-170.69
X39.371 Y-170.869
X40.273 Y-171.008
X41.179 Y-171.11
X42.088 Y-171.174
X43 Y-171.2
X43.911 Y-171.183
X44.821 Y-171.121
X45.726 Y-171.007
X46.526 Y-170.85
X47.156 Y-170.674
X47.643 Y-170.494
X47.884 Y-170.382
X48.171 Y-170.207
X48.411 Y-169.972
X48.592 Y-169.689
X48.704 Y-169.372
X48.742 Y-169.038
Y-166.662
G3 X48.19 Y-166.055 I-0.635 J-0.022
G1 X31.276 Y-163.851
X31.194 Y-163.845
G3 X30.56 Y-164.458 I0 J-0.635
G1 Y-166.737
X30.577 Y-167.076
X30.608 Y-167.318
X30.666 Y-167.586
X30.75 Y-167.869
X30.879 Y-168.199
X31.038 Y-168.526
X31.261 Y-168.905
X31.527 Y-169.284
X31.879 Y-169.708
X32.287 Y-170.126
X32.808 Y-170.58
X33.443 Y-171.051
X34.196 Y-171.519
X35.007 Y-171.937
X35.844 Y-172.297
X36.703 Y-172.604
X37.577 Y-172.865
X38.462 Y-173.082
X39.357 Y-173.259
X40.258 Y-173.397
X41.164 Y-173.497
X42.074 Y-173.56
X42.985 Y-173.584
X43.897 Y-173.566
X44.807 Y-173.503
X45.711 Y-173.388
X46.518 Y-173.231
X47.151 Y-173.053
X47.64 Y-172.873
X47.883 Y-172.76
X48.17 Y-172.585
X48.411 Y-172.35
X48.592 Y-172.066
X48.704 Y-171.75
X48.742 Y-171.416
Y-169.038
G3 X48.193 Y-168.431 I-0.635 J-0.022
G1 X31.28 Y-166.13
G3 X30.56 Y-166.737 I-0.086 J-0.629
G1 Y-169.222
X30.573 Y-169.48
X30.604 Y-169.723
X30.662 Y-169.99
X30.746 Y-170.273
X30.875 Y-170.602
X31.033 Y-170.929
X31.256 Y-171.308
X31.521 Y-171.685
X31.873 Y-172.109
X32.279 Y-172.525
X32.798 Y-172.978
X33.431 Y-173.446
X34.179 Y-173.912
X34.99 Y-174.33
X35.828 Y-174.689
X36.686 Y-174.996
X37.56 Y-175.256
X38.446 Y-175.472
X39.341 Y-175.648
X40.243 Y-175.785
X41.149 Y-175.884
X42.059 Y-175.945
X42.97 Y-175.968
X43.882 Y-175.95
X44.791 Y-175.886
X45.696 Y-175.771
X46.508 Y-175.613
X47.145 Y-175.435
X47.635 Y-175.254
X47.883 Y-175.139
X48.17 Y-174.964
X48.41 Y-174.729
X48.592 Y-174.446
X48.704 Y-174.129
X48.742 Y-173.795
Y-171.416
G3 X48.189 Y-170.808 I-0.635 J-0.022
G1 X31.276 Y-168.615
G3 X30.56 Y-169.222 I-0.082 J-0.63
G1 Y-171.708
X30.568 Y-171.883
X30.6 Y-172.125
X30.657 Y-172.392
X30.742 Y-172.675
X30.87 Y-173.003
X31.028 Y-173.329
X31.251 Y-173.708
X31.515 Y-174.084
X31.867 Y-174.507
X32.271 Y-174.921
X32.788 Y-175.373
X33.419 Y-175.839
X34.164 Y-176.303
X34.975 Y-176.721
X35.813 Y-177.08
X36.672 Y-177.387
X37.546 Y-177.646
X38.432 Y-177.861
X39.327 Y-178.036
X40.228 Y-178.172
X41.135 Y-178.27
X42.045 Y-178.331
X42.956 Y-178.353
X43.868 Y-178.334
X44.778 Y-178.27
X45.682 Y-178.155
X46.499 Y-177.996
X47.14 Y-177.817
X47.63 Y-177.637
X47.882 Y-177.52
X48.17 Y-177.345
X48.41 Y-177.11
X48.591 Y-176.827
X48.704 Y-176.51
X48.742 Y-176.175
Y-173.795
G3 X48.185 Y-173.187 I-0.635 J-0.022
G1 X31.272 Y-171.1
G3 X30.56 Y-171.708 I-0.078 J-0.63
G1 Y-173.986
X30.575 Y-174.292
X30.607 Y-174.534
X30.663 Y-174.798
X30.748 Y-175.081
X30.875 Y-175.408
X31.033 Y-175.733
X31.256 Y-176.112
X31.518 Y-176.484
X31.868 Y-176.907
X32.27 Y-177.319
X32.785 Y-177.768
X33.414 Y-178.233
X34.157 Y-178.695
X34.967 Y-179.113
X35.805 Y-179.472
X36.664 Y-179.778
X37.539 Y-180.036
X38.425 Y-180.251
X39.32 Y-180.425
X40.222 Y-180.56
X41.128 Y-180.657
X42.038 Y-180.717
X42.95 Y-180.738
X43.861 Y-180.719
X44.771 Y-180.654
X45.675 Y-180.539
X46.496 Y-180.379
X47.138 Y-180.2
X47.629 Y-180.019
X47.883 Y-179.902
X48.17 Y-179.727
X48.41 Y-179.492
X48.591 Y-179.208
X48.704 Y-178.891
X48.742 Y-178.557
Y-176.175
G3 X48.189 Y-175.568 I-0.635 J-0.022
G1 X31.276 Y-173.379
G3 X30.56 Y-173.986 I-0.082 J-0.63
G1 Y-176.472
X30.57 Y-176.686
X30.602 Y-176.928
X30.659 Y-177.192
X30.743 Y-177.475
X30.871 Y-177.802
X31.028 Y-178.127
X31.251 Y-178.505
X31.513 Y-178.878
X31.863 Y-179.3
X32.265 Y-179.712
X32.779 Y-180.16
X33.406 Y-180.624
X34.147 Y-181.085
X34.957 Y-181.503
X35.795 Y-181.861
X36.654 Y-182.167
X37.529 Y-182.425
X38.415 Y-182.639
X39.31 Y-182.812
X40.212 Y-182.946
X41.119 Y-183.043
X42.029 Y-183.102
X42.94 Y-183.123
X43.852 Y-183.103
X44.762 Y-183.039
X45.666 Y-182.923
X46.49 Y-182.763
X47.134 Y-182.584
X47.626 Y-182.403
X47.882 Y-182.284
X48.17 Y-182.109
X48.41 Y-181.874
X48.591 Y-181.591
X48.704 Y-181.274
X48.742 Y-180.939
Y-178.557
G3 X48.185 Y-177.949 I-0.635 J-0.022
G1 X31.272 Y-175.864
G3 X30.56 Y-176.472 I-0.078 J-0.63
G1 Y-178.75
X30.577 Y-179.089
X30.608 Y-179.331
X30.665 Y-179.593
X30.749 Y-179.876
X30.876 Y-180.202
X31.033 Y-180.526
X31.256 Y-180.904
X31.516 Y-181.274
X31.866 Y-181.696
X32.266 Y-182.106
X32.778 Y-182.553
X33.404 Y-183.015
X34.142 Y-183.475
X34.953 Y-183.893
X35.791 Y-184.251
X36.65 Y-184.557
X37.525 Y-184.814
X38.412 Y-185.027
X39.307 Y-185.2
X40.209 Y-185.334
X41.116 Y-185.43
X42.026 Y-185.488
X42.937 Y-185.509
X43.849 Y-185.488
X44.758 Y-185.423
X45.663 Y-185.308
X46.488 Y-185.147
X47.134 Y-184.967
X47.626 Y-184.786
X47.882 Y-184.667
X48.17 Y-184.492
X48.41 Y-184.257
X48.591 Y-183.974
X48.704 Y-183.657
X48.742 Y-183.322
Y-180.939
G3 X48.189 Y-180.332 I-0.635 J-0.022
G1 X31.276 Y-178.143
G3 X30.56 Y-178.75 I-0.082 J-0.63
G1 Y-181.236
X30.572 Y-181.478
X30.604 Y-181.72
X30.66 Y-181.983
X30.745 Y-182.266
X30.871 Y-182.591
X31.029 Y-182.916
X31.251 Y-183.294
X31.511 Y-183.664
X31.861 Y-184.086
X32.261 Y-184.496
X32.773 Y-184.942
X33.398 Y-185.404
X34.135 Y-185.863
X34.946 Y-186.281
X35.784 Y-186.639
X36.643 Y-186.944
X37.518 Y-187.202
X38.405 Y-187.415
X39.3 Y-187.587
X40.202 Y-187.72
X41.109 Y-187.816
X42.019 Y-187.874
X42.93 Y-187.894
X43.842 Y-187.874
X44.751 Y-187.808
X45.656 Y-187.693
X46.484 Y-187.532
X47.131 Y-187.352
X47.623 Y-187.17
X47.882 Y-187.051
X48.169 Y-186.876
X48.41 Y-186.641
X48.591 Y-186.357
X48.704 Y-186.04
X48.742 Y-185.706
Y-183.322
G3 X48.185 Y-182.714 I-0.635 J-0.022
G1 X31.272 Y-180.628
G3 X30.56 Y-181.236 I-0.078 J-0.63
G1 Y-183.721
X30.567 Y-183.871
X30.599 Y-184.114
X30.656 Y-184.377
X30.741 Y-184.661
X30.869 Y-184.987
X31.027 Y-185.311
X31.251 Y-185.69
X31.511 Y-186.06
X31.863 Y-186.482
X32.264 Y-186.892
X32.777 Y-187.338
X33.403 Y-187.8
X34.144 Y-188.26
X34.955 Y-188.677
X35.794 Y-189.034
X36.653 Y-189.338
X37.529 Y-189.593
X38.415 Y-189.805
X39.311 Y-189.977
X40.213 Y-190.109
X41.12 Y-190.203
X42.03 Y-190.261
X42.942 Y-190.28
X43.853 Y-190.258
X44.763 Y-190.192
X45.667 Y-190.076
X46.493 Y-189.914
X47.138 Y-189.734
X47.63 Y-189.552
X47.884 Y-189.434
X48.171 Y-189.259
X48.411 Y-189.024
X48.592 Y-188.741
X48.704 Y-188.424
X48.742 Y-188.09
Y-185.706
G3 X48.182 Y-185.097 I-0.635 J-0.022
G1 X31.268 Y-183.113
G3 X30.56 Y-183.721 I-0.074 J-0.631
G1 Y-186
X30.573 Y-186.267
X30.605 Y-186.508
X30.661 Y-186.77
X30.745 Y-187.052
X30.872 Y-187.377
X31.029 Y-187.7
X31.25 Y-188.077
X31.51 Y-188.447
X31.859 Y-188.867
X32.258 Y-189.276
X32.769 Y-189.722
X33.392 Y-190.182
X34.125 Y-190.639
X34.935 Y-191.057
X35.774 Y-191.415
X36.633 Y-191.719
X37.508 Y-191.976
X38.395 Y-192.189
X39.29 Y-192.36
X40.192 Y-192.493
X41.099 Y-192.588
X42.009 Y-192.646
X42.921 Y-192.666
X43.832 Y-192.645
X44.742 Y-192.579
X45.646 Y-192.464
X46.478 Y-192.302
X47.127 Y-192.121
X47.62 Y-191.94
X47.894 Y-191.814
X48.148 Y-191.664
X48.367 Y-191.467
X48.543 Y-191.231
X48.669 Y-190.964
X48.74 Y-190.678
X48.752 Y-190.384
X48.75 Y-190.35
X48.742 Y-190.142
Y-188.09
G3 X48.185 Y-187.482 I-0.635 J-0.022
G1 X31.272 Y-185.392
G3 X30.56 Y-186 I-0.078 J-0.63
G1 Y-188.485
X30.568 Y-188.652
X30.6 Y-188.894
X30.656 Y-189.156
X30.741 Y-189.439
X30.867 Y-189.764
X31.024 Y-190.087
X31.246 Y-190.465
X31.505 Y-190.834
X31.855 Y-191.255
X32.254 Y-191.663
X32.764 Y-192.108
X33.387 Y-192.569
X34.121 Y-193.026
X34.931 Y-193.444
X35.77 Y-193.802
X36.63 Y-194.107
X37.505 Y-194.363
X38.391 Y-194.576
X39.287 Y-194.747
X40.189 Y-194.88
X41.096 Y-194.974
X42.006 Y-195.032
X42.917 Y-195.051
X43.829 Y-195.03
X44.738 Y-194.965
X45.643 Y-194.849
X46.486 Y-194.686
X47.126 Y-194.507
X47.635 Y-194.32
X48.044 Y-194.131
X48.215 Y-194.035
X48.456 Y-193.866
X48.658 Y-193.653
X48.815 Y-193.404
X48.919 Y-193.129
X48.967 Y-192.839
X48.957 Y-192.546
X48.912 Y-192.214
X48.79 Y-190.971
X48.774 Y-190.764
X48.752 Y-190.384
G3 X48.192 Y-189.811 I-0.632 J-0.059
G1 X31.266 Y-187.877
G3 X30.56 Y-188.485 I-0.072 J-0.631
G1 Y-190.764
X30.574 Y-191.048
X30.606 Y-191.29
X30.661 Y-191.551
X30.746 Y-191.833
X30.872 Y-192.157
X31.029 Y-192.48
X31.251 Y-192.857
X31.509 Y-193.225
X31.858 Y-193.646
X32.256 Y-194.053
X32.765 Y-194.498
X33.387 Y-194.958
X34.121 Y-195.414
X34.931 Y-195.832
X35.77 Y-196.19
X36.63 Y-196.495
X37.505 Y-196.751
X38.392 Y-196.963
X39.287 Y-197.134
X40.189 Y-197.266
X41.096 Y-197.361
X42.006 Y-197.418
X42.918 Y-197.437
X43.829 Y-197.416
X44.739 Y-197.35
X45.643 Y-197.235
X46.539 Y-197.061
X47.243 Y-196.865
X47.767 Y-196.673
X48.225 Y-196.462
X48.601 Y-196.25
X48.934 Y-196.026
X48.964 Y-196.003
X49.174 Y-195.797
X49.34 Y-195.555
X49.455 Y-195.284
X49.514 Y-194.996
X49.515 Y-194.702
X49.458 Y-194.414
X49.231 Y-193.664
X49.169 Y-193.456
X49.051 Y-193.042
X48.996 Y-192.835
X48.957 Y-192.546
G3 X48.4 Y-192.021 I-0.626 J-0.107
G1 X31.263 Y-190.155
G3 X30.56 Y-190.764 I-0.069 J-0.631
G1 Y-192.835
X30.562 Y-193.042
X30.594 Y-193.456
X30.622 Y-193.682
X30.676 Y-193.94
X30.759 Y-194.22
X30.883 Y-194.542
X31.037 Y-194.863
X31.256 Y-195.237
X31.511 Y-195.603
X31.855 Y-196.021
X32.248 Y-196.427
X32.752 Y-196.87
X33.366 Y-197.328
X34.088 Y-197.781
X34.897 Y-198.202
X35.735 Y-198.562
X36.593 Y-198.869
X37.468 Y-199.127
X38.354 Y-199.341
X39.249 Y-199.514
X40.151 Y-199.648
X41.058 Y-199.744
X41.968 Y-199.803
X42.88 Y-199.823
X43.791 Y-199.803
X44.701 Y-199.739
X45.606 Y-199.627
X46.502 Y-199.461
X47.325 Y-199.245
X48.031 Y-198.999
X48.572 Y-198.759
X48.996 Y-198.53
X49.373 Y-198.284
X49.693 Y-198.037
X49.864 Y-197.882
X50.08 Y-197.637
X50.237 Y-197.351
X50.327 Y-197.037
X50.347 Y-196.712
X50.295 Y-196.39
X50.174 Y-196.087
X49.875 Y-195.528
X49.774 Y-195.321
X49.686 Y-195.121
X49.61 Y-194.906
X49.545 Y-194.699
X49.458 Y-194.414
G3 X48.9 Y-193.986 I-0.601 J-0.205
G1 X48.86 Y-193.983
X31.271 Y-192.796
G3 X30.594 Y-193.456 I-0.043 J-0.634
G1 X30.609 Y-193.664
X30.631 Y-193.871
X30.68 Y-194.285
X30.706 Y-194.492
X30.854 Y-195.114
X30.914 Y-195.321
X31.146 Y-195.942
X31.24 Y-196.149
X31.465 Y-196.611
X31.545 Y-196.771
X31.937 Y-197.392
X32.087 Y-197.599
X32.618 Y-198.22
X32.707 Y-198.318
X33.004 Y-198.635
X33.21 Y-198.842
X33.535 Y-199.167
X34.069 Y-199.65
X34.536 Y-200.009
X35.103 Y-200.376
X35.794 Y-200.748
X36.629 Y-201.115
X37.489 Y-201.415
X38.368 Y-201.659
X39.259 Y-201.852
X40.159 Y-202
X41.065 Y-202.106
X41.974 Y-202.172
X42.885 Y-202.197
X43.797 Y-202.181
X44.707 Y-202.12
X45.612 Y-202.013
X46.51 Y-201.855
X47.397 Y-201.64
X48.213 Y-201.379
X48.928 Y-201.085
X49.507 Y-200.79
X49.965 Y-200.509
X50.351 Y-200.227
X50.661 Y-199.96
X50.946 Y-199.671
X51.067 Y-199.527
X51.253 Y-199.246
X51.371 Y-198.93
X51.414 Y-198.596
X51.381 Y-198.26
X51.272 Y-197.941
X51.095 Y-197.655
X51.051 Y-197.599
X50.928 Y-197.437
X50.658 Y-196.978
X50.539 Y-196.771
X50.174 Y-196.087
G3 X49.531 Y-195.777 I-0.549 J-0.319
G1 X49.503 Y-195.782
X33.906 Y-198.106
G3 X33.365 Y-198.734 I0.094 J-0.628
X33.535 Y-199.167 I0.635 J0
G1 X36.641 Y-202.273
X37.06 Y-202.652
X37.4 Y-202.913
X37.799 Y-203.171
X38.306 Y-203.445
X38.916 Y-203.713
X39.654 Y-203.968
X40.536 Y-204.197
X41.434 Y-204.355
X42.341 Y-204.452
X43.252 Y-204.495
X44.163 Y-204.488
X45.073 Y-204.431
X45.979 Y-204.325
X46.877 Y-204.167
X47.764 Y-203.954
X48.634 Y-203.682
X49.432 Y-203.366
X50.14 Y-203.018
X50.748 Y-202.656
X51.231 Y-202.312
X51.599 Y-202.004
X51.928 Y-201.679
X52.182 Y-201.385
X52.415 Y-201.066
X52.504 Y-200.921
X52.639 Y-200.637
X52.712 Y-200.332
X52.718 Y-200.018
X52.658 Y-199.709
X52.534 Y-199.42
X52.352 Y-199.164
X52.068 Y-198.842
X51.963 Y-198.718
X51.215 Y-197.806
X51.095 Y-197.655
G3 X50.44 Y-197.454 I-0.484 J-0.411
G1 X50.38 Y-197.471
X36.935 Y-201.228
G3 X36.641 Y-202.273 I0.171 J-0.612
G1 X39.217 Y-204.849
X39.576 Y-205.173
X39.866 Y-205.397
X40.196 Y-205.61
X40.618 Y-205.837
X41.094 Y-206.047
X41.684 Y-206.251
X42.388 Y-206.433
X43.187 Y-206.573
X44.095 Y-206.657
X45.007 Y-206.67
X45.917 Y-206.618
X46.822 Y-206.507
X47.719 Y-206.339
X48.602 Y-206.114
X49.469 Y-205.83
X50.313 Y-205.486
X51.082 Y-205.099
X51.763 Y-204.685
X52.342 Y-204.266
X52.808 Y-203.868
X53.194 Y-203.481
X53.491 Y-203.131
X53.734 Y-202.791
X53.937 Y-202.455
X54.02 Y-202.288
X54.128 Y-202
X54.174 Y-201.696
X54.156 Y-201.389
X54.076 Y-201.093
X53.935 Y-200.819
X53.742 Y-200.58
X52.584 Y-199.423
X52.434 Y-199.256
X52.352 Y-199.164
G3 X51.659 Y-199.01 I-0.461 J-0.437
G1 X51.63 Y-199.022
X39.448 Y-203.825
G3 X39.217 Y-204.849 I0.233 J-0.591
G1 X41.495 Y-207.127
X41.828 Y-207.428
X42.067 Y-207.612
X42.369 Y-207.807
X42.726 Y-208
X43.141 Y-208.182
X43.633 Y-208.353
X44.211 Y-208.502
X44.858 Y-208.615
X45.62 Y-208.686
X46.482 Y-208.697
X47.391 Y-208.635
X48.294 Y-208.502
X49.183 Y-208.304
X50.057 Y-208.041
X50.909 Y-207.718
X51.737 Y-207.335
X52.533 Y-206.891
X53.225 Y-206.429
X53.819 Y-205.959
X54.339 Y-205.475
X54.741 Y-205.036
X55.042 Y-204.648
X55.297 Y-204.26
X55.486 Y-203.915
X55.561 Y-203.746
X55.654 Y-203.464
X55.689 Y-203.169
X55.665 Y-202.872
X55.582 Y-202.587
X55.444 Y-202.324
X55.256 Y-202.094
X53.742 Y-200.58
G3 X53.026 Y-200.476 I-0.433 J-0.464
G1 X53.012 Y-200.483
X41.677 Y-206.126
G3 X41.495 Y-207.127 I0.283 J-0.568
G1 X43.567 Y-209.198
X43.863 Y-209.467
X44.097 Y-209.646
X44.368 Y-209.822
X44.684 Y-209.992
X45.074 Y-210.164
X45.494 Y-210.309
X46.014 Y-210.444
X46.572 Y-210.541
X47.225 Y-210.602
X47.973 Y-210.611
X48.764 Y-210.557
X49.627 Y-210.428
X50.515 Y-210.221
X51.384 Y-209.947
X52.231 Y-209.61
X53.052 Y-209.214
X53.842 Y-208.757
X54.586 Y-208.248
X55.24 Y-207.718
X55.802 Y-207.184
X56.234 Y-206.7
X56.579 Y-206.246
X56.836 Y-205.844
X57.033 Y-205.473
X57.117 Y-205.279
X57.206 Y-204.999
X57.238 Y-204.706
X57.212 Y-204.413
X57.129 Y-204.131
X56.991 Y-203.871
X56.805 Y-203.643
X55.256 Y-202.094
G3 X54.506 Y-202.008 I-0.433 J-0.464
G1 X43.714 Y-208.215
G3 X43.567 Y-209.198 I0.317 J-0.55
G1 X45.545 Y-211.176
X45.777 Y-211.386
X45.99 Y-211.55
X46.238 Y-211.711
X46.547 Y-211.877
X46.877 Y-212.022
X47.292 Y-212.166
X47.732 Y-212.28
X48.273 Y-212.375
X48.839 Y-212.427
X49.511 Y-212.436
X50.253 Y-212.385
X51.035 Y-212.268
X51.892 Y-212.069
X52.761 Y-211.791
X53.605 Y-211.448
X54.423 Y-211.045
X55.21 Y-210.584
X55.96 Y-210.066
X56.65 Y-209.507
X57.25 Y-208.935
X57.74 Y-208.387
X58.11 Y-207.899
X58.377 Y-207.481
X58.589 Y-207.083
X58.704 Y-206.816
X58.798 Y-206.513
X58.825 Y-206.196
X58.784 Y-205.881
X58.677 Y-205.582
X58.509 Y-205.313
X58.287 Y-205.086
X58.175 Y-204.993
X58.013 Y-204.849
X57.182 Y-204.02
X56.805 Y-203.643
G3 X56.029 Y-203.573 I-0.433 J-0.464
G1 X45.667 Y-210.209
G3 X45.545 Y-211.176 I0.342 J-0.535
G1 X47.408 Y-213.04
X47.593 Y-213.208
X47.788 Y-213.357
X48.036 Y-213.517
X48.31 Y-213.665
X48.638 Y-213.81
X49.014 Y-213.94
X49.44 Y-214.05
X49.934 Y-214.136
X50.483 Y-214.187
X51.094 Y-214.195
X51.799 Y-214.147
X52.537 Y-214.037
X53.343 Y-213.849
X54.211 Y-213.572
X55.055 Y-213.226
X55.87 Y-212.818
X56.654 Y-212.353
X57.404 Y-211.833
X58.112 Y-211.259
X58.735 Y-210.668
X59.267 Y-210.075
X59.666 Y-209.55
X59.947 Y-209.112
X60.177 Y-208.682
X60.339 Y-208.308
X60.424 Y-208.058
X60.495 Y-207.74
Y-207.415
X60.423 Y-207.097
X60.284 Y-206.802
X60.083 Y-206.545
X59.832 Y-206.338
X59.773 Y-206.299
X59.624 Y-206.182
X59.417 Y-206.015
X58.589 Y-205.335
X58.287 Y-205.086
G3 X57.536 Y-205.069 I-0.387 J-0.503
G1 X47.508 Y-212.087
G3 X47.408 Y-213.04 I0.364 J-0.52
G1 X49.159 Y-214.791
X49.342 Y-214.956
X49.536 Y-215.105
X49.775 Y-215.26
X50.035 Y-215.4
X50.361 Y-215.544
X50.708 Y-215.664
X51.134 Y-215.774
X51.585 Y-215.853
X52.133 Y-215.904
X52.699 Y-215.911
X53.368 Y-215.865
X54.091 Y-215.757
X54.859 Y-215.578
X55.698 Y-215.311
X56.541 Y-214.964
X57.356 Y-214.555
X58.139 Y-214.088
X58.888 Y-213.568
X59.597 Y-212.995
X60.243 Y-212.387
X60.8 Y-211.772
X61.258 Y-211.176
X61.599 Y-210.65
X61.836 Y-210.21
X62.028 Y-209.773
X62.158 Y-209.398
X62.26 Y-209.007
X62.29 Y-208.835
X62.311 Y-208.524
X62.266 Y-208.215
X62.158 Y-207.922
X61.991 Y-207.659
X61.773 Y-207.436
X61.512 Y-207.264
X61.251 Y-207.127
X60.66 Y-206.811
X60.038 Y-206.473
X59.832 Y-206.338
G3 X59.12 Y-206.376 I-0.328 J-0.544
G1 X59.097 Y-206.393
X49.24 Y-213.851
G3 X49.159 Y-214.791 I0.383 J-0.506
G1 X49.573 Y-215.205
X49.893 Y-215.501
X50.026 Y-215.619
X50.307 Y-215.859
X50.782 Y-216.241
X50.928 Y-216.342
X51.102 Y-216.448
X51.756 Y-216.831
X51.814 Y-216.862
X51.963 Y-216.925
X52.311 Y-217.069
X52.377 Y-217.097
X52.584 Y-217.18
X53.327 Y-217.355
X53.778 Y-217.423
X54.246 Y-217.456
X54.812 Y-217.45
X55.408 Y-217.396
X56.08 Y-217.28
X56.834 Y-217.086
X57.635 Y-216.811
X58.456 Y-216.452
X59.26 Y-216.021
X60.028 Y-215.53
X60.759 Y-214.986
X61.449 Y-214.389
X62.093 Y-213.744
X62.644 Y-213.096
X63.09 Y-212.479
X63.458 Y-211.87
X63.728 Y-211.331
X63.919 Y-210.859
X64.057 Y-210.417
X64.146 Y-210.028
X64.202 Y-209.634
X64.216 Y-209.409
X64.2 Y-209.08
X64.111 Y-208.762
X63.955 Y-208.472
X63.738 Y-208.223
X63.471 Y-208.029
X63.168 Y-207.899
X62.672 Y-207.748
X62.523 Y-207.701
X62.316 Y-207.634
X62.109 Y-207.564
X62.055 Y-207.541
X61.902 Y-207.466
X61.512 Y-207.264
G3 X60.775 Y-207.405 I-0.272 J-0.574
G1 X52.561 Y-216.214
G3 X52.83 Y-217.251 I0.464 J-0.433
G1 X53.206 Y-217.359
X53.413 Y-217.41
X54.034 Y-217.533
X54.241 Y-217.554
X54.655 Y-217.587
X54.862 Y-217.601
X55.483 Y-217.624
X55.69 Y-217.626
X58.589
X59.096 Y-217.6
X59.501 Y-217.547
X59.923 Y-217.457
X60.422 Y-217.307
X60.93 Y-217.109
X61.515 Y-216.825
X62.106 Y-216.477
X62.707 Y-216.055
X63.31 Y-215.554
X63.889 Y-214.989
X64.416 Y-214.385
X64.876 Y-213.763
X65.266 Y-213.136
X65.581 Y-212.526
X65.816 Y-211.963
X65.989 Y-211.433
X66.094 Y-210.996
X66.162 Y-210.559
X66.19 Y-210.185
X66.188 Y-209.8
X66.176 Y-209.671
X66.123 Y-209.385
X66.014 Y-209.115
X65.855 Y-208.871
X65.651 Y-208.663
X65.41 Y-208.499
X65.142 Y-208.385
X64.857 Y-208.326
X64.594 Y-208.298
X64.387 Y-208.257
X64.18 Y-208.202
X63.972 Y-208.143
X63.168 Y-207.899
X63.087 Y-207.883
X63.006 Y-207.878
X63.005
G3 X62.441 Y-208.22 I0 J-0.635
G1 X58.047 Y-216.699
G3 X58.589 Y-217.626 I0.564 J-0.292
G1 X62.109 Y-217.625
X62.349 Y-217.613
X62.642 Y-217.575
X62.991 Y-217.5
X63.344 Y-217.394
X63.754 Y-217.234
X64.165 Y-217.035
X64.628 Y-216.762
X65.081 Y-216.444
X65.55 Y-216.055
X66.022 Y-215.594
X66.472 Y-215.078
X66.884 Y-214.521
X67.243 Y-213.944
X67.548 Y-213.352
X67.795 Y-212.761
X67.987 Y-212.173
X68.111 Y-211.654
X68.182 Y-211.201
X68.215 Y-210.764
X68.212 Y-210.386
X68.179 Y-210.006
X68.124 Y-209.674
X68.111 Y-209.622
X67.999 Y-209.322
X67.826 Y-209.053
X67.599 Y-208.827
X67.329 Y-208.655
X67.028 Y-208.546
X66.711 Y-208.503
X66.664 Y-208.502
X66.457 Y-208.486
X65.215 Y-208.364
X64.857 Y-208.326
G3 X64.209 Y-208.758 I-0.045 J-0.633
G1 X61.529 Y-216.789
G3 X62.109 Y-217.625 I0.602 J-0.201
G1 X64.801
X65.105 Y-217.609
X65.357 Y-217.576
X65.646 Y-217.514
X65.956 Y-217.421
X66.29 Y-217.291
X66.646 Y-217.119
X67.025 Y-216.895
X67.404 Y-216.629
X67.808 Y-216.294
X68.203 Y-215.908
X68.582 Y-215.474
X68.95 Y-214.976
X69.286 Y-214.436
X69.577 Y-213.872
X69.819 Y-213.292
X70.009 Y-212.711
X70.149 Y-212.129
X70.232 Y-211.597
X70.268 Y-211.111
X70.265 Y-210.697
X70.23 Y-210.287
X70.171 Y-209.935
X70.082 Y-209.582
X70.062 Y-209.522
X69.934 Y-209.244
X69.751 Y-208.998
X69.522 Y-208.794
X69.255 Y-208.642
X68.963 Y-208.549
X68.659 Y-208.517
X67.285
X66.711 Y-208.503
G3 X66.1 Y-208.989 I0.006 J-0.635
G1 X64.206 Y-216.841
G3 X64.801 Y-217.625 I0.617 J-0.149
G1 X67.285 Y-217.624
X67.569 Y-217.61
X67.811 Y-217.578
X68.063 Y-217.524
X68.346 Y-217.44
X68.643 Y-217.324
X68.965 Y-217.167
X69.294 Y-216.974
X69.65 Y-216.723
X69.994 Y-216.438
X70.352 Y-216.088
X70.709 Y-215.679
X71.04 Y-215.232
X71.352 Y-214.731
X71.633 Y-214.186
X71.872 Y-213.612
X72.063 Y-213.029
X72.204 Y-212.44
X72.295 Y-211.857
X72.335 Y-211.322
X72.332 Y-210.834
X72.296 Y-210.422
X72.228 Y-210.015
X72.141 Y-209.67
X72.091 Y-209.522
X71.963 Y-209.244
X71.78 Y-208.998
X71.551 Y-208.794
X71.285 Y-208.642
X70.993 Y-208.549
X70.688 Y-208.517
X68.659
G3 X68.055 Y-209.042 I0.022 J-0.635
G1 X66.682 Y-216.88
G3 X67.285 Y-217.624 I0.625 J-0.11
G1 X69.563
X69.876 Y-217.608
X70.101 Y-217.579
X70.339 Y-217.528
X70.606 Y-217.448
X70.881 Y-217.341
X71.183 Y-217.194
X71.492 Y-217.012
X71.815 Y-216.785
X72.153 Y-216.505
X72.477 Y-216.188
X72.811 Y-215.806
X73.135 Y-215.367
X73.43 Y-214.892
X73.702 Y-214.366
X73.939 Y-213.798
X74.133 Y-213.205
X74.276 Y-212.607
X74.37 Y-212.007
X74.412 Y-211.434
X74.409 Y-210.922
X74.371 Y-210.484
X74.301 Y-210.063
X74.211 Y-209.706
X74.148 Y-209.522
X74.02 Y-209.244
X73.838 Y-208.998
X73.608 Y-208.794
X73.342 Y-208.642
X73.05 Y-208.549
X72.745 Y-208.517
X70.688
G3 X70.081 Y-209.061 I0.022 J-0.635
G1 X68.956 Y-216.899
G3 X69.563 Y-217.624 I0.629 J-0.09
G1 X71.841
X72.084 Y-217.611
X72.292 Y-217.584
X72.53 Y-217.533
X72.778 Y-217.459
X73.053 Y-217.352
X73.334 Y-217.216
X73.642 Y-217.034
X73.944 Y-216.822
X74.272 Y-216.55
X74.587 Y-216.242
X74.906 Y-215.876
X75.223 Y-215.447
X75.515 Y-214.978
X75.781 Y-214.463
X76.017 Y-213.898
X76.211 Y-213.303
X76.356 Y-212.698
X76.451 Y-212.089
X76.495 Y-211.497
X76.492 Y-210.971
X76.453 Y-210.516
X76.381 Y-210.089
X76.289 Y-209.724
X76.22 Y-209.522
X76.092 Y-209.244
X75.91 Y-208.998
X75.68 Y-208.794
X75.414 Y-208.642
X75.122 Y-208.549
X74.817 Y-208.517
X72.745
G3 X72.137 Y-209.079 I0.022 J-0.635
G1 X71.232 Y-216.916
G3 X71.841 Y-217.624 I0.631 J-0.073
G1 X74.025 Y-217.623
X74.236 Y-217.613
X74.438 Y-217.586
X74.674 Y-217.536
X74.913 Y-217.464
X75.186 Y-217.358
X75.457 Y-217.226
X75.76 Y-217.048
X76.056 Y-216.84
X76.374 Y-216.576
X76.689 Y-216.269
X76.999 Y-215.913
X77.311 Y-215.491
X77.602 Y-215.023
X77.864 Y-214.514
X78.099 Y-213.952
X78.294 Y-213.356
X78.44 Y-212.747
X78.536 Y-212.133
X78.581 Y-211.533
X78.577 Y-210.998
X78.537 Y-210.532
X78.465 Y-210.103
X78.372 Y-209.734
X78.3 Y-209.522
X78.172 Y-209.244
X77.99 Y-208.998
X77.76 Y-208.794
X77.494 Y-208.642
X77.202 Y-208.549
X76.897 Y-208.517
X74.817
G3 X74.208 Y-209.088 I0.022 J-0.635
G1 X73.415 Y-216.925
G3 X74.025 Y-217.623 I0.632 J-0.064
G1 X76.189
X76.356 Y-217.615
X76.556 Y-217.588
X76.79 Y-217.538
X77.026 Y-217.468
X77.296 Y-217.362
X77.564 Y-217.232
X77.863 Y-217.056
X78.157 Y-216.85
X78.469 Y-216.59
X78.784 Y-216.283
X79.09 Y-215.932
X79.399 Y-215.515
X79.69 Y-215.047
X79.95 Y-214.542
X80.185 Y-213.981
X80.379 Y-213.384
X80.526 Y-212.773
X80.622 Y-212.157
X80.667 Y-211.552
X80.664 Y-211.012
X80.623 Y-210.541
X80.551 Y-210.11
X80.457 Y-209.739
X80.384 Y-209.522
X80.256 Y-209.244
X80.073 Y-208.998
X79.844 Y-208.794
X79.578 Y-208.642
X79.286 Y-208.549
X78.981 Y-208.517
X76.897
G3 X76.287 Y-209.094 I0.022 J-0.635
G1 X75.578 Y-216.931
G3 X76.189 Y-217.623 I0.632 J-0.057
G1 X78.259
X78.463 Y-217.613
X78.663 Y-217.586
X78.894 Y-217.537
X79.129 Y-217.466
X79.397 Y-217.362
X79.664 Y-217.232
X79.96 Y-217.058
X80.253 Y-216.852
X80.562 Y-216.595
X80.877 Y-216.288
X81.18 Y-215.941
X81.487 Y-215.526
X81.778 Y-215.059
X82.038 Y-214.555
X82.272 Y-213.995
X82.466 Y-213.399
X82.613 Y-212.786
X82.709 Y-212.169
X82.755 Y-211.562
X82.751 Y-211.02
X82.71 Y-210.546
X82.638 Y-210.114
X82.544 Y-209.741
X82.47 Y-209.522
X82.342 Y-209.244
X82.159 Y-208.998
X81.93 Y-208.794
X81.663 Y-208.642
X81.371 Y-208.549
X81.067 Y-208.517
X78.981
G3 X78.371 Y-209.093 I0.022 J-0.635
G1 X77.649 Y-216.93
G3 X78.259 Y-217.623 I0.632 J-0.058
G1 X80.33 Y-217.622
X80.561 Y-217.611
X80.761 Y-217.585
X80.991 Y-217.535
X81.225 Y-217.465
X81.492 Y-217.361
X81.758 Y-217.232
X82.052 Y-217.059
X82.346 Y-216.853
X82.653 Y-216.597
X82.968 Y-216.29
X83.269 Y-215.944
X83.576 Y-215.531
X83.866 Y-215.064
X84.125 Y-214.561
X84.359 Y-214.002
X84.553 Y-213.406
X84.7 Y-212.793
X84.797 Y-212.175
X84.842 Y-211.567
X84.839 Y-211.024
X84.798 Y-210.548
X84.725 Y-210.116
X84.631 Y-209.743
X84.556 Y-209.522
X84.428 Y-209.244
X84.246 Y-208.998
X84.016 Y-208.794
X83.75 Y-208.642
X83.458 Y-208.549
X83.153 Y-208.517
X81.067
G3 X80.456 Y-209.092 I0.022 J-0.635
G1 X79.72 Y-216.928
G3 X80.33 Y-217.622 I0.632 J-0.059
G1 X82.4
X82.654 Y-217.609
X82.854 Y-217.583
X83.083 Y-217.534
X83.317 Y-217.464
X83.583 Y-217.36
X83.85 Y-217.231
X84.143 Y-217.058
X84.436 Y-216.852
X84.742 Y-216.598
X85.057 Y-216.291
X85.358 Y-215.946
X85.664 Y-215.533
X85.954 Y-215.066
X86.213 Y-214.564
X86.446 Y-214.005
X86.641 Y-213.409
X86.788 Y-212.796
X86.884 Y-212.177
X86.93 Y-211.569
X86.927 Y-211.025
X86.885 Y-210.549
X86.813 Y-210.117
X86.719 Y-209.743
X86.644 Y-209.522
X86.515 Y-209.244
X86.333 Y-208.998
X86.104 Y-208.794
X85.837 Y-208.642
X85.545 Y-208.549
X85.24 Y-208.517
X83.153
G3 X82.543 Y-209.091 I0.022 J-0.635
G1 X81.79 Y-216.927
G3 X82.4 Y-217.622 I0.632 J-0.061
G1 X84.471
X84.744 Y-217.608
X84.944 Y-217.582
X85.173 Y-217.533
X85.408 Y-217.463
X85.673 Y-217.359
X85.939 Y-217.23
X86.232 Y-217.058
X86.525 Y-216.852
X86.831 Y-216.598
X87.146 Y-216.29
X87.446 Y-215.946
X87.752 Y-215.533
X88.042 Y-215.067
X88.301 Y-214.565
X88.534 Y-214.006
X88.728 Y-213.41
X88.875 Y-212.797
X88.972 Y-212.179
X89.017 Y-211.57
X89.014 Y-211.026
X88.973 Y-210.55
X88.9 Y-210.117
X88.806 Y-209.744
X88.731 Y-209.522
X88.603 Y-209.244
X88.42 Y-208.998
X88.191 Y-208.794
X87.925 Y-208.642
X87.633 Y-208.549
X87.328 Y-208.517
X85.24
G3 X84.631 Y-209.09 I0.022 J-0.635
G1 X83.861 Y-216.925
G3 X84.471 Y-217.622 I0.632 J-0.062
G1 X86.541
X86.834 Y-217.607
X87.034 Y-217.581
X87.262 Y-217.532
X87.497 Y-217.462
X87.762 Y-217.358
X88.028 Y-217.229
X88.32 Y-217.057
X88.614 Y-216.851
X88.919 Y-216.597
