(1001)
(T7  D=3.175 CR=0 - ZMIN=-6.76 - flat end mill)
G90 G94
G17
G21
G28 G91 Z0
G90

(2D Contour6)
T7
S5000 M3
G54
M8
G0 X48.057 Y-44.104
Z15
Z5
G1 Z1 F66.7
Z-6.443
X48.052 Y-44.098 Z-6.513 F200
X48.038 Y-44.08 Z-6.58
X48.015 Y-44.05 Z-6.64
X47.984 Y-44.01 Z-6.691
X47.947 Y-43.962 Z-6.729
X47.906 Y-43.909 Z-6.752
X47.863 Y-43.853 Z-6.76
X47.668 Y-43.602
G3 X47.223 Y-43.546 I-0.251 J-0.194
X72.824 Y-76.62 I12.801 J-16.537
X47.223 Y-43.546 I-12.801 J16.537
X47.166 Y-43.991 I0.194 J-0.251
G1 X47.361 Y-44.242
X47.404 Y-44.298 Z-6.752
X47.445 Y-44.351 Z-6.729
X47.482 Y-44.399 Z-6.691
X47.513 Y-44.438 Z-6.64
X47.536 Y-44.468 Z-6.58
X47.55 Y-44.487 Z-6.513
X47.555 Y-44.493 Z-6.443
G0 Z5
X45.934 Y-22.46
G1 Z1 F66.7
Z-6.443
G19 G2 Y-22.778 Z-6.76 J-0.318 K0 F200
G1 Y-23.095
G17 G3 X46.251 Y-23.413 I0.318 J0
G1 X72.14
G2 X89.564 Y-28.976 I0 J-30.068
G1 X112.438 Y-45.24
G2 X113.989 Y-54.426 I-3.818 J-5.369
G1 X113.493 Y-55.124
G3 X115.575 Y-67.454 I7.206 J-5.124
G1 X143.113 Y-87.036
G3 X147.872 Y-86.232 I1.978 J2.781
G1 X162.632 Y-65.475
G2 X168.583 Y-63.491 I4.334 J-3.082
G1 X172.89 Y-64.866
G2 X176.59 Y-69.931 I-1.617 J-5.066
G1 Y-185.766
G2 X170.924 Y-188.69 I-3.588 J0
G1 X146.511 Y-171.331
G2 X143.859 Y-164.72 I3.817 J5.369
G3 X56.135 Y-147.881 I-43.862 J8.419
X139.708 Y-176.74 I43.862 J-8.419
G2 X149.383 Y-174.385 I5.857 J-3.015
G1 X175.082 Y-192.658
G2 X176.59 Y-195.582 I-2.079 J-2.924
G1 Y-200.953
G2 X173.178 Y-209.19 I-11.648 J0
G1 X159.192 Y-223.176
G2 X150.956 Y-226.587 I-8.236 J8.235
G1 X49.044
G2 X40.808 Y-223.176 I0 J11.647
G1 X26.821 Y-209.19
G2 X23.41 Y-200.953 I8.236 J8.236
G1 Y-37.6
G2 X37.597 Y-23.413 I14.188 J0
G1 X46.251
G3 X46.569 Y-23.095 I0 J0.318
G1 Y-22.778
G19 G3 Y-22.46 Z-6.443 J0 K0.318
G0 Z15
G17
M9
G28 G91 Z0
G90
G28 G91 X0 Y0
G90
M5
M30
