(1001)
(T7  D=3.175 CR=0 - ZMIN=-6.76 - flat end mill)
G90 G94
G17
G21
G28 G91 Z0
G90

(2D Contour6)
T7
S5000 M3
G54
M8
G0 X48.105 Y-44.104
Z15
Z5
G1 Z1 F66.7
Z-6.443
X48.1 Y-44.098 Z-6.513 F200
X48.086 Y-44.08 Z-6.58
X48.063 Y-44.05 Z-6.64
X48.032 Y-44.01 Z-6.691
X47.995 Y-43.962 Z-6.729
X47.954 Y-43.909 Z-6.752
X47.911 Y-43.853 Z-6.76
X47.717 Y-43.602
G3 X47.271 Y-43.546 I-0.251 J-0.194
X72.873 Y-76.62 I12.801 J-16.537
X47.271 Y-43.546 I-12.801 J16.537
X47.214 Y-43.991 I0.194 J-0.251
G1 X47.409 Y-44.242
X47.452 Y-44.298 Z-6.752
X47.493 Y-44.351 Z-6.729
X47.53 Y-44.399 Z-6.691
X47.561 Y-44.438 Z-6.64
X47.584 Y-44.468 Z-6.58
X47.598 Y-44.487 Z-6.513
X47.603 Y-44.493 Z-6.443
G0 Z5
X45.982 Y-22.46
G1 Z1 F66.7
Z-6.443
G19 G2 Y-22.778 Z-6.76 J-0.318 K0 F200
G1 Y-23.095
G17 G3 X46.299 Y-23.413 I0.318 J0
G1 X72.188
G2 X89.612 Y-28.976 I0 J-30.068
G1 X112.486 Y-45.24
G2 X114.037 Y-54.426 I-3.818 J-5.369
G1 X113.541 Y-55.124
G3 X115.623 Y-67.454 I7.206 J-5.124
G1 X143.162 Y-87.036
G3 X147.92 Y-86.232 I1.977 J2.781
G1 X162.584 Y-65.61
G2 X168.535 Y-63.626 I4.333 J-3.082
G1 X172.842 Y-65.001
G2 X176.542 Y-70.067 I-1.617 J-5.066
G1 Y-186.306
G2 X170.876 Y-189.23 I-3.588 J0
G1 X143.083 Y-169.467
G2 X140.403 Y-163.017 I3.818 J5.368
G3 X59.687 Y-149.583 I-40.358 J6.717
X136.438 Y-174.994 I40.358 J-6.717
G2 X146.115 Y-172.635 I5.86 J-3.01
G1 X175.034 Y-193.198
G2 X176.542 Y-196.122 I-2.079 J-2.924
G1 Y-200.953
G2 X173.13 Y-209.19 I-11.648 J0
G1 X159.144 Y-223.176
G2 X150.908 Y-226.587 I-8.236 J8.235
G1 X49.092
G2 X40.856 Y-223.176 I0 J11.647
G1 X26.869 Y-209.19
G2 X23.458 Y-200.953 I8.236 J8.236
G1 Y-37.6
G2 X37.645 Y-23.413 I14.188 J0
G1 X46.299
G3 X46.617 Y-23.095 I0 J0.318
G1 Y-22.778
G19 G3 Y-22.46 Z-6.443 J0 K0.318
G0 Z15
G17
M9
G28 G91 Z0
G90
G28 G91 X0 Y0
G90
M5
M30
