(newHoletest03)
(T1 D=6.35 CR=0 - ZMIN=-2.7 - flat end mill)
G90 G94
G17
G21
G28 G91 Z0
G90

(2D Contour6)
T1
S18000 M3
G17 G90 G94
G54
G0 X19.92 Y-20.635
Z15
G0 Z5
G1 Z1 F8.3
Z-2.065
G18 G2 X20.555 Z-2.7 I0.635 K0 F25
G1 X21.19
G17 G3 X21.825 Y-20 I0 J0.635
X18.175 Y-20 I-1.825 J0
X21.825 Y-20 I1.825 J0
X21.19 Y-19.365 I-0.635 J0
G1 X20.555
G18 G3 X19.92 Z-2.065 I0 K0.635
G0 Z15
G17
G28 G91 Z0
G90
G28 G91 X0 Y0
G90
M5
M30
