(outline02)
(T1 D=6.35 CR=0 - ZMIN=-6.7 - flat end mill)
G90 G94
G17
G21
G28 G91 Z0
G90

(2D Contour7)
T1
S18000 M3
G17 G90 G94
G54
G0 X19.365 Y-4.92
Z15
G0 Z5
G1 Z1 F8.3
Z-6.065
G19 G2 Y-5.555 Z-6.7 J-0.635 K0 F25
G1 Y-6.19
G17 G3 X20 Y-6.825 I0.635 J0
G1 X195
G2 X195 Y-33.175 I0 J-13.175
G1 X20
G2 X20 Y-6.825 I0 J13.175
G3 X20.635 Y-6.19 I0 J0.635
G1 Y-5.555
G19 G3 Y-4.92 Z-6.065 J0 K0.635
G0 Z15
G17
G28 G91 Z0
G90
G28 G91 X0 Y0
G90
M5
M30
