(outter01)
(T1 D=3.175 CR=0 - ZMIN=-2.7 - flat end mill)
G90 G94
G17
G21
G28 G91 Z0
G90

(2D Contour2)
T1
S18000 M3
G17 G90 G94
G54
G0 X9.682 Y2.54
Z15
G0 Z5
G1 Z1 F15
Z-2.383
G19 G2 Y2.223 Z-2.7 J-0.317 K0
G1 Y1.905
G17 G3 X10 Y1.587 I0.318 J0
G1 X185
G2 X185 Y-21.587 I0 J-11.587
G1 X10
G2 X10 Y1.587 I0 J11.587
G3 X10.318 Y1.905 I0 J0.317
G1 Y2.223
G19 G3 Y2.54 Z-2.383 J0 K0.318
G0 Z15
G17
G28 G91 Z0
G90
G28 G91 X0 Y0
G90
M5
M30
