(1001)
(T6  D=6.35 CR=0 - ZMIN=-1 - flat end mill)
G90 G94
G17
G21
G28 G91 Z0
G90

(2D Adaptive1)
T6
S5000 M3
G54
M8
G0 X28.018 Y-47.408
Z15
Z5
Z2.55
G3 X31.982 Y-42.86 Z2.219 I1.982 J2.274 F333.3
X28.018 Y-47.408 Z1.888 I-1.982 J-2.274
X31.982 Y-42.86 Z1.557 I1.982 J2.274
X28.018 Y-47.408 Z1.226 I-1.982 J-2.274
X31.982 Y-42.86 Z0.895 I1.982 J2.274
X28.018 Y-47.408 Z0.565 I-1.982 J-2.274
X31.982 Y-42.86 Z0.234 I1.982 J2.274
X28.018 Y-47.408 Z-0.097 I-1.982 J-2.274
X31.982 Y-42.86 Z-0.428 I1.982 J2.274
X28.018 Y-47.408 Z-0.759 I-1.982 J-2.274
X33.016 Y-45.134 Z-1 I1.982 J2.274
X26.984 Y-45.134 I-3.016 J0
X33.016 Y-45.134 I3.016 J0
G1 X33.02 Y-44.906 F1000
X33.175 Y-44.007
X33.229 Y-43.868
X33.267 Y-43.722
X33.289 Y-43.574
X33.299 Y-43.424
X33.295 Y-43.266
X33.278 Y-43.097
X33.245 Y-42.918
X33.195 Y-42.731
X33.127 Y-42.538
X33.038 Y-42.341
X32.928 Y-42.141
X32.797 Y-41.941
X32.643 Y-41.744
X32.467 Y-41.553
X32.268 Y-41.369
X32.048 Y-41.196
X31.807 Y-41.035
X31.546 Y-40.891
X31.266 Y-40.764
X30.97 Y-40.658
X30.66 Y-40.574
X30.337 Y-40.513
X30.004 Y-40.478
X29.664 Y-40.47
X29.319 Y-40.49
X28.972 Y-40.538
X28.626 Y-40.614
X28.283 Y-40.719
X27.947 Y-40.852
X27.62 Y-41.014
X27.304 Y-41.202
X27.003 Y-41.417
X26.718 Y-41.657
X26.452 Y-41.92
X26.207 Y-42.204
X25.984 Y-42.509
X25.786 Y-42.832
X25.614 Y-43.17
X25.47 Y-43.523
X25.353 Y-43.886
X25.267 Y-44.259
X25.21 Y-44.638
X25.184 Y-45.021
X25.189 Y-45.405
X25.224 Y-45.788
X25.29 Y-46.167
X25.387 Y-46.541
X25.513 Y-46.905
X25.669 Y-47.259
X25.852 Y-47.599
X26.062 Y-47.923
X26.297 Y-48.23
X26.557 Y-48.517
X26.839 Y-48.782
X27.141 Y-49.024
X27.462 Y-49.241
X27.799 Y-49.431
X28.151 Y-49.594
X28.514 Y-49.728
X28.887 Y-49.833
X29.268 Y-49.907
X29.653 Y-49.95
X30.04 Y-49.963
X30.428 Y-49.944
X30.812 Y-49.894
X31.192 Y-49.814
X31.563 Y-49.703
X31.925 Y-49.563
X32.274 Y-49.395
X32.609 Y-49.198
X32.926 Y-48.976
X33.225 Y-48.729
X33.503 Y-48.458
X33.759 Y-48.167
X33.99 Y-47.855
X34.231 Y-47.47
X34.635 Y-46.689
X34.898 Y-46.065
X35.074 Y-45.528
X35.192 Y-45.041
X35.265 Y-44.577
X35.3 Y-44.126
X35.298 Y-43.691
X35.262 Y-43.266
X35.193 Y-42.851
X35.092 Y-42.446
X34.958 Y-42.05
X34.793 Y-41.665
X34.596 Y-41.292
X34.368 Y-40.934
X34.11 Y-40.592
X33.822 Y-40.269
X33.506 Y-39.966
X33.162 Y-39.686
X32.792 Y-39.431
X32.396 Y-39.204
X31.978 Y-39.006
X31.54 Y-38.84
X31.084 Y-38.708
X30.612 Y-38.612
X30.129 Y-38.554
X29.638 Y-38.534
X29.141 Y-38.554
X28.643 Y-38.614
X28.147 Y-38.715
X27.658 Y-38.856
X27.177 Y-39.038
X26.71 Y-39.259
X26.259 Y-39.518
X25.827 Y-39.815
X25.419 Y-40.147
X25.037 Y-40.512
X24.684 Y-40.909
X24.363 Y-41.334
X24.075 Y-41.786
X23.824 Y-42.261
X23.612 Y-42.755
X23.439 Y-43.267
X23.308 Y-43.792
X23.219 Y-44.327
X23.173 Y-44.868
X23.17 Y-45.412
X23.212 Y-45.956
X23.297 Y-46.495
X23.425 Y-47.026
X23.595 Y-47.545
X23.807 Y-48.05
X24.059 Y-48.536
X24.349 Y-49.001
X24.676 Y-49.442
X25.038 Y-49.855
X25.431 Y-50.237
X25.854 Y-50.587
X26.304 Y-50.903
X26.778 Y-51.181
X27.273 Y-51.42
X27.785 Y-51.618
X28.312 Y-51.775
X28.85 Y-51.89
X29.396 Y-51.96
X29.945 Y-51.987
X30.495 Y-51.97
X31.042 Y-51.908
X31.582 Y-51.803
X32.112 Y-51.654
X32.628 Y-51.464
X33.128 Y-51.233
X33.607 Y-50.962
X34.063 Y-50.654
X34.503 Y-50.302
X34.982 Y-49.852
X35.436 Y-49.35
X35.863 Y-48.795
X36.248 Y-48.2
X36.579 Y-47.585
X36.854 Y-46.962
X37.071 Y-46.335
X37.234 Y-45.707
X37.343 Y-45.082
X37.401 Y-44.459
X37.409 Y-43.841
X37.367 Y-43.231
X37.278 Y-42.631
X37.141 Y-42.043
X36.958 Y-41.469
X36.73 Y-40.913
X36.457 Y-40.376
X36.142 Y-39.861
X35.785 Y-39.372
X35.387 Y-38.91
X34.951 Y-38.479
X34.479 Y-38.081
X33.972 Y-37.72
X33.433 Y-37.398
X32.866 Y-37.118
X32.272 Y-36.882
X31.657 Y-36.693
X31.023 Y-36.553
X30.375 Y-36.464
X29.718 Y-36.427
X29.055 Y-36.442
X28.391 Y-36.511
X27.73 Y-36.635
X27.077 Y-36.811
X26.437 Y-37.042
X25.813 Y-37.324
X25.212 Y-37.657
X24.636 Y-38.039
X24.09 Y-38.468
X23.578 Y-38.942
X23.104 Y-39.457
X22.672 Y-40.011
X22.284 Y-40.599
X21.943 Y-41.219
X21.652 Y-41.865
X21.414 Y-42.535
X21.23 Y-43.223
X21.101 Y-43.925
X21.029 Y-44.636
X21.014 Y-45.352
X21.057 Y-46.067
X21.157 Y-46.778
X21.314 Y-47.479
X21.527 Y-48.166
X21.794 Y-48.834
X22.115 Y-49.479
X22.487 Y-50.097
X22.907 Y-50.683
X23.373 Y-51.234
X23.882 Y-51.745
X24.431 Y-52.215
X25.016 Y-52.639
X25.633 Y-53.015
X26.278 Y-53.34
X26.948 Y-53.612
X27.637 Y-53.83
X28.342 Y-53.992
X29.058 Y-54.097
X29.78 Y-54.144
X30.503 Y-54.133
X31.223 Y-54.063
X31.936 Y-53.937
X32.636 Y-53.753
X33.319 Y-53.514
X33.984 Y-53.22
X34.644 Y-52.861
X35.295 Y-52.437
X35.928 Y-51.947
X36.535 Y-51.395
X37.105 Y-50.786
X37.628 Y-50.128
X38.096 Y-49.43
X38.506 Y-48.699
X38.853 Y-47.944
X39.136 Y-47.169
X39.354 Y-46.381
X39.507 Y-45.584
X39.595 Y-44.785
X39.618 Y-43.987
X39.577 Y-43.194
X39.473 Y-42.411
X39.308 Y-41.641
X39.081 Y-40.889
X38.795 Y-40.159
X38.452 Y-39.453
X38.052 Y-38.777
X37.599 Y-38.133
X37.093 Y-37.525
X36.538 Y-36.958
X35.936 Y-36.434
X35.291 Y-35.958
X34.606 Y-35.533
X33.885 Y-35.162
X33.131 Y-34.849
X32.351 Y-34.595
X31.548 Y-34.404
X30.727 Y-34.277
X29.894 Y-34.216
X29.054 Y-34.222
X28.213 Y-34.295
X27.375 Y-34.437
X26.548 Y-34.647
X25.737 Y-34.923
X24.947 Y-35.266
X24.183 Y-35.672
X23.452 Y-36.141
X22.757 Y-36.668
X22.106 Y-37.252
X21.501 Y-37.888
X20.947 Y-38.573
X20.449 Y-39.302
X20.01 Y-40.07
X19.633 Y-40.874
X19.321 Y-41.706
X19.076 Y-42.563
X18.9 Y-43.438
X18.796 Y-44.326
X18.762 Y-45.221
X18.801 Y-46.116
X18.912 Y-47.007
X19.094 Y-47.887
X19.346 Y-48.75
X19.667 Y-49.591
X20.054 Y-50.404
X20.506 Y-51.183
X21.019 Y-51.925
X21.591 Y-52.623
X22.217 Y-53.273
X22.893 Y-53.871
X23.615 Y-54.413
X24.379 Y-54.896
X25.179 Y-55.315
X26.01 Y-55.67
X26.868 Y-55.956
X27.746 Y-56.173
X28.638 Y-56.319
X29.539 Y-56.392
X30.444 Y-56.393
X31.346 Y-56.321
X32.239 Y-56.178
X33.123 Y-55.961
X33.989 Y-55.674
X34.828 Y-55.319
X35.638 Y-54.899
X36.412 Y-54.418
X37.147 Y-53.878
X37.84 Y-53.286
X38.488 Y-52.645
X39.088 Y-51.958
X39.637 Y-51.23
X40.133 Y-50.464
X40.572 Y-49.665
X40.952 Y-48.837
X41.27 Y-47.982
X41.524 Y-47.106
X41.713 Y-46.214
X41.834 Y-45.311
X41.889 Y-44.4
X41.875 Y-43.489
X41.794 Y-42.58
X41.645 Y-41.681
X41.428 Y-40.795
X41.146 Y-39.928
X40.799 Y-39.085
X40.39 Y-38.27
X39.921 Y-37.488
X39.395 Y-36.744
X38.814 Y-36.041
X38.181 Y-35.384
X37.501 Y-34.776
X36.777 Y-34.222
X36.014 Y-33.723
X35.216 Y-33.282
X34.388 Y-32.901
X33.534 Y-32.581
X32.659 Y-32.323
X31.768 Y-32.129
X30.866 Y-32
X29.956 Y-31.935
X29.045 Y-31.937
X28.135 Y-32.006
X27.233 Y-32.139
X26.343 Y-32.336
X25.469 Y-32.594
X24.614 Y-32.913
X23.784 Y-33.29
X22.982 Y-33.724
X22.213 Y-34.214
X21.481 Y-34.757
X20.788 Y-35.35
X20.137 Y-35.989
X19.532 Y-36.671
X18.974 Y-37.392
X18.466 Y-38.149
X18.013 Y-38.94
X17.616 Y-39.761
X17.277 Y-40.608
X16.995 Y-41.475
X16.772 Y-42.359
X16.608 Y-43.256
X16.506 Y-44.162
X16.468 Y-45.073
X16.492 Y-45.984
X16.578 Y-46.892
X16.724 Y-47.792
X16.929 Y-48.681
X17.194 Y-49.553
X17.518 Y-50.405
X17.9 Y-51.233
X18.337 Y-52.034
X18.827 Y-52.803
X19.366 Y-53.538
X19.953 Y-54.236
X20.586 Y-54.892
X21.264 Y-55.502
X21.981 Y-56.066
X22.733 Y-56.58
X23.518 Y-57.044
X24.332 Y-57.455
X25.173 Y-57.809
X26.035 Y-58.104
X26.916 Y-58.34
X27.811 Y-58.517
X28.715 Y-58.635
X29.625 Y-58.693
X30.537 Y-58.689
X31.446 Y-58.621
X32.349 Y-58.493
X33.241 Y-58.305
X34.119 Y-58.059
X34.979 Y-57.756
X35.817 Y-57.397
X36.629 Y-56.982
X37.412 Y-56.516
X38.165 Y-56
X38.883 Y-55.439
X39.567 Y-54.835
X40.211 Y-54.19
X40.813 Y-53.506
X41.372 Y-52.785
X41.886 Y-52.032
X42.353 Y-51.249
X42.771 Y-50.439
X43.14 Y-49.605
X43.456 Y-48.749
X43.716 Y-47.876
X43.921 Y-46.987
X44.071 Y-46.088
X44.165 Y-45.181
X44.204 Y-44.27
X44.185 Y-43.358
X44.107 Y-42.45
X43.972 Y-41.548
X43.78 Y-40.656
X43.534 Y-39.779
X43.234 Y-38.918
X42.88 Y-38.077
X42.473 Y-37.262
X42.014 Y-36.474
X41.506 Y-35.716
X40.952 Y-34.992
X40.355 Y-34.303
X39.715 Y-33.653
X39.035 Y-33.046
X38.317 Y-32.484
X37.565 Y-31.968
X36.783 Y-31.499
X35.974 Y-31.078
X35.141 Y-30.708
X34.287 Y-30.39
X33.414 Y-30.126
X32.526 Y-29.916
X31.628 Y-29.761
X30.722 Y-29.66
X29.811 Y-29.614
X28.899 Y-29.623
X27.99 Y-29.689
X27.086 Y-29.811
X26.191 Y-29.986
X25.309 Y-30.215
X24.441 Y-30.494
X23.59 Y-30.823
X22.761 Y-31.203
X21.958 Y-31.633
X21.181 Y-32.111
X20.434 Y-32.634
X19.719 Y-33.199
X19.037 Y-33.805
X18.391 Y-34.449
X17.785 Y-35.13
X17.221 Y-35.846
X16.7 Y-36.595
X16.224 Y-37.373
X15.794 Y-38.176
X15.41 Y-39.003
X15.074 Y-39.851
X14.789 Y-40.717
X14.556 Y-41.599
X14.374 Y-42.492
X14.244 Y-43.395
X14.167 Y-44.303
X14.141 Y-45.215
X14.167 Y-46.126
X14.248 Y-47.034
X14.381 Y-47.936
X14.566 Y-48.829
X14.801 Y-49.71
X15.087 Y-50.576
X15.421 Y-51.424
X15.805 Y-52.252
X16.236 Y-53.055
X16.712 Y-53.833
X17.233 Y-54.581
X17.795 Y-55.299
X18.397 Y-55.984
X19.037 Y-56.633
X19.714 Y-57.244
X20.426 Y-57.814
X21.169 Y-58.342
X21.941 Y-58.827
X22.74 Y-59.268
X23.562 Y-59.662
X24.405 Y-60.009
X25.267 Y-60.306
X26.145 Y-60.551
X27.036 Y-60.747
X27.936 Y-60.891
X28.843 Y-60.984
X29.754 Y-61.026
X30.666 Y-61.015
X31.575 Y-60.951
X32.48 Y-60.834
X33.376 Y-60.666
X34.261 Y-60.448
X35.133 Y-60.18
X35.988 Y-59.865
X36.825 Y-59.502
X37.639 Y-59.091
X38.429 Y-58.636
X39.193 Y-58.138
X39.929 Y-57.599
X40.635 Y-57.022
X41.309 Y-56.409
X41.95 Y-55.76
X42.555 Y-55.078
X43.121 Y-54.363
X43.649 Y-53.619
X44.136 Y-52.849
X44.583 Y-52.054
X44.987 Y-51.237
X45.347 Y-50.399
X45.662 Y-49.543
X45.928 Y-48.671
X46.147 Y-47.786
X46.319 Y-46.891
X46.443 Y-45.987
X46.52 Y-45.079
X46.547 Y-44.167
X46.525 Y-43.256
X46.452 Y-42.347
X46.33 Y-41.443
X46.159 Y-40.548
X45.94 Y-39.662
X45.675 Y-38.79
X45.363 Y-37.933
X45.005 Y-37.095
X44.601 Y-36.277
X44.152 Y-35.484
X43.661 Y-34.715
X43.129 Y-33.974
X42.559 Y-33.263
X41.951 Y-32.583
X41.308 Y-31.937
X40.629 Y-31.328
X39.918 Y-30.758
X39.177 Y-30.226
X38.409 Y-29.735
X37.616 Y-29.284
X36.801 Y-28.876
X35.965 Y-28.512
X35.312 Y-28.268
X35.143 Y-28.217
X34.97 Y-28.185
X34.794 Y-28.175
X26.274
X25.364 Y-28.221
X24.619 Y-28.312
X23.808 Y-28.478
X22.933 Y-28.732
X22.079 Y-29.053
X21.25 Y-29.433
X20.447 Y-29.864
X19.671 Y-30.342
X18.922 Y-30.863
X18.203 Y-31.424
X17.516 Y-32.023
X16.862 Y-32.658
X16.242 Y-33.328
X15.659 Y-34.028
X15.112 Y-34.758
X14.602 Y-35.514
X14.132 Y-36.295
X13.701 Y-37.098
X13.312 Y-37.923
X13.285 Y-37.988
X13.224 Y-38.17
X13.187 Y-38.358
X13.175 Y-38.549
Y-49.689
X13.219 Y-50.561
X13.3 Y-51.179
X13.452 Y-51.891
X13.693 Y-52.695
X14.024 Y-53.545
X14.419 Y-54.367
X14.869 Y-55.16
X15.368 Y-55.923
X15.912 Y-56.655
X16.496 Y-57.354
X17.118 Y-58.021
X17.775 Y-58.654
X18.463 Y-59.252
X19.181 Y-59.814
X19.926 Y-60.339
X20.697 Y-60.827
X21.492 Y-61.273
X22.309 Y-61.679
X23.145 Y-62.043
X23.998 Y-62.364
X24.866 Y-62.643
X25.747 Y-62.878
X26.639 Y-63.07
X27.538 Y-63.217
X28.445 Y-63.318
X29.355 Y-63.372
X30.267 Y-63.381
X31.178 Y-63.345
X32.086 Y-63.264
X32.989 Y-63.138
X33.885 Y-62.968
X34.771 Y-62.754
X35.646 Y-62.496
X36.506 Y-62.194
X37.351 Y-61.85
X38.178 Y-61.466
X38.985 Y-61.042
X39.771 Y-60.581
X40.535 Y-60.083
X41.274 Y-59.548
X41.986 Y-58.979
X42.67 Y-58.376
X43.325 Y-57.742
X43.949 Y-57.077
X44.542 Y-56.384
X45.101 Y-55.664
X45.627 Y-54.919
X46.118 Y-54.151
X46.571 Y-53.359
X46.662 Y-53.181
X46.752 Y-52.965
X46.807 Y-52.739
X46.825 Y-52.506
Y-37.887
X46.794 Y-37.271
X46.725 Y-36.742
X46.593 Y-36.125
X46.393 Y-35.457
X46.095 Y-34.693
X45.697 Y-33.872
X45.237 Y-33.085
X44.724 Y-32.331
X44.167 Y-31.609
X43.569 Y-30.921
X42.934 Y-30.266
X42.265 Y-29.647
X41.565 Y-29.062
X40.837 Y-28.513
X40.718 Y-28.432
X40.459 Y-28.291
X40.177 Y-28.204
X39.884 Y-28.175
X34.794
G3 X34.421 Y-29.306 I0.022 J-0.635
G1 X45.795 Y-38.361
G3 X46.825 Y-37.887 I0.396 J0.497
G1 Y-33.745
X46.802 Y-33.285
X46.751 Y-32.898
X46.66 Y-32.473
X46.512 Y-31.978
X46.305 Y-31.446
X46.007 Y-30.833
X45.606 Y-30.152
X45.091 Y-29.418
X44.725 Y-28.978
X44.603 Y-28.847
X44.465 Y-28.732
X44.315 Y-28.635
G3 X43.449 Y-29.472 I-0.293 J-0.563
G1 X45.618 Y-33.997
G3 X46.825 Y-33.745 I0.573 J0.274
G1 X46.823 Y-32.917
X46.82 Y-32.71
X46.703 Y-31.675
X46.682 Y-31.571
X46.648 Y-31.468
X46.43 Y-30.846
X46.351 Y-30.648
X46.346 Y-30.639
X46.144 Y-30.316
X45.882 Y-29.899
X45.851 Y-29.855
X45.814 Y-29.811
X45.316 Y-29.313
X45.192 Y-29.19
X45.109 Y-29.123
X44.488 Y-28.733
X44.281 Y-28.615
X44.075 Y-28.542
X43.454 Y-28.325
X43.35 Y-28.3
X43.04 Y-28.265
X42.626 Y-28.218
X42.419 Y-28.197
X41.798 Y-28.177
X41.591 Y-28.175
X39.884
G3 X39.299 Y-28.623 I0.022 J-0.635
G1 X39.27 Y-28.717 Z-0.992
X39.241 Y-28.81 Z-0.969
X39.214 Y-28.898 Z-0.931
X39.189 Y-28.979 Z-0.879
X39.167 Y-29.052 Z-0.814
X39.148 Y-29.113 Z-0.738
X39.133 Y-29.163 Z-0.653
X39.121 Y-29.2 Z-0.561
X39.114 Y-29.222 Z-0.464
X39.112 Y-29.229 Z-0.365
G0 Z5
X13.721 Y-48.39
Z0.27
G1 Z-0.365 F1000
X13.717 Y-48.397 Z-0.464
X13.705 Y-48.417 Z-0.561
X13.685 Y-48.45 Z-0.653
X13.659 Y-48.494 Z-0.738
X13.626 Y-48.55 Z-0.814
X13.587 Y-48.615 Z-0.879
X13.544 Y-48.688 Z-0.931
X13.497 Y-48.767 Z-0.969
X13.447 Y-48.85 Z-0.992
X13.396 Y-48.936 Z-1
G3 X13.175 Y-49.689 I1.36 J-0.809
G1 Y-54.452
X13.195 Y-54.852
X13.248 Y-55.259
X13.346 Y-55.713
X13.502 Y-56.237
X13.723 Y-56.803
X14.038 Y-57.453
X14.463 Y-58.174
X14.987 Y-58.92
X15.566 Y-59.624
X16.191 Y-60.288
X16.855 Y-60.912
X17.553 Y-61.499
X18.281 Y-62.049
X19.035 Y-62.562
X19.812 Y-63.038
X20.611 Y-63.477
X21.43 Y-63.879
X22.266 Y-64.243
X23.117 Y-64.57
X23.983 Y-64.857
X24.86 Y-65.105
X25.748 Y-65.313
X26.644 Y-65.482
X27.546 Y-65.611
X28.454 Y-65.7
X29.364 Y-65.749
X30.276 Y-65.758
X31.187 Y-65.727
X32.096 Y-65.655
X33.001 Y-65.542
X33.9 Y-65.39
X34.792 Y-65.199
X35.674 Y-64.969
X36.546 Y-64.701
X37.405 Y-64.396
X38.25 Y-64.054
X39.08 Y-63.675
X39.892 Y-63.261
X40.685 Y-62.812
X41.459 Y-62.33
X42.212 Y-61.815
X42.942 Y-61.268
X43.648 Y-60.692
X44.33 Y-60.086
X44.986 Y-59.453
X45.614 Y-58.792
X46.214 Y-58.106
X46.499 Y-57.75
X46.639 Y-57.542
X46.741 Y-57.314
X46.804 Y-57.072
X46.825 Y-56.823
Y-52.506
G3 X46.377 Y-51.921 I-0.635 J-0.022
G1 X46.283 Y-51.892 Z-0.992
X46.19 Y-51.864 Z-0.969
X46.102 Y-51.836 Z-0.931
X46.021 Y-51.811 Z-0.879
X45.948 Y-51.789 Z-0.814
X45.887 Y-51.77 Z-0.738
X45.837 Y-51.755 Z-0.653
X45.8 Y-51.744 Z-0.561
X45.778 Y-51.737 Z-0.464
X45.771 Y-51.734 Z-0.365
G0 Z5
X27.574 Y-28.721
Z0.27
G1 Z-0.365 F1000
X27.567 Y-28.717 Z-0.464
X27.547 Y-28.705 Z-0.561
X27.514 Y-28.685 Z-0.653
X27.47 Y-28.659 Z-0.738
X27.414 Y-28.626 Z-0.814
X27.349 Y-28.587 Z-0.879
X27.276 Y-28.544 Z-0.931
X27.197 Y-28.497 Z-0.969
X27.113 Y-28.447 Z-0.992
X27.028 Y-28.396 Z-1
G3 X26.274 Y-28.175 I-0.809 J-1.36
G1 X21.1
X20.687 Y-28.196
X20.246 Y-28.253
X19.773 Y-28.355
X19.211 Y-28.523
X18.598 Y-28.762
X17.918 Y-29.092
X17.16 Y-29.538
X16.413 Y-30.062
X15.707 Y-30.639
X15.039 Y-31.259
X14.407 Y-31.917
X13.811 Y-32.607
X13.487 Y-33.025
X13.316 Y-33.302
X13.211 Y-33.61
X13.175 Y-33.934
Y-38.549
G3 X14.318 Y-38.908 I0.635 J0.022
G1 X21.586 Y-29.19
G3 X21.1 Y-28.175 I-0.509 J0.38
G1 X18.409
X18.202 Y-28.177
X17.581 Y-28.197
X17.374 Y-28.218
X16.96 Y-28.265
X16.65 Y-28.3
X16.546 Y-28.325
X15.849 Y-28.569
X15.719 Y-28.615
X15.512 Y-28.733
X14.891 Y-29.123
X14.808 Y-29.19
X14.27 Y-29.727
X14.186 Y-29.811
X14.149 Y-29.855
X14.118 Y-29.899
X13.783 Y-30.432
X13.654 Y-30.639
X13.649 Y-30.648
X13.57 Y-30.846
X13.352 Y-31.468
X13.318 Y-31.571
X13.297 Y-31.675
X13.18 Y-32.71
X13.177 Y-32.917
X13.175 Y-33.745
Y-33.934
G3 X13.623 Y-34.518 I0.635 J0.022
G1 X13.717 Y-34.548 Z-0.992
X13.81 Y-34.576 Z-0.969
X13.898 Y-34.603 Z-0.931
X13.979 Y-34.628 Z-0.879
X14.052 Y-34.651 Z-0.814
X14.113 Y-34.67 Z-0.738
X14.163 Y-34.685 Z-0.653
X14.2 Y-34.696 Z-0.561
X14.222 Y-34.703 Z-0.464
X14.229 Y-34.706 Z-0.365
G0 Z5
X13.721 Y-53.153
Z0.27
G1 Z-0.365 F1000
X13.717 Y-53.159 Z-0.464
X13.705 Y-53.179 Z-0.561
X13.685 Y-53.212 Z-0.653
X13.659 Y-53.257 Z-0.738
X13.626 Y-53.312 Z-0.814
X13.587 Y-53.378 Z-0.879
X13.544 Y-53.451 Z-0.931
X13.497 Y-53.53 Z-0.969
X13.447 Y-53.613 Z-0.992
X13.396 Y-53.698 Z-1
G3 X13.175 Y-54.452 I1.36 J-0.809
G1 Y-57.972
X13.191 Y-58.294
X13.236 Y-58.638
X13.315 Y-59.004
X13.445 Y-59.439
X13.622 Y-59.894
X13.878 Y-60.421
X14.219 Y-61
X14.656 Y-61.622
X15.227 Y-62.31
X15.864 Y-62.963
X16.544 Y-63.57
X17.261 Y-64.133
X18.007 Y-64.657
X18.779 Y-65.143
X19.573 Y-65.591
X20.386 Y-66.003
X21.217 Y-66.379
X22.064 Y-66.718
X22.924 Y-67.02
X23.796 Y-67.287
X24.678 Y-67.518
X25.569 Y-67.713
X26.466 Y-67.873
X27.37 Y-67.997
X28.277 Y-68.085
X29.188 Y-68.138
X30.099 Y-68.153
X31.011 Y-68.131
X31.921 Y-68.073
X32.828 Y-67.979
X33.73 Y-67.85
X34.627 Y-67.685
X35.517 Y-67.486
X36.398 Y-67.252
X37.27 Y-66.985
X38.131 Y-66.683
X38.978 Y-66.348
X39.812 Y-65.979
X40.631 Y-65.578
X41.434 Y-65.146
X42.22 Y-64.683
X42.988 Y-64.191
X43.736 Y-63.67
X44.464 Y-63.122
X45.171 Y-62.546
X45.856 Y-61.944
X46.364 Y-61.46
X46.56 Y-61.233
X46.705 Y-60.971
X46.795 Y-60.685
X46.825 Y-60.387
Y-56.823
G3 X46.377 Y-56.238 I-0.635 J-0.022
G1 X46.283 Y-56.209 Z-0.992
X46.19 Y-56.18 Z-0.969
X46.102 Y-56.153 Z-0.931
X46.021 Y-56.128 Z-0.879
X45.948 Y-56.106 Z-0.814
X45.887 Y-56.087 Z-0.738
X45.837 Y-56.072 Z-0.653
X45.8 Y-56.06 Z-0.561
X45.778 Y-56.054 Z-0.464
X45.771 Y-56.051 Z-0.365
G0 Z5
X13.721 Y-56.673
Z0.27
G1 Z-0.365 F1000
X13.717 Y-56.679 Z-0.464
X13.705 Y-56.699 Z-0.561
X13.685 Y-56.732 Z-0.653
X13.659 Y-56.777 Z-0.738
X13.626 Y-56.833 Z-0.814
X13.587 Y-56.898 Z-0.879
X13.544 Y-56.971 Z-0.931
X13.497 Y-57.05 Z-0.969
X13.447 Y-57.133 Z-0.992
X13.396 Y-57.219 Z-1
G3 X13.175 Y-57.972 I1.36 J-0.809
G1 Y-61.078
X13.19 Y-61.371
X13.228 Y-61.664
X13.303 Y-62.014
X13.413 Y-62.381
X13.577 Y-62.803
X13.797 Y-63.256
X14.102 Y-63.774
X14.481 Y-64.313
X14.979 Y-64.914
X15.616 Y-65.567
X16.303 Y-66.166
X17.029 Y-66.718
X17.786 Y-67.226
X18.57 Y-67.693
X19.374 Y-68.121
X20.198 Y-68.512
X21.038 Y-68.867
X21.892 Y-69.187
X22.758 Y-69.471
X23.635 Y-69.723
X24.52 Y-69.941
X25.413 Y-70.126
X26.312 Y-70.278
X27.216 Y-70.397
X28.124 Y-70.484
X29.034 Y-70.538
X29.945 Y-70.558
X30.857 Y-70.544
X31.768 Y-70.498
X32.676 Y-70.418
X33.581 Y-70.306
X34.481 Y-70.163
X35.376 Y-69.987
X36.264 Y-69.78
X37.145 Y-69.543
X38.016 Y-69.274
X38.877 Y-68.975
X39.727 Y-68.644
X40.565 Y-68.284
X41.389 Y-67.894
X42.199 Y-67.475
X42.994 Y-67.028
X43.773 Y-66.554
X44.535 Y-66.054
X45.279 Y-65.528
X46.006 Y-64.976
X46.286 Y-64.745
X46.513 Y-64.511
X46.684 Y-64.234
X46.789 Y-63.926
X46.825 Y-63.602
Y-60.387
G3 X46.377 Y-59.802 I-0.635 J-0.022
G1 X46.283 Y-59.773 Z-0.992
X46.19 Y-59.744 Z-0.969
X46.102 Y-59.717 Z-0.931
X46.021 Y-59.692 Z-0.879
X45.948 Y-59.67 Z-0.814
X45.887 Y-59.651 Z-0.738
X45.837 Y-59.635 Z-0.653
X45.8 Y-59.624 Z-0.561
X45.778 Y-59.617 Z-0.464
X45.771 Y-59.615 Z-0.365
G0 Z5
X13.721 Y-59.779
Z0.27
G1 Z-0.365 F1000
X13.717 Y-59.785 Z-0.464
X13.705 Y-59.805 Z-0.561
X13.685 Y-59.838 Z-0.653
X13.659 Y-59.883 Z-0.738
X13.626 Y-59.939 Z-0.814
X13.587 Y-60.004 Z-0.879
X13.544 Y-60.077 Z-0.931
X13.497 Y-60.156 Z-0.969
X13.447 Y-60.239 Z-0.992
X13.396 Y-60.325 Z-1
G3 X13.175 Y-61.078 I1.36 J-0.809
G1 Y-63.977
X13.187 Y-64.226
X13.226 Y-64.519
X13.295 Y-64.841
X13.398 Y-65.184
X13.554 Y-65.586
X13.753 Y-65.997
X14.033 Y-66.472
X14.385 Y-66.973
X14.838 Y-67.519
X15.42 Y-68.115
X16.107 Y-68.715
X16.837 Y-69.261
X17.601 Y-69.759
X18.391 Y-70.214
X19.203 Y-70.629
X20.034 Y-71.005
X20.88 Y-71.344
X21.739 Y-71.649
X22.086 Y-71.758
X22.23 Y-71.795
X22.378 Y-71.817
X22.527 Y-71.825
X35.381
X36.292 Y-71.779
X37.187 Y-71.7
X38.086 Y-71.547
X38.973 Y-71.335
X39.847 Y-71.074
X40.707 Y-70.771
X41.553 Y-70.431
X42.385 Y-70.058
X43.202 Y-69.653
X44.004 Y-69.22
X44.79 Y-68.758
X45.561 Y-68.271
X46.181 Y-67.845
X46.4 Y-67.661
X46.58 Y-67.439
X46.714 Y-67.186
X46.796 Y-66.911
X46.825 Y-66.626
Y-63.602
G3 X45.826 Y-63.104 I-0.635 J-0.022
G1 X35.039 Y-70.671
G3 X35.381 Y-71.825 I0.365 J-0.52
G1 X41.591
X42.437 Y-71.773
X43.006 Y-71.691
X43.686 Y-71.537
X44.244 Y-71.363
X44.364 Y-71.32
X44.479 Y-71.267
X44.59 Y-71.203
G3 X44.112 Y-70.055 I-0.356 J0.526
G1 X41.491 Y-70.567
G3 X41.591 Y-71.825 I0.122 J-0.623
G1 X41.798 Y-71.823
X42.419 Y-71.803
X42.626 Y-71.782
X43.247 Y-71.712
X43.35 Y-71.7
X43.454 Y-71.675
X44.151 Y-71.431
X44.281 Y-71.385
X44.488 Y-71.267
X45.109 Y-70.877
X45.192 Y-70.81
X45.73 Y-70.273
X45.814 Y-70.189
X45.851 Y-70.145
X45.882 Y-70.101
X46.217 Y-69.568
X46.346 Y-69.361
X46.351 Y-69.352
X46.43 Y-69.154
X46.648 Y-68.532
X46.682 Y-68.429
X46.703 Y-68.325
X46.82 Y-67.29
X46.823 Y-67.083
X46.825 Y-66.626
G3 X46.378 Y-66.041 I-0.635 J-0.021
G1 X46.283 Y-66.012 Z-0.992
X46.191 Y-65.983 Z-0.969
X46.103 Y-65.956 Z-0.931
X46.022 Y-65.93 Z-0.879
X45.949 Y-65.908 Z-0.814
X45.888 Y-65.889 Z-0.738
X45.838 Y-65.873 Z-0.653
X45.801 Y-65.862 Z-0.561
X45.779 Y-65.855 Z-0.464
X45.772 Y-65.853 Z-0.365
G0 Z5
X13.721 Y-62.678
Z0.27
G1 Z-0.365 F1000
X13.717 Y-62.684 Z-0.464
X13.705 Y-62.704 Z-0.561
X13.685 Y-62.737 Z-0.653
X13.659 Y-62.782 Z-0.738
X13.626 Y-62.837 Z-0.814
X13.587 Y-62.903 Z-0.879
X13.544 Y-62.976 Z-0.931
X13.497 Y-63.055 Z-0.969
X13.447 Y-63.138 Z-0.992
X13.396 Y-63.223 Z-1
G3 X13.175 Y-63.977 I1.36 J-0.809
G1 Y-66.669
X13.192 Y-66.99
X13.231 Y-67.277
X13.294 Y-67.569
X13.399 Y-67.915
X13.544 Y-68.284
X13.742 Y-68.689
X14.004 Y-69.13
X14.347 Y-69.616
X14.77 Y-70.122
X15.317 Y-70.68
X16.006 Y-71.276
X16.251 Y-71.457
X16.471 Y-71.591
X16.711 Y-71.685
X16.963 Y-71.736
G3 X17.526 Y-70.73 I0.049 J0.633
G1 X14.324 Y-66.317
G3 X13.175 Y-66.669 I-0.514 J-0.373
G1 X13.177 Y-67.083
X13.18 Y-67.29
X13.297 Y-68.325
X13.318 Y-68.429
X13.352 Y-68.532
X13.57 Y-69.154
X13.649 Y-69.352
X13.654 Y-69.361
X13.856 Y-69.684
X14.118 Y-70.101
X14.149 Y-70.145
X14.186 Y-70.189
X14.684 Y-70.687
X14.808 Y-70.81
X14.891 Y-70.877
X15.512 Y-71.267
X15.719 Y-71.385
X15.925 Y-71.458
X16.546 Y-71.675
X16.65 Y-71.7
X16.96 Y-71.735
X17.374 Y-71.782
X17.581 Y-71.803
X18.202 Y-71.823
X18.409 Y-71.825
X22.527
G3 X23.112 Y-71.377 I-0.022 J0.635
G1 X23.141 Y-71.283 Z-0.992
X23.17 Y-71.19 Z-0.969
X23.197 Y-71.102 Z-0.931
X23.222 Y-71.021 Z-0.879
X23.244 Y-70.948 Z-0.814
X23.263 Y-70.887 Z-0.738
X23.279 Y-70.837 Z-0.653
X23.29 Y-70.8 Z-0.561
X23.297 Y-70.778 Z-0.464
X23.299 Y-70.771 Z-0.365
G0 Z15
M9
G28 G91 Z0
G90
G28 G91 X0 Y0
G90
M5
M30
