(plastic_sheild_design_outline_01)
(T4 D=3.175 CR=0 - ZMIN=-8 - flat end mill)
G90 G94
G17
G21
G28 G91 Z0
G90

(2D Contour2)
T4
S18000 M3
G17 G90 G94
G54
G0 X9.682 Y2.54
Z15
G0 Z5
G1 Z0.635 F25
Z-7.683
G19 G2 Y2.223 Z-8 J-0.317 K0 F100
G1 Y1.905
G17 G3 X10 Y1.587 I0.318 J0
G1 X310.067 F75
G2 X321.655 Y-10 I0 J-11.587
G1 Y-80.048
G2 X310.067 Y-91.636 I-11.588 J0
G1 X10
G2 X-1.587 Y-80.048 I0 J11.588
G1 Y-10
G2 X10 Y1.587 I11.587 J0
G3 X10.318 Y1.905 I0 J0.317
G1 Y2.223
G19 G3 Y2.54 Z-7.683 J0 K0.318
G0 Z15
G17

G28 G91 Z0
G90
G28 G91 X0 Y0
G90
M5
M30
