(plasticAdapter_cutting01)
(T8 D=6.35 CR=0 - ZMIN=-7 - flat end mill)
G90 G94
G17
G21
G28 G91 Z0
G90

(2D Contour1)
T8
S18000 M3
G17 G90 G94
G54
G0 X189.92 Y-105.77
Z15
G0 Z5
G1 Z1 F25
Z-6.365
G18 G2 X190.555 Z-7 I0.635 K0 F75
G1 X191.19
G17 G3 X191.825 Y-105.135 I0 J0.635
G1 Y-68.135
G3 X187 Y-63.31 I-4.825 J0
G1 X183
G3 X178.175 Y-68.135 I0 J-4.825
G1 Y-107.135
G3 X183 Y-111.96 I4.825 J0
G1 X187
G3 X191.825 Y-107.135 I0 J4.825
G1 Y-105.135
G3 X191.19 Y-104.5 I-0.635 J0
G1 X190.555
G18 G3 X189.92 Z-6.365 I0 K0.635
G0 Z5
X229.92 Y-65.77
G1 Z1 F25
Z-6.365
G2 X230.555 Z-7 I0.635 K0 F75
G1 X231.19
G17 G3 X231.825 Y-65.135 I0 J0.635
G1 Y-63.135
G3 X227 Y-58.31 I-4.825 J0
G1 X223
G3 X218.175 Y-63.135 I0 J-4.825
G1 Y-112.135
G3 X223 Y-116.96 I4.825 J0
G1 X227
G3 X231.825 Y-112.135 I0 J4.825
G1 Y-65.135
G3 X231.19 Y-64.5 I-0.635 J0
G1 X230.555
G18 G3 X229.92 Z-6.365 I0 K0.635
G0 Z5
X269.92 Y-115.77
G1 Z1 F25
Z-6.365
G2 X270.555 Z-7 I0.635 K0 F75
G1 X271.19
G17 G3 X271.825 Y-115.135 I0 J0.635
G1 Y-58.135
G3 X267 Y-53.31 I-4.825 J0
G1 X263
G3 X258.175 Y-58.135 I0 J-4.825
G1 Y-117.135
G3 X263 Y-121.96 I4.825 J0
G1 X267
G3 X271.825 Y-117.135 I0 J4.825
G1 Y-115.135
G3 X271.19 Y-114.5 I-0.635 J0
G1 X270.555
G18 G3 X269.92 Z-6.365 I0 K0.635
G0 Z5
X149.92 Y-75.77
G1 Z1 F25
Z-6.365
G2 X150.555 Z-7 I0.635 K0 F75
G1 X151.19
G17 G3 X151.825 Y-75.135 I0 J0.635
G1 Y-73.135
G3 X147 Y-68.31 I-4.825 J0
G1 X143
G3 X138.175 Y-73.135 I0 J-4.825
G1 Y-102.135
G3 X143 Y-106.96 I4.825 J0
G1 X147
G3 X151.825 Y-102.135 I0 J4.825
G1 Y-75.135
G3 X151.19 Y-74.5 I-0.635 J0
G1 X150.555
G18 G3 X149.92 Z-6.365 I0 K0.635
G0 Z5
X109.92 Y-95.77
G1 Z1 F25
Z-6.365
G2 X110.555 Z-7 I0.635 K0 F75
G1 X111.19
G17 G3 X111.825 Y-95.135 I0 J0.635
G1 Y-78.135
G3 X107 Y-73.31 I-4.825 J0
G1 X103
G3 X98.175 Y-78.135 I0 J-4.825
G1 Y-97.135
G3 X103 Y-101.96 I4.825 J0
G1 X107
G3 X111.825 Y-97.135 I0 J4.825
G1 Y-95.135
G3 X111.19 Y-94.5 I-0.635 J0
G1 X110.555
G18 G3 X109.92 Z-6.365 I0 K0.635
G0 Z5
X69.92 Y-90.77
G1 Z1 F25
Z-6.365
G2 X70.555 Z-7 I0.635 K0 F75
G1 X71.19
G17 G3 X71.825 Y-90.135 I0 J0.635
G1 Y-83.135
G3 X67 Y-78.31 I-4.825 J0
G1 X63
G3 X58.175 Y-83.135 I0 J-4.825
G1 Y-92.135
G3 X63 Y-96.96 I4.825 J0
G1 X67
G3 X71.825 Y-92.135 I0 J4.825
G1 Y-90.135
G3 X71.19 Y-89.5 I-0.635 J0
G1 X70.555
G18 G3 X69.92 Z-6.365 I0 K0.635
G0 Z15
G17
G28 G91 Z0
G90
G28 G91 X0 Y0
G90
M5
M30
