(plasticAdapter_pocketing01)
(T8 D=6.35 CR=0 - ZMIN=-3 - flat end mill)
G90 G94
G17
G21
G28 G91 Z0
G90

(2D Adaptive2)
T8
S18000 M3
G17 G90 G94
G54
G0 X268.663 Y-27.7
Z15
G0 Z5
Z2.55
G3 X268.143 Y-22.681 Z2.344 I-2.068 J2.322 F166.7
X263.552 Y-24.76 Z2.139 I-1.546 J-2.694
X266.974 Y-28.453 Z1.933 I3.041 J-0.613
X269.39 Y-24.043 Z1.728 I-0.38 J3.075
X264.448 Y-23.148 Z1.522 I-2.794 J-1.333
X265.163 Y-28.114 Z1.317 I2.146 J-2.225
X269.641 Y-25.866 Z1.111 I1.43 J2.737
X266.096 Y-22.333 Z0.906 I-3.046 J0.489
X263.87 Y-26.81 Z0.7 I0.5 J-3.04
X268.815 Y-27.503 Z0.494 I2.722 J1.435
X267.908 Y-22.599 Z0.289 I-2.22 J2.126
X263.548 Y-25.009 Z0.083 I-1.312 J-2.776
X267.21 Y-28.378 Z-0.122 I3.045 J-0.365
X269.244 Y-23.843 Z-0.328 I-0.617 J3
X264.304 Y-23.35 Z-0.533 I-2.648 J-1.533
X265.399 Y-28.186 Z-0.739 I2.29 J-2.024
X269.635 Y-25.619 Z-0.944 I1.193 J2.809
X265.864 Y-22.418 Z-1.15 I-3.039 J0.242
X264.023 Y-27.003 Z-1.356 I0.731 J-2.956
X268.949 Y-27.297 Z-1.561 I2.569 J1.628
X267.671 Y-22.537 Z-1.767 I-2.354 J1.92
X263.564 Y-25.254 Z-1.972 I-1.074 J-2.838
X267.437 Y-28.285 Z-2.178 I3.028 J-0.121
X269.084 Y-23.657 Z-2.383 I-0.843 J2.907
X264.179 Y-23.56 Z-2.589 I-2.488 J-1.718
X265.638 Y-28.238 Z-2.794 I2.415 J-1.814
X269.609 Y-25.377 Z-3 I0.955 J2.861
X263.576 Y-25.377 I-3.016 J0
X269.609 Y-25.377 I3.016 J0
G1 X269.613 Y-25.149 F500
X269.768 Y-24.25
X269.822 Y-24.11
X269.859 Y-23.965
X269.882 Y-23.817
X269.891 Y-23.667
X269.888 Y-23.509
X269.871 Y-23.34
X269.838 Y-23.161
X269.788 Y-22.974
X269.719 Y-22.781
X269.631 Y-22.583
X269.521 Y-22.384
X269.39 Y-22.184
X269.236 Y-21.987
X269.06 Y-21.796
X268.861 Y-21.612
X268.641 Y-21.439
X268.399 Y-21.278
X268.138 Y-21.134
X267.859 Y-21.007
X267.563 Y-20.901
X267.253 Y-20.816
X266.93 Y-20.756
X266.597 Y-20.721
X266.256 Y-20.713
X265.911 Y-20.733
X265.564 Y-20.78
X265.218 Y-20.857
X264.876 Y-20.962
X264.539 Y-21.095
X264.212 Y-21.257
X263.897 Y-21.445
X263.595 Y-21.66
X263.31 Y-21.899
X263.044 Y-22.162
X262.799 Y-22.447
X262.577 Y-22.752
X262.379 Y-23.074
X262.207 Y-23.413
X262.062 Y-23.765
X261.946 Y-24.129
X261.859 Y-24.501
X261.802 Y-24.88
X261.776 Y-25.263
X261.781 Y-25.648
X261.817 Y-26.031
X261.883 Y-26.41
X261.979 Y-26.783
X262.106 Y-27.148
X262.261 Y-27.501
X262.444 Y-27.842
X262.654 Y-28.166
X262.89 Y-28.473
X263.149 Y-28.76
X263.431 Y-29.025
X263.733 Y-29.267
X264.054 Y-29.484
X264.392 Y-29.674
X264.743 Y-29.837
X265.107 Y-29.971
X265.48 Y-30.076
X265.86 Y-30.15
X266.245 Y-30.194
X266.633 Y-30.206
X267.02 Y-30.187
X267.405 Y-30.138
X267.784 Y-30.057
X268.156 Y-29.947
X268.517 Y-29.806
X268.867 Y-29.638
X269.201 Y-29.442
X269.519 Y-29.219
X269.818 Y-28.972
X270.096 Y-28.702
X270.352 Y-28.41
X270.583 Y-28.098
X270.823 Y-27.714
X271.228 Y-26.933
X271.49 Y-26.308
X271.667 Y-25.771
X271.784 Y-25.284
X271.858 Y-24.82
X271.892 Y-24.369
X271.891 Y-23.934
X271.855 Y-23.509
X271.786 Y-23.094
X271.684 Y-22.689
X271.551 Y-22.293
X271.386 Y-21.908
X271.189 Y-21.535
X270.961 Y-21.177
X270.703 Y-20.835
X270.415 Y-20.512
X270.099 Y-20.209
X269.755 Y-19.929
X269.384 Y-19.674
X268.989 Y-19.447
X268.571 Y-19.249
X268.133 Y-19.083
X267.676 Y-18.951
X267.205 Y-18.855
X266.722 Y-18.796
X266.231 Y-18.776
X265.734 Y-18.796
X265.236 Y-18.857
X264.74 Y-18.957
X264.25 Y-19.099
X263.77 Y-19.28
X263.302 Y-19.502
X262.851 Y-19.761
X262.42 Y-20.058
X262.012 Y-20.39
X261.63 Y-20.755
X261.277 Y-21.152
X260.955 Y-21.577
X260.668 Y-22.029
X260.417 Y-22.503
X260.204 Y-22.998
X260.032 Y-23.51
X259.9 Y-24.035
X259.811 Y-24.57
X259.765 Y-25.111
X259.763 Y-25.655
X259.804 Y-26.199
X259.889 Y-26.738
X260.017 Y-27.269
X260.188 Y-27.788
X260.4 Y-28.293
X260.652 Y-28.779
X260.942 Y-29.244
X261.269 Y-29.685
X261.63 Y-30.097
X262.023 Y-30.48
X262.446 Y-30.83
X262.896 Y-31.145
X263.37 Y-31.424
X263.865 Y-31.663
X264.378 Y-31.862
X264.905 Y-32.019
X265.443 Y-32.133
X265.988 Y-32.203
X266.538 Y-32.23
X267.087 Y-32.213
X267.634 Y-32.151
X268.174 Y-32.046
X268.704 Y-31.898
X269.221 Y-31.707
X269.72 Y-31.476
X270.2 Y-31.206
X270.656 Y-30.897
X271.096 Y-30.546
X271.574 Y-30.095
X272.028 Y-29.593
X272.455 Y-29.038
X272.841 Y-28.443
X273.172 Y-27.829
X273.446 Y-27.205
X273.664 Y-26.578
X273.826 Y-25.95
X273.936 Y-25.325
X273.994 Y-24.702
X274.002 Y-24.084
X273.96 Y-23.474
X273.871 Y-22.874
X273.734 Y-22.286
X273.551 Y-21.712
X273.323 Y-21.156
X273.05 Y-20.619
X272.735 Y-20.104
X272.378 Y-19.615
X271.98 Y-19.153
X271.544 Y-18.722
X271.072 Y-18.324
X270.565 Y-17.963
X270.026 Y-17.641
X269.458 Y-17.361
X268.865 Y-17.125
X268.25 Y-16.936
X267.616 Y-16.796
X266.968 Y-16.707
X266.311 Y-16.669
X265.648 Y-16.685
X264.983 Y-16.754
X264.323 Y-16.877
X263.67 Y-17.054
X263.029 Y-17.284
X262.406 Y-17.566
X261.804 Y-17.9
X261.229 Y-18.282
X260.683 Y-18.711
X260.171 Y-19.185
X259.697 Y-19.7
X259.264 Y-20.253
X258.876 Y-20.842
X258.535 Y-21.461
X258.245 Y-22.108
X258.006 Y-22.777
X257.822 Y-23.465
X257.693 Y-24.167
X257.621 Y-24.878
X257.606 Y-25.594
X257.649 Y-26.31
X257.749 Y-27.021
X257.906 Y-27.722
X258.119 Y-28.409
X258.387 Y-29.077
X258.707 Y-29.722
X259.079 Y-30.34
X259.499 Y-30.926
X259.965 Y-31.476
X260.474 Y-31.988
X261.023 Y-32.458
X261.608 Y-32.882
X262.225 Y-33.258
X262.871 Y-33.583
X263.54 Y-33.855
X264.23 Y-34.073
X264.934 Y-34.235
X265.65 Y-34.34
X266.372 Y-34.387
X267.095 Y-34.376
X267.816 Y-34.307
X268.528 Y-34.18
X269.228 Y-33.996
X269.911 Y-33.757
X270.576 Y-33.463
X271.237 Y-33.104
X271.887 Y-32.68
X272.52 Y-32.191
X273.127 Y-31.638
X273.697 Y-31.029
X274.22 Y-30.371
X274.689 Y-29.673
X275.099 Y-28.942
X275.446 Y-28.187
X275.729 Y-27.412
X275.947 Y-26.624
X276.1 Y-25.828
X276.188 Y-25.028
X276.211 Y-24.23
X276.17 Y-23.437
X276.066 Y-22.654
X275.9 Y-21.884
X275.674 Y-21.132
X275.388 Y-20.402
X275.045 Y-19.696
X274.645 Y-19.02
X274.192 Y-18.376
X273.686 Y-17.768
X273.131 Y-17.201
X272.529 Y-16.677
X271.884 Y-16.201
X271.199 Y-15.776
X270.478 Y-15.405
X269.724 Y-15.092
X268.944 Y-14.838
X268.921 Y-14.833
X268.756 Y-14.803
X268.589 Y-14.792
X268.421 Y-14.801
X263.487 Y-15.325
X262.782 Y-15.436
X262.234 Y-15.568
X261.644 Y-15.761
X261.046 Y-16.011
X260.449 Y-16.32
X259.84 Y-16.7
X259.233 Y-17.15
X258.643 Y-17.666
X258.079 Y-18.244
X257.552 Y-18.88
X257.07 Y-19.568
X256.639 Y-20.302
X256.265 Y-21.075
X255.95 Y-21.884
X255.7 Y-22.722
X255.517 Y-23.582
X255.403 Y-24.459
X255.359 Y-25.347
X255.387 Y-26.237
X255.487 Y-27.125
X255.658 Y-28.004
X255.899 Y-28.869
X256.209 Y-29.712
X256.587 Y-30.528
X257.029 Y-31.313
X257.533 Y-32.06
X258.095 Y-32.764
X258.713 Y-33.421
X259.382 Y-34.027
X260.098 Y-34.578
X260.856 Y-35.07
X261.651 Y-35.499
X262.478 Y-35.863
X262.904 Y-36.011
X263.113 Y-36.067
X263.329 Y-36.092
X263.546 Y-36.085
X269.909 Y-35.409
X270.674 Y-35.288
X271.18 Y-35.167
X271.728 Y-34.987
X272.331 Y-34.734
X272.927 Y-34.426
X273.553 Y-34.036
X274.199 Y-33.557
X274.842 Y-32.994
X275.462 Y-32.358
X276.041 Y-31.659
X276.564 Y-30.913
X277.028 Y-30.127
X277.334 Y-29.502
X277.432 Y-29.243
X277.481 Y-28.97
X277.477 Y-28.693
X276.52 Y-19.681
X276.436 Y-19.149
X276.331 Y-18.712
X276.184 Y-18.266
X275.977 Y-17.771
X275.704 Y-17.244
X275.378 Y-16.72
X274.965 Y-16.163
X274.468 Y-15.594
X273.908 Y-15.049
X273.499 Y-14.71
X273.254 Y-14.546
X272.982 Y-14.433
X272.692 Y-14.376
X272.397 Y-14.378
G3 X271.858 Y-15.095 Z-2.8 I0.089 J-0.629
X271.971 Y-15.378 I0.629 J0.089
G1 X275.371 Y-20.098
G3 X275.932 Y-20.36 I0.515 J0.371
X276.52 Y-19.681 Z-3 I-0.046 J0.633
G1 X276.145 Y-16.159
X276.092 Y-15.817
X276.022 Y-15.529
X275.918 Y-15.211
X275.86 Y-15.073
X275.708 Y-14.796
X275.5 Y-14.559
X275.248 Y-14.37
X274.961 Y-14.239
X274.652 Y-14.172
X274.337
G3 X273.797 Y-14.889 Z-2.8 I0.089 J-0.629
X273.924 Y-15.189 I0.629 J0.089
G1 X275.01 Y-16.593
G3 X275.557 Y-16.838 I0.502 J0.389
X276.145 Y-16.159 Z-3 I-0.046 J0.633
G1 X275.991 Y-14.709
X275.979 Y-14.606
X275.951 Y-14.502
X275.916 Y-14.422
X275.878 Y-14.359
X275.828 Y-14.295
X275.769 Y-14.234
X275.709 Y-14.186
X275.657 Y-14.153
X275.605 Y-14.126
X275.502 Y-14.089
X275.495 Y-14.088
X275.395 Y-14.071
X275.295
X268.421 Y-14.801
G3 X267.877 Y-15.474 Z-2.809 I0.089 J-0.629
G1 X267.88 Y-15.518 Z-2.8
X269.23 Y-34.82
X269.231 Y-34.821
G3 X269.909 Y-35.409 Z-3 I0.633 J0.046
G1 X274.052 Y-34.969
X274.329 Y-34.925
X274.672 Y-34.842
X275.017 Y-34.729
X275.423 Y-34.559
X275.836 Y-34.346
X276.303 Y-34.054
X276.765 Y-33.712
X277.275 Y-33.267
X277.41 Y-33.128
X277.61 Y-32.872
X277.749 Y-32.578
X277.821 Y-32.262
X277.822 Y-31.937
G3 X277.105 Y-31.398 Z-2.8 I-0.629 J-0.089
X276.821 Y-31.512 I0.089 J-0.629
G1 X273.634 Y-33.821
G3 X273.373 Y-34.381 I0.373 J-0.514
X274.052 Y-34.969 Z-3 I0.633 J0.046
G1 X276.952 Y-34.66
X277.151 Y-34.629
X277.397 Y-34.538
X277.613 Y-34.391
X277.789 Y-34.196
X277.913 Y-33.966
X277.979 Y-33.712
X277.983 Y-33.45
G3 X277.265 Y-32.911 Z-2.8 I-0.629 J-0.089
X276.886 Y-33.11 I0.089 J-0.629
G1 X276.439 Y-33.598
G3 X276.273 Y-34.073 I0.468 J-0.429
X276.952 Y-34.66 Z-3 I0.633 J0.046
G1 X277.366 Y-34.616
X277.511 Y-34.598
X277.573 Y-34.582
X277.625 Y-34.563
X277.677 Y-34.538
X277.78 Y-34.473
X277.825 Y-34.436
X277.87 Y-34.391
X277.909 Y-34.344
X277.94 Y-34.297
X277.988 Y-34.203
X277.995 Y-34.184
X278.023 Y-34.08
X278.034 Y-33.976
X278.017 Y-33.769
X277.477 Y-28.693
G3 X277.289 Y-28.325 Z-2.915 I-0.629 J-0.089
G1 X277.038 Y-28.083 Z-2.846
X276.874 Y-27.926 Z-2.8
X264.308 Y-15.823
X264.145 Y-15.666 Z-2.846
X263.973 Y-15.501 Z-2.893
G3 X263.487 Y-15.325 Z-3 I-0.44 J-0.457
G1 X259.532 Y-15.745
X259.077 Y-15.817
X258.755 Y-15.894
X258.414 Y-16.006
X258.024 Y-16.169
X257.633 Y-16.371
X257.193 Y-16.646
X256.75 Y-16.974
X256.288 Y-17.378
X255.802 Y-17.877
X255.344 Y-18.429
X254.896 Y-19.069
X254.466 Y-19.801
X254.072 Y-20.614
X253.742 Y-21.464
X253.479 Y-22.336
X253.282 Y-23.227
X253.152 Y-24.129
X253.087 Y-25.039
Y-25.951
X253.149 Y-26.86
X253.273 Y-27.764
X253.458 Y-28.657
X253.704 Y-29.534
X254.011 Y-30.393
X254.376 Y-31.229
X254.796 Y-32.038
X255.268 Y-32.818
X255.792 Y-33.565
X256.365 Y-34.274
X256.986 Y-34.941
X257.651 Y-35.565
X258.356 Y-36.144
X258.498 Y-36.245
X258.73 Y-36.381
X258.982 Y-36.473
X259.247 Y-36.517
X259.516 Y-36.513
X263.546 Y-36.085
G3 X264.086 Y-35.367 Z-2.8 I-0.089 J0.629
G1 X264.08 Y-35.329
X260.216 Y-16.332
X260.199 Y-16.252 Z-2.816
X260.181 Y-16.182 Z-2.831
X260.154 Y-16.114 Z-2.846
G3 X259.532 Y-15.745 Z-3 I-0.577 J-0.264
G1 X256.444 Y-16.073
X256.226 Y-16.107
X255.947 Y-16.175
X255.665 Y-16.267
X255.334 Y-16.405
X255.003 Y-16.577
X254.629 Y-16.81
X254.251 Y-17.09
X253.836 Y-17.453
X253.434 Y-17.866
X253.001 Y-18.388
X252.586 Y-18.981
X252.188 Y-19.658
X251.809 Y-20.442
X251.478 Y-21.292
X251.215 Y-22.165
X251.015 Y-23.054
X250.876 Y-23.955
X250.798 Y-24.864
X250.778 Y-25.775
X250.814 Y-26.686
X250.906 Y-27.594
X251.05 Y-28.494
X251.248 Y-29.384
X251.497 Y-30.261
X251.799 Y-31.121
X252.152 Y-31.962
X252.552 Y-32.782
X252.998 Y-33.577
X253.489 Y-34.345
X254.023 Y-35.085
X254.599 Y-35.791
X255.135 Y-36.375
X255.34 Y-36.56
X255.576 Y-36.704
X255.834 Y-36.802
X256.106 Y-36.849
X256.383 Y-36.846
X259.516 Y-36.513
G3 X260.056 Y-35.796 Z-2.8 I-0.089 J0.629
G1 X260.054 Y-35.788
X257.125 Y-16.661
X257.117 Y-16.61 Z-2.81
X257.098 Y-16.525 Z-2.828
X257.067 Y-16.442 Z-2.846
G3 X256.444 Y-16.073 Z-3 I-0.577 J-0.264
G1 X253.959 Y-16.337
X253.621 Y-16.39
X253.382 Y-16.448
X253.102 Y-16.54
X252.813 Y-16.66
X252.495 Y-16.825
X252.157 Y-17.036
X251.804 Y-17.298
X251.428 Y-17.626
X251.043 Y-18.021
X250.655 Y-18.49
X250.25 Y-19.068
X249.872 Y-19.711
X249.509 Y-20.462
X249.178 Y-21.311
X248.916 Y-22.185
X248.717 Y-23.075
X248.577 Y-23.976
X248.492 Y-24.883
X248.462 Y-25.795
X248.484 Y-26.706
X248.557 Y-27.615
X248.679 Y-28.519
X248.849 Y-29.415
X249.066 Y-30.3
X249.328 Y-31.174
X249.633 Y-32.033
X249.983 Y-32.875
X250.376 Y-33.698
X250.81 Y-34.5
X251.284 Y-35.279
X251.797 Y-36.033
X252.271 Y-36.653
X252.283 Y-36.666
X252.488 Y-36.855
X252.726 Y-37.002
X252.986 Y-37.102
X253.261 Y-37.151
X253.54 Y-37.148
X256.383 Y-36.846
G3 X256.924 Y-36.142 Z-2.803 I-0.089 J0.629
G1 X256.922 Y-36.129 Z-2.8
X254.638 Y-16.925
X254.634 Y-16.896 Z-2.806
G3 X253.959 Y-16.337 Z-3 I-0.631 J-0.075
G1 X251.473 Y-16.601
X251.163 Y-16.65
X250.925 Y-16.707
X250.655 Y-16.796
X250.382 Y-16.91
X250.065 Y-17.074
X249.754 Y-17.268
X249.401 Y-17.53
X249.056 Y-17.831
X248.672 Y-18.226
X248.309 Y-18.664
X247.922 Y-19.215
X247.546 Y-19.855
X247.195 Y-20.582
X246.864 Y-21.432
X246.603 Y-22.305
X246.404 Y-23.195
X246.263 Y-24.096
X246.176 Y-25.004
X246.139 Y-25.915
X246.152 Y-26.826
X246.212 Y-27.736
X246.318 Y-28.642
X246.469 Y-29.541
X246.662 Y-30.432
X246.896 Y-31.314
X247.17 Y-32.183
X247.484 Y-33.039
X247.836 Y-33.88
X248.226 Y-34.704
X248.654 Y-35.51
X249.119 Y-36.294
X249.495 Y-36.838
X249.543 Y-36.898
X249.751 Y-37.106
X249.995 Y-37.268
X250.266 Y-37.38
X250.554 Y-37.436
X250.848 Y-37.434
X253.54 Y-37.148
G3 X254.083 Y-36.456 Z-2.805 I-0.089 J0.629
G1 X254.081 Y-36.431 Z-2.8
X252.152 Y-17.189
X252.15 Y-17.171 Z-2.804
G3 X251.473 Y-16.601 Z-3 I-0.632 J-0.063
G1 X248.987 Y-16.865
X248.763 Y-16.901
X248.525 Y-16.958
X248.269 Y-17.042
X247.997 Y-17.156
X247.689 Y-17.315
X247.384 Y-17.505
X247.036 Y-17.763
X246.702 Y-18.055
X246.324 Y-18.443
X245.969 Y-18.871
X245.593 Y-19.408
X245.219 Y-20.045
X244.871 Y-20.762
X244.541 Y-21.612
X244.281 Y-22.486
X244.082 Y-23.376
X243.94 Y-24.277
X243.85 Y-25.184
X243.809 Y-26.095
X243.815 Y-27.007
X243.865 Y-27.917
X243.959 Y-28.824
X244.094 Y-29.726
X244.269 Y-30.621
X244.482 Y-31.507
X244.733 Y-32.384
X245.019 Y-33.25
X245.341 Y-34.103
X245.698 Y-34.942
X246.089 Y-35.766
X246.504 Y-36.537
X246.834 Y-37.049
X246.904 Y-37.14
X247.112 Y-37.36
X247.36 Y-37.533
X247.638 Y-37.652
X247.934 Y-37.713
X248.236 Y-37.711
X250.848 Y-37.434
G3 X251.391 Y-36.749 Z-2.806 I-0.089 J0.629
G1 X251.388 Y-36.717 Z-2.8
X249.666 Y-17.453
X249.665 Y-17.442 Z-2.802
G3 X248.987 Y-16.865 Z-3 I-0.632 J-0.057
G1 X246.709 Y-17.107
X246.389 Y-17.158
X246.151 Y-17.215
X245.903 Y-17.296
X245.631 Y-17.41
X245.331 Y-17.565
X245.027 Y-17.755
X244.686 Y-18.008
X244.355 Y-18.298
X243.983 Y-18.679
X243.631 Y-19.104
X243.261 Y-19.632
X242.889 Y-20.266
X242.543 Y-20.981
X242.213 Y-21.829
X241.952 Y-22.703
X241.753 Y-23.593
X241.61 Y-24.493
X241.518 Y-25.4
X241.473 Y-26.311
Y-27.223
X241.515 Y-28.134
X241.598 Y-29.042
X241.72 Y-29.945
X241.88 Y-30.843
X242.076 Y-31.734
X242.307 Y-32.616
X242.572 Y-33.488
X242.87 Y-34.35
X243.2 Y-35.2
X243.566 Y-36.035
X243.931 Y-36.757
X244.237 Y-37.256
X244.328 Y-37.382
X244.535 Y-37.612
X244.786 Y-37.793
X245.069 Y-37.919
X245.372 Y-37.983
X245.682
X248.236 Y-37.711
G3 X248.781 Y-37.037 Z-2.809 I-0.089 J0.629
G1 X248.778 Y-36.994 Z-2.8
X247.387 Y-17.695
G3 X246.709 Y-17.107 Z-3 I-0.633 J-0.046
G1 X244.223 Y-17.372
X244.044 Y-17.4
X243.806 Y-17.457
X243.561 Y-17.537
X243.289 Y-17.651
X242.992 Y-17.805
X242.688 Y-17.995
X242.35 Y-18.245
X242.018 Y-18.535
X241.649 Y-18.914
X241.297 Y-19.339
X240.929 Y-19.864
X240.557 Y-20.497
X240.21 Y-21.214
X239.88 Y-22.064
X239.619 Y-22.937
X239.419 Y-23.827
X239.274 Y-24.727
X239.179 Y-25.634
X239.131 Y-26.545
X239.125 Y-27.456
X239.16 Y-28.368
X239.234 Y-29.276
X239.344 Y-30.181
X239.491 Y-31.081
X239.672 Y-31.975
X239.887 Y-32.861
X240.133 Y-33.739
X240.411 Y-34.608
X240.722 Y-35.465
X241.071 Y-36.307
X241.407 Y-36.999
X241.698 Y-37.49
X241.797 Y-37.631
X242.004 Y-37.867
X242.257 Y-38.054
X242.543 Y-38.184
X242.85 Y-38.25
X243.165
X245.682 Y-37.983
G3 X246.227 Y-37.311 Z-2.809 I-0.089 J0.629
G1 X246.223 Y-37.265 Z-2.8
X244.901 Y-17.962
Y-17.959
G3 X244.223 Y-17.372 Z-3 I-0.633 J-0.046
G1 X241.983 Y-17.61
X241.696 Y-17.655
X241.459 Y-17.712
X241.216 Y-17.791
X240.944 Y-17.905
X240.65 Y-18.057
X240.346 Y-18.247
X240.01 Y-18.496
X239.679 Y-18.785
X239.312 Y-19.162
X238.96 Y-19.587
X238.593 Y-20.111
X238.221 Y-20.744
X237.872 Y-21.465
X237.542 Y-22.314
X237.281 Y-23.188
X237.08 Y-24.077
X236.933 Y-24.977
X236.835 Y-25.884
X236.783 Y-26.794
X236.772 Y-27.706
X236.8 Y-28.617
X236.866 Y-29.527
X236.967 Y-30.433
X237.102 Y-31.335
X237.27 Y-32.231
X237.47 Y-33.121
X237.701 Y-34.003
X237.964 Y-34.876
X238.26 Y-35.738
X238.598 Y-36.585
X238.917 Y-37.256
X239.197 Y-37.741
X239.297 Y-37.884
X239.504 Y-38.124
X239.757 Y-38.315
X240.045 Y-38.447
X240.355 Y-38.515
X240.672
X243.165 Y-38.25
G3 X243.71 Y-37.587 Z-2.811 I-0.089 J0.629
G1 X243.707 Y-37.533 Z-2.8
X242.662 Y-18.209
X242.661 Y-18.197
G3 X241.983 Y-17.61 Z-3 I-0.633 J-0.046
G1 X239.666 Y-17.856
X239.358 Y-17.904
X239.121 Y-17.961
X238.879 Y-18.041
X238.607 Y-18.155
X238.313 Y-18.306
X238.009 Y-18.496
X237.673 Y-18.745
X237.342 Y-19.035
X236.974 Y-19.412
X236.622 Y-19.837
X236.254 Y-20.362
X235.881 Y-20.997
X235.53 Y-21.723
X235.2 Y-22.573
X234.938 Y-23.446
X234.735 Y-24.335
X234.587 Y-25.235
X234.486 Y-26.141
X234.43 Y-27.051
X234.414 Y-27.963
X234.436 Y-28.874
X234.494 Y-29.784
X234.586 Y-30.691
X234.71 Y-31.595
X234.867 Y-32.493
X235.055 Y-33.385
X235.274 Y-34.27
X235.524 Y-35.147
X235.811 Y-36.013
X236.139 Y-36.863
X236.447 Y-37.518
X236.721 Y-37.998
X236.817 Y-38.14
X237.024 Y-38.382
X237.278 Y-38.575
X237.568 Y-38.709
X237.879 Y-38.777
X238.198 Y-38.778
X240.672 Y-38.515
G3 X241.217 Y-37.858 Z-2.812 I-0.089 J0.629
G1 X241.215 Y-37.798 Z-2.8
X240.345 Y-18.461
X240.344 Y-18.444
G3 X239.666 Y-17.856 Z-3 I-0.633 J-0.046
G1 X237.18 Y-18.12
X237.027 Y-18.144
X236.79 Y-18.201
X236.546 Y-18.281
X236.274 Y-18.395
X235.979 Y-18.548
X235.675 Y-18.737
X235.337 Y-18.988
X235.005 Y-19.278
X234.636 Y-19.657
X234.283 Y-20.083
X233.913 Y-20.611
X233.538 Y-21.249
X233.183 Y-21.981
X232.853 Y-22.831
X232.59 Y-23.704
X232.387 Y-24.593
X232.236 Y-25.492
X232.132 Y-26.398
X232.072 Y-27.308
X232.051 Y-28.219
X232.067 Y-29.131
X232.117 Y-30.042
X232.201 Y-30.949
X232.317 Y-31.854
X232.463 Y-32.754
X232.641 Y-33.648
X232.849 Y-34.536
X233.091 Y-35.415
X233.368 Y-36.284
X233.691 Y-37.136
X233.99 Y-37.781
X234.259 Y-38.256
X234.353 Y-38.396
X234.56 Y-38.64
X234.815 Y-38.834
X235.105 Y-38.969
X235.417 Y-39.039
X235.737
X238.198 Y-38.778
G3 X238.743 Y-38.12 Z-2.812 I-0.089 J0.629
G1 X238.74 Y-38.061 Z-2.8
X237.859 Y-18.724
X237.858 Y-18.708
G3 X237.18 Y-18.12 Z-3 I-0.633 J-0.046
G1 X234.901 Y-18.362
X234.683 Y-18.396
X234.446 Y-18.453
X234.203 Y-18.533
X233.931 Y-18.647
X233.636 Y-18.8
X233.331 Y-18.989
X232.992 Y-19.241
X232.661 Y-19.53
X232.291 Y-19.91
X231.937 Y-20.338
X231.566 Y-20.867
X231.189 Y-21.509
X230.831 Y-22.248
X230.501 Y-23.098
X230.238 Y-23.971
X230.033 Y-24.859
X229.879 Y-25.758
X229.773 Y-26.663
X229.708 Y-27.573
X229.683 Y-28.484
X229.693 Y-29.396
X229.738 Y-30.307
X229.814 Y-31.216
X229.922 Y-32.121
X230.06 Y-33.022
X230.229 Y-33.918
X230.43 Y-34.808
X230.664 Y-35.689
X230.936 Y-36.559
X231.254 Y-37.414
X231.545 Y-38.047
X231.81 Y-38.519
X231.901 Y-38.654
X232.108 Y-38.899
X232.363 Y-39.094
X232.653 Y-39.229
X232.966 Y-39.299
X233.287 Y-39.3
X235.737 Y-39.039
G3 X236.283 Y-38.388 Z-2.813 I-0.089 J0.629
G1 X236.28 Y-38.322 Z-2.8
X235.581 Y-18.972
X235.58 Y-18.95
G3 X234.901 Y-18.362 Z-3 I-0.633 J-0.046
G1 X232.623 Y-18.604
X232.339 Y-18.649
X232.102 Y-18.706
X231.858 Y-18.786
X231.586 Y-18.9
X231.29 Y-19.053
X230.986 Y-19.242
X230.645 Y-19.495
X230.313 Y-19.785
X229.942 Y-20.166
X229.587 Y-20.595
X229.214 Y-21.127
X228.835 Y-21.772
X228.474 Y-22.518
X228.144 Y-23.368
X227.88 Y-24.24
X227.673 Y-25.129
X227.518 Y-26.027
X227.408 Y-26.932
X227.34 Y-27.842
X227.311 Y-28.753
X227.316 Y-29.665
X227.355 Y-30.576
X227.425 Y-31.485
X227.526 Y-32.391
X227.657 Y-33.293
X227.819 Y-34.191
X228.013 Y-35.081
X228.242 Y-35.964
X228.509 Y-36.836
X228.824 Y-37.692
X229.109 Y-38.314
X229.372 Y-38.783
X229.458 Y-38.912
X229.665 Y-39.157
X229.92 Y-39.353
X230.211 Y-39.488
X230.524 Y-39.558
X230.845 Y-39.559
X233.287 Y-39.3
G3 X233.833 Y-38.654 Z-2.814 I-0.089 J0.629
G1 X233.831 Y-38.582 Z-2.8
X233.302 Y-19.22
X233.301 Y-19.192
G3 X232.623 Y-18.604 Z-3 I-0.633 J-0.046
G1 X230.284 Y-18.853
X229.995 Y-18.898
X229.757 Y-18.955
X229.512 Y-19.035
X229.24 Y-19.15
X228.942 Y-19.304
X228.638 Y-19.493
X228.295 Y-19.747
X227.963 Y-20.038
X227.59 Y-20.421
X227.234 Y-20.851
X226.858 Y-21.387
X226.477 Y-22.036
X226.112 Y-22.788
X225.782 Y-23.638
X225.517 Y-24.511
X225.31 Y-25.398
X225.152 Y-26.297
X225.04 Y-27.201
X224.969 Y-28.11
X224.935 Y-29.022
X224.936 Y-29.933
X224.969 Y-30.845
X225.034 Y-31.754
X225.129 Y-32.661
X225.255 Y-33.564
X225.411 Y-34.462
X225.6 Y-35.354
X225.824 Y-36.238
X226.087 Y-37.111
X226.399 Y-37.968
X226.68 Y-38.581
X226.94 Y-39.046
X227.022 Y-39.169
X227.229 Y-39.415
X227.484 Y-39.611
X227.775 Y-39.747
X228.089 Y-39.817
X228.41 Y-39.818
X230.845 Y-39.559
G3 X231.391 Y-38.917 Z-2.815 I-0.089 J0.629
G1 X231.389 Y-38.842 Z-2.8
X230.963 Y-19.472
X230.962 Y-19.441
G3 X230.284 Y-18.853 Z-3 I-0.633 J-0.046
G1 X227.858 Y-19.11
X227.649 Y-19.143
X227.411 Y-19.2
X227.165 Y-19.281
X226.892 Y-19.395
X226.592 Y-19.551
X226.288 Y-19.74
X225.943 Y-19.996
X225.61 Y-20.287
X225.234 Y-20.673
X224.877 Y-21.104
X224.498 Y-21.644
X224.115 Y-22.297
X223.747 Y-23.057
X223.417 Y-23.907
X223.151 Y-24.779
X222.942 Y-25.667
X222.782 Y-26.564
X222.667 Y-27.469
X222.593 Y-28.378
X222.555 Y-29.289
X222.552 Y-30.2
X222.581 Y-31.112
X222.641 Y-32.022
X222.732 Y-32.929
X222.852 Y-33.833
X223.003 Y-34.732
X223.188 Y-35.625
X223.408 Y-36.51
X223.668 Y-37.384
X223.974 Y-38.23
X224.251 Y-38.837
X224.509 Y-39.301
X224.592 Y-39.425
X224.798 Y-39.672
X225.053 Y-39.868
X225.345 Y-40.005
X225.659 Y-40.075
X225.981 Y-40.076
X228.41 Y-39.818
G3 X228.956 Y-39.176 Z-2.815 I-0.089 J0.629
G1 X228.954 Y-39.1 Z-2.8
X228.538 Y-19.73
X228.537 Y-19.698
G3 X227.858 Y-19.11 Z-3 I-0.633 J-0.046
G1 X225.58 Y-19.352
X225.291 Y-19.398
X225.053 Y-19.455
X224.806 Y-19.536
X224.534 Y-19.65
X224.233 Y-19.806
X223.929 Y-19.996
X223.582 Y-20.252
X223.249 Y-20.544
X222.872 Y-20.93
X222.513 Y-21.363
X222.133 Y-21.906
X221.747 Y-22.563
X221.376 Y-23.329
X221.046 Y-24.179
X220.78 Y-25.051
X220.569 Y-25.939
X220.408 Y-26.836
X220.291 Y-27.74
X220.213 Y-28.649
X220.173 Y-29.56
X220.166 Y-30.471
X220.191 Y-31.383
X220.247 Y-32.293
X220.334 Y-33.201
X220.45 Y-34.105
X220.598 Y-35.005
X220.779 Y-35.899
X220.996 Y-36.784
X221.254 Y-37.659
X221.554 Y-38.491
X221.827 Y-39.094
X222.084 Y-39.557
X222.166 Y-39.68
X222.372 Y-39.928
X222.628 Y-40.125
X222.919 Y-40.262
X223.234 Y-40.333
X223.556 Y-40.334
X225.981 Y-40.076
G3 X226.527 Y-39.439 Z-2.816 I-0.089 J0.629
G1 X226.526 Y-39.359 Z-2.8
X226.26 Y-19.977
X226.258 Y-19.94
G3 X225.58 Y-19.352 Z-3 I-0.633 J-0.046
G1 X223.094 Y-19.617
X222.939 Y-19.641
X222.702 Y-19.698
X222.452 Y-19.78
X222.18 Y-19.894
X221.875 Y-20.051
X221.571 Y-20.241
X221.222 Y-20.5
X220.887 Y-20.792
X220.509 Y-21.181
X220.148 Y-21.616
X219.765 Y-22.163
X219.377 Y-22.824
X219.003 Y-23.597
X218.673 Y-24.447
X218.406 Y-25.319
X218.194 Y-26.205
X218.031 Y-27.103
X217.911 Y-28.006
X217.831 Y-28.915
X217.788 Y-29.826
X217.778 Y-30.737
X217.8 Y-31.649
X217.852 Y-32.559
X217.935 Y-33.467
X218.048 Y-34.372
X218.192 Y-35.272
X218.37 Y-36.167
X218.584 Y-37.053
X218.841 Y-37.928
X219.136 Y-38.75
X219.407 Y-39.35
X219.662 Y-39.812
X219.744 Y-39.936
X219.951 Y-40.184
X220.206 Y-40.381
X220.498 Y-40.519
X220.813 Y-40.59
X221.136 Y-40.591
X223.556 Y-40.334
G3 X224.102 Y-39.694 Z-2.816 I-0.089 J0.629
G1 X224.101 Y-39.616 Z-2.8
X223.774 Y-20.239
X223.772 Y-20.204
G3 X223.094 Y-19.617 Z-3 I-0.633 J-0.046
G1 X220.815 Y-19.859
X220.572 Y-19.897
X220.334 Y-19.954
X220.084 Y-20.036
X219.812 Y-20.15
X219.507 Y-20.308
X219.203 Y-20.498
X218.853 Y-20.757
X218.518 Y-21.05
X218.138 Y-21.439
X217.777 Y-21.876
X217.392 Y-22.425
X217.002 Y-23.089
X216.624 Y-23.868
X216.294 Y-24.718
X216.027 Y-25.59
X215.814 Y-26.476
X215.65 Y-27.373
X215.528 Y-28.277
X215.446 Y-29.185
X215.4 Y-30.096
X215.387 Y-31.008
X215.407 Y-31.919
X215.456 Y-32.83
X215.536 Y-33.738
X215.646 Y-34.643
X215.788 Y-35.544
X215.964 Y-36.439
X216.176 Y-37.325
X216.431 Y-38.201
X216.721 Y-39.012
X216.99 Y-39.608
X217.245 Y-40.069
X217.326 Y-40.192
X217.532 Y-40.44
X217.788 Y-40.638
X218.08 Y-40.776
X218.395 Y-40.847
X218.718 Y-40.848
X221.136 Y-40.591
G3 X221.682 Y-39.956 Z-2.817 I-0.089 J0.629
G1 X221.681 Y-39.873 Z-2.8
X221.495 Y-20.486
X221.494 Y-20.447
G3 X220.815 Y-19.859 Z-3 I-0.633 J-0.046
G1 X218.423 Y-20.113
X218.207 Y-20.147
X217.969 Y-20.204
X217.718 Y-20.286
X217.446 Y-20.4
X217.139 Y-20.559
X216.834 Y-20.749
X216.484 Y-21.009
X216.146 Y-21.304
X215.766 Y-21.695
X215.403 Y-22.133
X215.016 Y-22.685
X214.623 Y-23.353
X214.244 Y-24.137
X213.914 Y-24.987
X213.646 Y-25.858
X213.432 Y-26.745
X213.266 Y-27.641
X213.143 Y-28.545
X213.059 Y-29.453
X213.011 Y-30.363
X212.996 Y-31.275
X213.013 Y-32.187
X213.06 Y-33.097
X213.137 Y-34.006
X213.245 Y-34.911
X213.384 Y-35.812
X213.558 Y-36.707
X213.769 Y-37.594
X214.023 Y-38.47
X214.31 Y-39.273
X214.577 Y-39.866
X214.83 Y-40.326
X214.91 Y-40.448
X215.117 Y-40.696
X215.372 Y-40.894
X215.665 Y-41.032
X215.98 Y-41.103
X216.303 Y-41.104
X218.718 Y-40.848
G3 X219.264 Y-40.214 Z-2.817 I-0.089 J0.629
G1 X219.263 Y-40.13 Z-2.8
X219.103 Y-20.741
X219.101 Y-20.701
G3 X218.423 Y-20.113 Z-3 I-0.633 J-0.046
G1 X216.051 Y-20.365
X215.836 Y-20.399
X215.599 Y-20.456
X215.346 Y-20.539
X215.074 Y-20.653
X214.766 Y-20.812
X214.461 Y-21.002
X214.11 Y-21.263
X213.771 Y-21.559
X213.389 Y-21.95
X213.025 Y-22.39
X212.636 Y-22.945
X212.242 Y-23.616
X211.86 Y-24.405
X211.53 Y-25.254
X211.262 Y-26.126
X211.047 Y-27.012
X210.88 Y-27.908
X210.756 Y-28.812
X210.67 Y-29.72
X210.62 Y-30.63
X210.603 Y-31.542
X210.617 Y-32.453
X210.663 Y-33.364
X210.738 Y-34.273
X210.844 Y-35.178
X210.981 Y-36.08
X211.153 Y-36.975
X211.363 Y-37.862
X211.617 Y-38.738
X211.9 Y-39.534
X212.165 Y-40.124
X212.418 Y-40.583
X212.497 Y-40.703
X212.704 Y-40.952
X212.959 Y-41.15
X213.252 Y-41.288
X213.567 Y-41.36
X213.891 Y-41.361
X216.303 Y-41.104
G3 X216.849 Y-40.472 Z-2.817 I-0.089 J0.629
G1 Y-40.387 Z-2.8
X216.731 Y-20.994
X216.729 Y-20.953
G3 X216.051 Y-20.365 Z-3 I-0.633 J-0.046
G1 X213.772 Y-20.607
X213.459 Y-20.656
X213.221 Y-20.713
X212.968 Y-20.796
X212.696 Y-20.91
X212.387 Y-21.07
X212.082 Y-21.26
X211.73 Y-21.521
X211.391 Y-21.818
X211.009 Y-22.21
X210.643 Y-22.651
X210.253 Y-23.208
X209.858 Y-23.881
X209.474 Y-24.674
X209.144 Y-25.524
X208.875 Y-26.395
X208.66 Y-27.281
X208.492 Y-28.177
X208.366 Y-29.08
X208.279 Y-29.988
X208.227 Y-30.898
X208.209 Y-31.81
X208.222 Y-32.722
X208.265 Y-33.633
X208.339 Y-34.541
X208.443 Y-35.447
X208.579 Y-36.349
X208.75 Y-37.244
X208.959 Y-38.132
X209.212 Y-39.008
X209.492 Y-39.796
X209.756 Y-40.383
X210.009 Y-40.842
X210.086 Y-40.959
X210.293 Y-41.208
X210.549 Y-41.406
X210.841 Y-41.544
X211.156 Y-41.616
X211.48 Y-41.617
X213.891 Y-41.361
G3 X214.437 Y-40.732 Z-2.818 I-0.089 J0.629
G1 Y-40.643 Z-2.8
X214.452 Y-21.24
X214.451 Y-21.195
G3 X213.772 Y-20.607 Z-3 I-0.633 J-0.046
G1 X211.287 Y-20.871
X211.087 Y-20.902
X210.85 Y-20.96
X210.594 Y-21.043
X210.322 Y-21.157
X210.012 Y-21.318
X209.706 Y-21.509
X209.353 Y-21.77
X209.011 Y-22.069
X208.629 Y-22.462
X208.261 Y-22.905
X207.869 Y-23.464
X207.472 Y-24.14
X207.086 Y-24.937
X206.756 Y-25.787
X206.487 Y-26.658
X206.271 Y-27.544
X206.102 Y-28.44
X205.975 Y-29.343
X205.887 Y-30.251
X205.834 Y-31.161
X205.814 Y-32.073
X205.825 Y-32.984
X205.867 Y-33.895
X205.939 Y-34.804
X206.042 Y-35.71
X206.176 Y-36.612
X206.346 Y-37.508
X206.554 Y-38.396
X206.806 Y-39.272
X207.085 Y-40.055
X207.348 Y-40.64
X207.6 Y-41.098
X207.677 Y-41.215
X207.883 Y-41.464
X208.139 Y-41.662
X208.432 Y-41.8
X208.747 Y-41.872
X209.07 Y-41.873
X211.48 Y-41.617
G3 X212.026 Y-40.986 Z-2.817 I-0.089 J0.629
G1 X212.025 Y-40.899 Z-2.8
X211.967 Y-21.503
X211.965 Y-21.459
G3 X211.287 Y-20.871 Z-3 I-0.633 J-0.046
G1 X209.008 Y-21.113
X208.702 Y-21.161
X208.464 Y-21.218
X208.209 Y-21.302
X207.937 Y-21.416
X207.627 Y-21.577
X207.321 Y-21.767
X206.968 Y-22.029
X206.626 Y-22.328
X206.242 Y-22.722
X205.875 Y-23.165
X205.482 Y-23.726
X205.084 Y-24.404
X204.696 Y-25.204
X204.366 Y-26.054
X204.097 Y-26.925
X203.88 Y-27.811
X203.71 Y-28.706
X203.583 Y-29.609
X203.493 Y-30.517
X203.439 Y-31.427
X203.418 Y-32.338
X203.428 Y-33.25
X203.469 Y-34.161
X203.54 Y-35.07
X203.641 Y-35.976
X203.775 Y-36.878
X203.944 Y-37.774
X204.151 Y-38.662
X204.403 Y-39.539
X204.68 Y-40.317
X204.942 Y-40.898
X205.193 Y-41.356
X205.269 Y-41.471
X205.476 Y-41.72
X205.731 Y-41.918
X206.024 Y-42.056
X206.339 Y-42.128
X206.663 Y-42.129
X209.07 Y-41.873
G3 X209.616 Y-41.246 Z-2.818 I-0.089 J0.629
G1 X209.617 Y-41.155 Z-2.8
X209.688 Y-21.749
X209.686 Y-21.701
G3 X209.008 Y-21.113 Z-3 I-0.633 J-0.046
G1 X206.522 Y-21.377
X206.325 Y-21.408
X206.087 Y-21.466
X205.83 Y-21.55
X205.558 Y-21.664
X205.246 Y-21.825
X204.939 Y-22.016
X204.586 Y-22.278
X204.241 Y-22.579
X203.858 Y-22.973
X203.488 Y-23.419
X203.094 Y-23.982
X202.694 Y-24.662
X202.306 Y-25.465
X201.975 Y-26.315
X201.706 Y-27.186
X201.489 Y-28.072
X201.318 Y-28.967
X201.19 Y-29.87
X201.099 Y-30.777
X201.044 Y-31.687
X201.021 Y-32.599
X201.03 Y-33.511
X201.07 Y-34.422
X201.14 Y-35.331
X201.24 Y-36.237
X201.373 Y-37.139
X201.541 Y-38.035
X201.748 Y-38.923
X201.999 Y-39.8
X202.275 Y-40.575
X202.536 Y-41.155
X202.787 Y-41.612
X202.862 Y-41.726
X203.069 Y-41.976
X203.324 Y-42.174
X203.617 Y-42.312
X203.932 Y-42.383
X204.256 Y-42.384
X206.663 Y-42.129
G3 X207.208 Y-41.5 Z-2.818 I-0.089 J0.629
G1 Y-41.411 Z-2.8
X207.202 Y-22.01
X207.201 Y-21.965
G3 X206.522 Y-21.377 Z-3 I-0.633 J-0.046
G1 X204.244 Y-21.619
X203.934 Y-21.668
X203.696 Y-21.725
X203.44 Y-21.809
X203.168 Y-21.923
X202.856 Y-22.085
X202.549 Y-22.276
X202.196 Y-22.538
X201.851 Y-22.839
X201.467 Y-23.233
X201.098 Y-23.679
X200.703 Y-24.243
X200.302 Y-24.924
X199.913 Y-25.73
X199.582 Y-26.58
X199.312 Y-27.451
X199.095 Y-28.336
X198.924 Y-29.232
X198.795 Y-30.134
X198.704 Y-31.042
X198.647 Y-31.952
X198.624 Y-32.863
X198.632 Y-33.775
X198.671 Y-34.686
X198.74 Y-35.595
X198.84 Y-36.501
X198.972 Y-37.404
X199.139 Y-38.3
X199.346 Y-39.188
X199.597 Y-40.065
X199.872 Y-40.835
X200.131 Y-41.413
X200.382 Y-41.87
X200.456 Y-41.982
X200.663 Y-42.231
X200.918 Y-42.43
X201.211 Y-42.568
X201.526 Y-42.639
X201.85 Y-42.64
X204.256 Y-42.384
G3 X204.802 Y-41.76 Z-2.819 I-0.089 J0.629
G1 Y-41.667 Z-2.8
X204.924 Y-22.257
X204.922 Y-22.207
G3 X204.244 Y-21.619 Z-3 I-0.633 J-0.046
G1 X201.758 Y-21.884
X201.552 Y-21.916
X201.315 Y-21.973
X201.056 Y-22.058
X200.784 Y-22.172
X200.471 Y-22.334
X200.164 Y-22.525
X199.81 Y-22.787
X199.463 Y-23.09
X199.079 Y-23.485
X198.708 Y-23.933
X198.312 Y-24.498
X197.91 Y-25.181
X197.519 Y-25.989
X197.189 Y-26.839
X196.919 Y-27.71
X196.701 Y-28.595
X196.53 Y-29.491
X196.4 Y-30.393
X196.308 Y-31.301
X196.251 Y-32.211
X196.227 Y-33.122
X196.234 Y-34.034
X196.272 Y-34.945
X196.34 Y-35.854
X196.439 Y-36.761
X196.57 Y-37.663
X196.737 Y-38.559
X196.943 Y-39.448
X197.194 Y-40.324
X197.468 Y-41.093
X197.727 Y-41.67
X197.978 Y-42.126
X198.051 Y-42.238
X198.258 Y-42.487
X198.513 Y-42.685
X198.806 Y-42.823
X199.121 Y-42.894
X199.445 Y-42.896
X201.85 Y-42.64
G3 X202.396 Y-42.013 Z-2.818 I-0.089 J0.629
G1 Y-41.922 Z-2.8
X202.438 Y-22.518
X202.436 Y-22.471
G3 X201.758 Y-21.884 Z-3 I-0.633 J-0.046
G1 X199.479 Y-22.126
X199.158 Y-22.176
X198.92 Y-22.233
X198.662 Y-22.318
X198.39 Y-22.432
X198.077 Y-22.594
X197.77 Y-22.785
X197.417 Y-23.047
X197.07 Y-23.35
X196.686 Y-23.745
X196.315 Y-24.193
X195.918 Y-24.759
X195.516 Y-25.443
X195.124 Y-26.252
X194.794 Y-27.102
X194.524 Y-27.973
X194.306 Y-28.858
X194.134 Y-29.754
X194.003 Y-30.656
X193.911 Y-31.563
X193.853 Y-32.473
X193.829 Y-33.385
X193.835 Y-34.297
X193.873 Y-35.208
X193.94 Y-36.117
X194.039 Y-37.023
X194.17 Y-37.926
X194.336 Y-38.822
X194.542 Y-39.711
X194.793 Y-40.587
X195.065 Y-41.352
X195.324 Y-41.927
X195.575 Y-42.384
X195.647 Y-42.493
X195.853 Y-42.742
X196.109 Y-42.941
X196.402 Y-43.079
X196.717 Y-43.15
X197.04 Y-43.151
X199.445 Y-42.896
G3 X199.991 Y-42.272 Z-2.819 I-0.089 J0.629
G1 X199.992 Y-42.178 Z-2.8
X200.159 Y-22.764
X200.158 Y-22.713
G3 X199.479 Y-22.126 Z-3 I-0.633 J-0.046
G1 X196.994 Y-22.39
X196.772 Y-22.425
X196.535 Y-22.482
X196.275 Y-22.567
X196.003 Y-22.681
X195.689 Y-22.843
X195.381 Y-23.035
X195.028 Y-23.297
X194.679 Y-23.602
X194.295 Y-23.996
X193.922 Y-24.446
X193.524 Y-25.014
X193.122 Y-25.699
X192.729 Y-26.51
X192.399 Y-27.36
X192.128 Y-28.231
X191.91 Y-29.116
X191.738 Y-30.012
X191.607 Y-30.914
X191.514 Y-31.821
X191.456 Y-32.731
X191.43 Y-33.642
X191.436 Y-34.554
X191.473 Y-35.465
X191.54 Y-36.375
X191.638 Y-37.281
X191.768 Y-38.184
X191.935 Y-39.08
X192.14 Y-39.969
X192.391 Y-40.845
X192.662 Y-41.609
X192.92 Y-42.183
X193.171 Y-42.639
X193.243 Y-42.749
X193.45 Y-42.998
X193.705 Y-43.196
X193.998 Y-43.334
X194.313 Y-43.405
X194.637 Y-43.406
X197.04 Y-43.151
G3 X197.586 Y-42.525 Z-2.818 I-0.089 J0.629
G1 X197.587 Y-42.433 Z-2.8
X197.674 Y-23.026
X197.672 Y-22.978
G3 X196.994 Y-22.39 Z-3 I-0.633 J-0.046
G1 X194.601 Y-22.644
X194.379 Y-22.679
X194.142 Y-22.736
X193.882 Y-22.821
X193.61 Y-22.935
X193.296 Y-23.097
X192.988 Y-23.289
X192.635 Y-23.552
X192.286 Y-23.857
X191.901 Y-24.251
X191.528 Y-24.702
X191.13 Y-25.27
X190.726 Y-25.956
X190.333 Y-26.769
X190.003 Y-27.619
X189.732 Y-28.49
X189.514 Y-29.375
X189.341 Y-30.27
X189.21 Y-31.172
X189.116 Y-32.079
X189.058 Y-32.989
X189.032 Y-33.901
X189.037 Y-34.813
X189.073 Y-35.724
X189.14 Y-36.633
X189.237 Y-37.54
X189.367 Y-38.442
X189.533 Y-39.339
X189.738 Y-40.227
X189.989 Y-41.104
X190.26 Y-41.866
X190.518 Y-42.439
X190.768 Y-42.895
X190.84 Y-43.004
X191.046 Y-43.253
X191.302 Y-43.451
X191.594 Y-43.589
X191.91 Y-43.661
X192.233 Y-43.662
X194.637 Y-43.406
G3 X195.183 Y-42.781 Z-2.818 I-0.089 J0.629
G1 Y-42.689 Z-2.8
X195.281 Y-23.281
X195.279 Y-23.232
G3 X194.601 Y-22.644 Z-3 I-0.633 J-0.046
G1 X192.229 Y-22.896
X191.985 Y-22.934
X191.748 Y-22.991
X191.488 Y-23.077
X191.216 Y-23.191
X190.902 Y-23.353
X190.593 Y-23.545
X190.24 Y-23.807
X189.891 Y-24.113
X189.506 Y-24.508
X189.132 Y-24.958
X188.734 Y-25.527
X188.33 Y-26.214
X187.936 Y-27.028
X187.606 Y-27.878
X187.335 Y-28.749
X187.116 Y-29.634
X186.944 Y-30.529
X186.812 Y-31.431
X186.718 Y-32.338
X186.659 Y-33.248
X186.633 Y-34.16
X186.638 Y-35.071
X186.674 Y-35.983
X186.74 Y-36.892
X186.837 Y-37.799
X186.967 Y-38.701
X187.132 Y-39.598
X187.337 Y-40.486
X187.588 Y-41.363
X187.858 Y-42.124
X188.116 Y-42.696
X188.366 Y-43.151
X188.437 Y-43.259
X188.644 Y-43.508
X188.899 Y-43.707
X189.192 Y-43.845
X189.507 Y-43.916
X189.831 Y-43.917
X192.233 Y-43.662
G3 X192.779 Y-43.037 Z-2.819 I-0.089 J0.629
G1 X192.78 Y-42.944 Z-2.8
X192.909 Y-23.534
X192.908 Y-23.484
G3 X192.229 Y-22.896 Z-3 I-0.633 J-0.046
G1 X189.743 Y-23.16
X189.595 Y-23.183
X189.357 Y-23.241
X189.097 Y-23.326
X188.824 Y-23.44
X188.51 Y-23.603
X188.201 Y-23.795
X187.847 Y-24.057
X187.497 Y-24.364
X187.112 Y-24.759
X186.738 Y-25.211
X186.338 Y-25.781
X185.934 Y-26.469
X185.539 Y-27.284
X185.209 Y-28.134
X184.938 Y-29.004
X184.719 Y-29.889
X184.546 Y-30.785
X184.414 Y-31.687
X184.32 Y-32.594
X184.261 Y-33.504
X184.234 Y-34.415
X184.239 Y-35.327
X184.274 Y-36.238
X184.339 Y-37.148
X184.436 Y-38.054
X184.566 Y-38.957
X184.731 Y-39.853
X184.935 Y-40.742
X185.186 Y-41.619
X185.456 Y-42.379
X185.713 Y-42.951
X185.963 Y-43.406
X186.035 Y-43.514
X186.241 Y-43.763
X186.497 Y-43.962
X186.789 Y-44.1
X187.105 Y-44.171
X187.428 Y-44.172
X189.831 Y-43.917
G3 X190.377 Y-43.29 Z-2.818 I-0.089 J0.629
G1 Y-43.199 Z-2.8
X190.424 Y-23.795
X190.422 Y-23.748
G3 X189.743 Y-23.16 Z-3 I-0.633 J-0.046
G1 X187.465 Y-23.402
X187.194 Y-23.445
X186.956 Y-23.502
X186.697 Y-23.587
X186.424 Y-23.701
X186.11 Y-23.864
X185.802 Y-24.056
X185.448 Y-24.318
X185.098 Y-24.624
X184.714 Y-25.019
X184.34 Y-25.47
X183.94 Y-26.04
X183.536 Y-26.728
X183.141 Y-27.544
X182.811 Y-28.394
X182.54 Y-29.264
X182.321 Y-30.149
X182.148 Y-31.045
X182.016 Y-31.947
X181.921 Y-32.854
X181.861 Y-33.764
X181.835 Y-34.675
X181.839 Y-35.587
X181.874 Y-36.498
X181.94 Y-37.407
X182.036 Y-38.314
X182.165 Y-39.217
X182.331 Y-40.113
X182.535 Y-41.002
X182.786 Y-41.879
X183.055 Y-42.637
X183.312 Y-43.208
X183.562 Y-43.663
X183.633 Y-43.77
X183.839 Y-44.019
X184.095 Y-44.217
X184.387 Y-44.355
X184.703 Y-44.426
X185.026 Y-44.428
X187.428 Y-44.172
G3 X187.974 Y-43.549 Z-2.819 I-0.089 J0.629
G1 X187.975 Y-43.455 Z-2.8
X188.145 Y-24.041
X188.143 Y-23.99
G3 X187.465 Y-23.402 Z-3 I-0.633 J-0.046
G1 X184.979 Y-23.666
X184.803 Y-23.694
X184.565 Y-23.751
X184.304 Y-23.837
X184.032 Y-23.951
X183.717 Y-24.114
X183.408 Y-24.306
X183.055 Y-24.568
X182.703 Y-24.875
X182.318 Y-25.271
X181.943 Y-25.723
X181.543 Y-26.294
X181.139 Y-26.983
X180.743 Y-27.799
X180.413 Y-28.649
X180.142 Y-29.52
X179.923 Y-30.405
X179.749 Y-31.3
X179.617 Y-32.202
X179.522 Y-33.109
X179.462 Y-34.019
X179.435 Y-34.93
X179.439 Y-35.842
X179.474 Y-36.753
X179.539 Y-37.663
X179.635 Y-38.57
X179.764 Y-39.472
X179.929 Y-40.369
X180.134 Y-41.258
X180.384 Y-42.134
X180.654 Y-42.892
X180.91 Y-43.463
X181.16 Y-43.918
X181.231 Y-44.025
X181.437 Y-44.274
X181.693 Y-44.472
X181.985 Y-44.61
X182.301 Y-44.682
X182.624 Y-44.683
X185.026 Y-44.428
G3 X185.572 Y-43.802 Z-2.818 I-0.089 J0.629
G1 Y-43.71 Z-2.8
X185.659 Y-24.302
X185.658 Y-24.254
G3 X184.979 Y-23.666 Z-3 I-0.633 J-0.046
G1 X182.701 Y-23.908
X182.401 Y-23.955
X182.163 Y-24.013
X181.903 Y-24.098
X181.631 Y-24.212
X181.316 Y-24.375
X181.008 Y-24.567
X180.654 Y-24.829
X180.304 Y-25.136
X179.919 Y-25.531
X179.544 Y-25.983
X179.145 Y-26.553
X178.74 Y-27.242
X178.344 Y-28.059
X178.014 Y-28.909
X177.743 Y-29.78
X177.524 Y-30.665
X177.35 Y-31.56
X177.218 Y-32.462
X177.123 Y-33.369
X177.063 Y-34.279
X177.036 Y-35.19
X177.04 Y-36.102
X177.074 Y-37.013
X177.139 Y-37.922
X177.235 Y-38.829
X177.364 Y-39.732
X177.529 Y-40.629
X177.734 Y-41.517
X177.984 Y-42.394
X178.253 Y-43.15
X178.509 Y-43.72
X178.759 Y-44.175
X178.829 Y-44.28
X179.036 Y-44.529
X179.291 Y-44.727
X179.584 Y-44.866
X179.899 Y-44.937
X180.223 Y-44.938
X182.624 Y-44.683
G3 X183.17 Y-44.061 Z-2.819 I-0.089 J0.629
G1 X183.171 Y-43.965 Z-2.8
X183.381 Y-24.549
X183.379 Y-24.496
G3 X182.701 Y-23.908 Z-3 I-0.633 J-0.046
G1 X180.215 Y-24.172
X180.009 Y-24.205
X179.771 Y-24.262
X179.51 Y-24.348
X179.238 Y-24.462
X178.923 Y-24.625
X178.613 Y-24.817
X178.26 Y-25.08
X177.908 Y-25.387
X177.523 Y-25.782
X177.148 Y-26.236
X176.747 Y-26.807
X176.342 Y-27.497
X175.946 Y-28.314
X175.616 Y-29.164
X175.345 Y-30.035
X175.125 Y-30.92
X174.952 Y-31.815
X174.819 Y-32.717
X174.724 Y-33.624
X174.664 Y-34.534
X174.636 Y-35.445
X174.64 Y-36.357
X174.674 Y-37.268
X174.739 Y-38.178
X174.835 Y-39.084
X174.964 Y-39.987
X175.128 Y-40.884
X175.333 Y-41.772
X175.583 Y-42.649
X175.852 Y-43.405
X176.108 Y-43.975
X176.358 Y-44.429
X176.428 Y-44.535
X176.634 Y-44.784
X176.89 Y-44.983
X177.182 Y-45.121
X177.498 Y-45.192
X177.821 Y-45.193
X180.223 Y-44.938
G3 X180.768 Y-44.313 Z-2.819 I-0.089 J0.629
G1 X180.769 Y-44.22 Z-2.8
X180.895 Y-24.81
X180.893 Y-24.76
G3 X180.215 Y-24.172 Z-3 I-0.633 J-0.046
G1 X177.936 Y-24.415
X177.606 Y-24.466
X177.368 Y-24.524
X177.108 Y-24.609
X176.836 Y-24.723
X176.521 Y-24.886
X176.212 Y-25.078
X175.859 Y-25.34
X175.508 Y-25.647
X175.123 Y-26.042
X174.748 Y-26.495
X174.348 Y-27.066
X173.943 Y-27.755
X173.547 Y-28.573
X173.216 Y-29.423
X172.945 Y-30.294
X172.726 Y-31.179
X172.552 Y-32.074
X172.419 Y-32.976
X172.324 Y-33.883
X172.264 Y-34.793
X172.236 Y-35.704
X172.24 Y-36.616
X172.274 Y-37.527
X172.339 Y-38.437
X172.435 Y-39.343
X172.564 Y-40.246
X172.728 Y-41.143
X172.933 Y-42.032
X173.183 Y-42.908
X173.452 Y-43.663
X173.707 Y-44.232
X173.957 Y-44.686
X174.027 Y-44.791
X174.233 Y-45.04
X174.489 Y-45.238
X174.781 Y-45.376
X175.096 Y-45.447
X175.42 Y-45.448
X177.821 Y-45.193
G3 X178.367 Y-44.572 Z-2.819 I-0.089 J0.629
G1 X178.368 Y-44.475 Z-2.8
X178.616 Y-25.056
X178.615 Y-25.002
G3 X177.936 Y-24.415 Z-3 I-0.633 J-0.046
G1 X175.45 Y-24.679
X175.213 Y-24.716
X174.976 Y-24.773
X174.714 Y-24.859
X174.442 Y-24.973
X174.126 Y-25.136
X173.817 Y-25.329
X173.464 Y-25.591
X173.111 Y-25.899
X172.726 Y-26.294
X172.35 Y-26.748
X171.95 Y-27.32
X171.544 Y-28.01
X171.148 Y-28.828
X170.818 Y-29.678
X170.547 Y-30.549
X170.327 Y-31.434
X170.153 Y-32.329
X170.02 Y-33.231
X169.925 Y-34.138
X169.864 Y-35.048
X169.837 Y-35.959
X169.84 Y-36.871
X169.874 Y-37.782
X169.939 Y-38.691
X170.034 Y-39.598
X170.163 Y-40.501
X170.327 Y-41.398
X170.532 Y-42.286
X170.782 Y-43.163
X171.051 Y-43.918
X171.306 Y-44.486
X171.556 Y-44.941
X171.625 Y-45.046
X171.832 Y-45.295
X172.087 Y-45.493
X172.38 Y-45.631
X172.695 Y-45.702
X173.019 Y-45.703
X175.42 Y-45.448
G3 X175.966 Y-44.825 Z-2.819 I-0.089 J0.629
G1 X175.967 Y-44.731 Z-2.8
X176.13 Y-25.317
X176.129 Y-25.267
G3 X175.45 Y-24.679 Z-3 I-0.633 J-0.046
G1 X172.965 Y-24.943
X172.816 Y-24.966
X172.579 Y-25.023
X172.317 Y-25.109
X172.044 Y-25.224
X171.729 Y-25.387
X171.419 Y-25.581
X171.065 Y-25.843
X170.712 Y-26.152
X170.327 Y-26.548
X169.951 Y-27.002
X169.549 Y-27.575
X169.144 Y-28.266
X168.747 Y-29.087
X168.417 Y-29.937
X168.146 Y-30.808
X167.927 Y-31.693
X167.753 Y-32.588
X167.62 Y-33.49
X167.525 Y-34.397
X167.464 Y-35.307
X167.437 Y-36.218
X167.44 Y-37.13
X167.474 Y-38.041
X167.539 Y-38.95
X167.634 Y-39.857
X167.763 Y-40.76
X167.928 Y-41.657
X168.132 Y-42.545
X168.382 Y-43.422
X168.651 Y-44.175
X168.906 Y-44.743
X169.156 Y-45.197
X169.225 Y-45.301
X169.431 Y-45.55
X169.687 Y-45.748
X169.979 Y-45.886
X170.294 Y-45.957
X170.618 Y-45.958
X173.019 Y-45.703
G3 X173.565 Y-45.077 Z-2.818 I-0.089 J0.629
G1 Y-44.986 Z-2.8
X173.645 Y-25.579
X173.643 Y-25.531
G3 X172.965 Y-24.943 Z-3 I-0.633 J-0.046
G1 X170.686 Y-25.185
X170.413 Y-25.228
X170.175 Y-25.285
X169.914 Y-25.371
X169.642 Y-25.485
X169.327 Y-25.647
X169.018 Y-25.84
X168.665 Y-26.102
X168.312 Y-26.41
X167.928 Y-26.805
X167.552 Y-27.259
X167.151 Y-27.83
X166.746 Y-28.521
X166.349 Y-29.34
X166.019 Y-30.19
X165.748 Y-31.06
X165.528 Y-31.945
X165.354 Y-32.84
X165.221 Y-33.742
X165.126 Y-34.649
X165.065 Y-35.559
X165.037 Y-36.47
X165.04 Y-37.382
X165.074 Y-38.293
X165.138 Y-39.203
X165.234 Y-40.109
X165.362 Y-41.012
X165.526 Y-41.909
X165.73 Y-42.798
X165.981 Y-43.675
X166.249 Y-44.429
X166.505 Y-44.997
X166.754 Y-45.451
X166.823 Y-45.556
X167.03 Y-45.805
X167.285 Y-46.003
X167.578 Y-46.141
X167.893 Y-46.212
X168.217 Y-46.214
X170.618 Y-45.958
G3 X171.164 Y-45.336 Z-2.819 I-0.089 J0.629
G1 X171.165 Y-45.241 Z-2.8
X171.366 Y-25.825
X171.364 Y-25.773
G3 X170.686 Y-25.185 Z-3 I-0.633 J-0.046
G1 X168.2 Y-25.449
X168.019 Y-25.478
X167.781 Y-25.535
X167.519 Y-25.621
X167.247 Y-25.735
X166.931 Y-25.898
X166.622 Y-26.091
X166.268 Y-26.353
X165.915 Y-26.662
X165.53 Y-27.057
X165.154 Y-27.511
X164.753 Y-28.083
X164.347 Y-28.774
X163.95 Y-29.594
X163.62 Y-30.444
X163.349 Y-31.314
X163.129 Y-32.199
X162.955 Y-33.094
X162.821 Y-33.996
X162.726 Y-34.903
X162.665 Y-35.813
X162.637 Y-36.724
X162.64 Y-37.636
X162.674 Y-38.547
X162.738 Y-39.457
X162.833 Y-40.364
X162.961 Y-41.267
X163.126 Y-42.163
X163.33 Y-43.052
X163.58 Y-43.929
X163.848 Y-44.683
X164.104 Y-45.251
X164.353 Y-45.706
X164.423 Y-45.811
X164.629 Y-46.06
X164.885 Y-46.258
X165.177 Y-46.396
X165.493 Y-46.467
X165.816 Y-46.469
X168.217 Y-46.214
G3 X168.763 Y-45.589 Z-2.819 I-0.089 J0.629
G1 Y-45.496 Z-2.8
X168.88 Y-26.086
X168.879 Y-26.037
G3 X168.2 Y-25.449 Z-3 I-0.633 J-0.046
G1 X165.937 Y-25.689
X165.613 Y-25.74
X165.376 Y-25.798
X165.115 Y-25.883
X164.843 Y-25.997
X164.528 Y-26.16
X164.219 Y-26.353
X163.865 Y-26.615
X163.513 Y-26.922
X163.129 Y-27.317
X162.753 Y-27.771
X162.352 Y-28.343
X161.946 Y-29.033
X161.55 Y-29.853
X161.22 Y-30.703
X160.948 Y-31.573
X160.728 Y-32.458
X160.554 Y-33.353
X160.421 Y-34.255
X160.326 Y-35.162
X160.265 Y-36.072
X160.237 Y-36.983
X160.24 Y-37.895
X160.274 Y-38.806
X160.338 Y-39.716
X160.433 Y-40.623
X160.561 Y-41.525
X160.726 Y-42.422
X160.93 Y-43.311
X161.18 Y-44.188
X161.448 Y-44.941
X161.704 Y-45.508
X161.953 Y-45.962
X162.022 Y-46.066
X162.229 Y-46.315
X162.484 Y-46.513
X162.777 Y-46.651
X163.092 Y-46.723
X163.415 Y-46.724
X165.816 Y-46.469
G3 X166.362 Y-45.848 Z-2.819 I-0.089 J0.629
G1 X166.363 Y-45.751 Z-2.8
X166.617 Y-26.331
X166.616 Y-26.277
G3 X165.937 Y-25.689 Z-3 I-0.633 J-0.046
G1 X163.436 Y-25.955
X163.22 Y-25.989
X162.982 Y-26.046
X162.72 Y-26.132
X162.448 Y-26.246
X162.133 Y-26.409
X161.823 Y-26.603
X161.469 Y-26.865
X161.116 Y-27.173
X160.731 Y-27.569
X160.355 Y-28.023
X159.953 Y-28.596
X159.547 Y-29.287
X159.15 Y-30.107
X158.82 Y-30.957
X158.549 Y-31.827
X158.329 Y-32.712
X158.155 Y-33.607
X158.022 Y-34.509
X157.926 Y-35.416
X157.865 Y-36.326
X157.837 Y-37.237
X157.84 Y-38.149
X157.873 Y-39.06
X157.937 Y-39.97
X158.033 Y-40.876
X158.161 Y-41.779
X158.325 Y-42.676
X158.529 Y-43.565
X158.779 Y-44.442
X159.047 Y-45.195
X159.303 Y-45.763
X159.552 Y-46.217
X159.621 Y-46.321
X159.828 Y-46.57
X160.083 Y-46.768
X160.376 Y-46.906
X160.691 Y-46.978
X161.015 Y-46.979
X163.415 Y-46.724
G3 X163.961 Y-46.1 Z-2.819 I-0.089 J0.629
G1 X163.962 Y-46.006 Z-2.8
X164.116 Y-26.594
X164.114 Y-26.543
G3 X163.436 Y-25.955 Z-3 I-0.633 J-0.046
G1 X160.95 Y-26.219
X160.802 Y-26.243
X160.56 Y-26.303
X160.298 Y-26.391
X160.022 Y-26.51
X159.704 Y-26.677
X159.393 Y-26.875
X159.034 Y-27.145
X158.683 Y-27.457
X158.293 Y-27.864
X157.917 Y-28.325
X157.517 Y-28.906
X157.111 Y-29.61
X156.72 Y-30.434
X156.395 Y-31.286
X156.128 Y-32.158
X155.912 Y-33.043
X155.741 Y-33.939
X155.611 Y-34.842
X155.519 Y-35.749
X155.461 Y-36.659
X155.435 Y-37.57
X155.441 Y-38.482
X155.477 Y-39.393
X155.544 Y-40.302
X155.643 Y-41.209
X155.773 Y-42.111
X155.94 Y-43.008
X156.147 Y-43.896
X156.402 Y-44.771
X156.669 Y-45.506
X156.919 Y-46.053
X157.172 Y-46.505
X157.225 Y-46.585
X157.431 Y-46.831
X157.686 Y-47.027
X157.977 Y-47.163
X158.291 Y-47.233
X158.613 Y-47.234
X161.015 Y-46.979
G3 X161.561 Y-46.352 Z-2.818 I-0.089 J0.629
G1 Y-46.261 Z-2.8
X161.63 Y-26.855
X161.629 Y-26.807
G3 X160.95 Y-26.219 Z-3 I-0.633 J-0.046
G1 X158.672 Y-26.461
X158.414 Y-26.502
X158.181 Y-26.558
X157.915 Y-26.645
X157.647 Y-26.758
X157.334 Y-26.919
X157.021 Y-27.115
X156.674 Y-27.371
X156.314 Y-27.686
X155.936 Y-28.074
X155.554 Y-28.536
X155.15 Y-29.112
X154.747 Y-29.798
X154.352 Y-30.614
X154.022 Y-31.464
X153.751 Y-32.334
X153.531 Y-33.219
X153.356 Y-34.114
X153.222 Y-35.016
X153.126 Y-35.922
X153.065 Y-36.832
X153.036 Y-37.744
X153.039 Y-38.655
X153.073 Y-39.567
X153.136 Y-40.476
X153.231 Y-41.383
X153.359 Y-42.286
X153.524 Y-43.183
X153.727 Y-44.071
X153.977 Y-44.948
X154.247 Y-45.705
X154.502 Y-46.274
X154.75 Y-46.726
X154.819 Y-46.831
X155.026 Y-47.08
X155.281 Y-47.278
X155.574 Y-47.416
X155.89 Y-47.488
X156.213 Y-47.489
X158.613 Y-47.234
G3 X159.158 Y-46.612 Z-2.819 I-0.089 J0.629
G1 X159.159 Y-46.516 Z-2.8
X159.352 Y-27.101
X159.35 Y-27.049
G3 X158.672 Y-26.461 Z-3 I-0.633 J-0.046
G1 X156.188 Y-26.725
X156.023 Y-26.751
X155.786 Y-26.808
X155.522 Y-26.895
X155.25 Y-27.009
X154.935 Y-27.172
X154.625 Y-27.365
X154.271 Y-27.627
X153.918 Y-27.936
X153.533 Y-28.331
X153.157 Y-28.786
X152.755 Y-29.358
X152.349 Y-30.05
X151.951 Y-30.871
X151.621 Y-31.721
X151.35 Y-32.591
X151.13 Y-33.476
X150.955 Y-34.371
X150.822 Y-35.273
X150.726 Y-36.18
X150.665 Y-37.089
X150.636 Y-38.001
X150.639 Y-38.913
X150.672 Y-39.824
X150.736 Y-40.733
X150.831 Y-41.64
X150.959 Y-42.543
X151.124 Y-43.44
X151.327 Y-44.329
X151.577 Y-45.206
X151.845 Y-45.959
X152.1 Y-46.527
X152.35 Y-46.981
X152.419 Y-47.086
X152.626 Y-47.335
X152.881 Y-47.533
X153.174 Y-47.671
X153.489 Y-47.743
X153.813 Y-47.744
X156.213 Y-47.489
G3 X156.759 Y-46.864 Z-2.819 I-0.089 J0.629
G1 Y-46.771 Z-2.8
X156.868 Y-27.362
X156.866 Y-27.313
G3 X156.188 Y-26.725 Z-3 I-0.633 J-0.046
G1 X153.907 Y-26.968
X153.617 Y-27.013
X153.38 Y-27.07
X153.119 Y-27.156
X152.846 Y-27.27
X152.531 Y-27.433
X152.222 Y-27.626
X151.869 Y-27.888
X151.516 Y-28.196
X151.131 Y-28.591
X150.755 Y-29.045
X150.354 Y-29.617
X149.948 Y-30.309
X149.55 Y-31.129
X149.22 Y-31.979
X148.949 Y-32.85
X148.729 Y-33.735
X148.555 Y-34.63
X148.421 Y-35.532
X148.326 Y-36.439
X148.264 Y-37.348
X148.236 Y-38.26
X148.239 Y-39.171
X148.272 Y-40.083
X148.336 Y-40.992
X148.432 Y-41.899
X148.56 Y-42.802
X148.724 Y-43.699
X148.928 Y-44.587
X149.178 Y-45.464
X149.446 Y-46.216
X149.701 Y-46.783
X149.951 Y-47.238
X150.019 Y-47.342
X150.226 Y-47.59
X150.481 Y-47.789
X150.774 Y-47.927
X151.089 Y-47.998
X151.412 Y-47.999
X153.813 Y-47.744
G3 X154.359 Y-47.123 Z-2.819 I-0.089 J0.629
G1 X154.36 Y-47.026 Z-2.8
X154.587 Y-27.608
X154.586 Y-27.556
G3 X153.907 Y-26.968 Z-3 I-0.633 J-0.046
G1 X151.422 Y-27.232
X151.222 Y-27.263
X150.985 Y-27.32
X150.723 Y-27.406
X150.45 Y-27.52
X150.135 Y-27.683
X149.825 Y-27.877
X149.471 Y-28.139
X149.118 Y-28.448
X148.733 Y-28.843
X148.356 Y-29.298
X147.954 Y-29.871
X147.548 Y-30.563
X147.151 Y-31.383
X146.821 Y-32.233
X146.549 Y-33.104
X146.329 Y-33.989
X146.155 Y-34.883
X146.021 Y-35.786
X145.926 Y-36.692
X145.864 Y-37.602
X145.836 Y-38.513
X145.839 Y-39.425
X145.872 Y-40.336
X145.936 Y-41.246
X146.031 Y-42.153
X146.159 Y-43.056
X146.323 Y-43.952
X146.527 Y-44.841
X146.777 Y-45.718
X147.045 Y-46.471
X147.3 Y-47.038
X147.55 Y-47.492
X147.619 Y-47.596
X147.825 Y-47.845
X148.081 Y-48.044
X148.373 Y-48.182
X148.689 Y-48.253
X149.012 Y-48.254
X151.412 Y-47.999
G3 X151.958 Y-47.375 Z-2.819 I-0.089 J0.629
G1 X151.959 Y-47.281 Z-2.8
X152.102 Y-27.87
X152.1 Y-27.82
G3 X151.422 Y-27.232 Z-3 I-0.633 J-0.046
G1 X149.143 Y-27.474
X148.817 Y-27.525
X148.579 Y-27.582
X148.318 Y-27.668
X148.046 Y-27.782
X147.731 Y-27.945
X147.422 Y-28.138
X147.068 Y-28.4
X146.716 Y-28.708
X146.331 Y-29.103
X145.955 Y-29.557
X145.553 Y-30.129
X145.147 Y-30.821
X144.75 Y-31.641
X144.42 Y-32.491
X144.149 Y-33.362
X143.929 Y-34.247
X143.754 Y-35.142
X143.621 Y-36.044
X143.525 Y-36.95
X143.464 Y-37.86
X143.436 Y-38.771
X143.439 Y-39.683
X143.472 Y-40.594
X143.536 Y-41.504
X143.631 Y-42.411
X143.759 Y-43.314
X143.923 Y-44.211
X144.127 Y-45.099
X144.378 Y-45.976
X144.645 Y-46.728
X144.9 Y-47.294
X145.15 Y-47.748
X145.218 Y-47.852
X145.425 Y-48.101
X145.68 Y-48.299
X145.973 Y-48.437
X146.288 Y-48.508
X146.612 Y-48.509
X149.012 Y-48.254
G3 X149.558 Y-47.634 Z-2.82 I-0.089 J0.629
G1 X149.559 Y-47.536 Z-2.8
X149.823 Y-28.116
X149.821 Y-28.062
G3 X149.143 Y-27.474 Z-3 I-0.633 J-0.046
G1 X146.657 Y-27.738
X146.422 Y-27.775
X146.184 Y-27.832
X145.922 Y-27.918
X145.65 Y-28.032
X145.334 Y-28.195
X145.024 Y-28.389
X144.671 Y-28.651
X144.317 Y-28.96
X143.932 Y-29.355
X143.556 Y-29.81
X143.154 Y-30.383
X142.748 Y-31.074
X142.35 Y-31.895
X142.02 Y-32.745
X141.749 Y-33.616
X141.529 Y-34.5
X141.354 Y-35.395
X141.221 Y-36.297
X141.125 Y-37.204
X141.064 Y-38.114
X141.035 Y-39.025
X141.038 Y-39.937
X141.072 Y-40.848
X141.136 Y-41.758
X141.231 Y-42.665
X141.359 Y-43.567
X141.523 Y-44.464
X141.727 Y-45.353
X141.977 Y-46.23
X142.245 Y-46.982
X142.5 Y-47.549
X142.749 Y-48.003
X142.818 Y-48.107
X143.024 Y-48.356
X143.28 Y-48.554
X143.572 Y-48.692
X143.888 Y-48.763
X144.211 Y-48.764
X146.612 Y-48.509
G3 X147.157 Y-47.886 Z-2.819 I-0.089 J0.629
G1 X147.158 Y-47.791 Z-2.8
X147.337 Y-28.377
X147.336 Y-28.326
G3 X146.657 Y-27.738 Z-3 I-0.633 J-0.046
G1 X144.171 Y-28.002
X144.023 Y-28.025
X143.785 Y-28.083
X143.523 Y-28.169
X143.25 Y-28.283
X142.934 Y-28.447
X142.624 Y-28.641
X142.27 Y-28.903
X141.916 Y-29.213
X141.531 Y-29.609
X141.154 Y-30.065
X140.752 Y-30.639
X140.345 Y-31.332
X139.949 Y-32.153
X139.619 Y-33.003
X139.348 Y-33.873
X139.128 Y-34.758
X138.954 Y-35.653
X138.82 Y-36.555
X138.725 Y-37.462
X138.664 Y-38.372
X138.635 Y-39.283
X138.638 Y-40.195
X138.672 Y-41.106
X138.736 Y-42.016
X138.831 Y-42.923
X138.959 Y-43.825
X139.123 Y-44.722
X139.327 Y-45.611
X139.577 Y-46.488
X139.845 Y-47.239
X140.1 Y-47.805
X140.35 Y-48.259
X140.418 Y-48.362
X140.624 Y-48.611
X140.88 Y-48.809
X141.172 Y-48.947
X141.487 Y-49.018
X141.811 Y-49.019
X144.211 Y-48.764
G3 X144.757 Y-48.138 Z-2.818 I-0.089 J0.629
G1 Y-48.047 Z-2.8
X144.851 Y-28.639
X144.85 Y-28.59
G3 X144.171 Y-28.002 Z-3 I-0.633 J-0.046
G1 X141.893 Y-28.244
X141.618 Y-28.287
X141.381 Y-28.344
X141.119 Y-28.43
X140.847 Y-28.544
X140.532 Y-28.707
X140.223 Y-28.9
X139.869 Y-29.162
X139.516 Y-29.471
X139.132 Y-29.865
X138.755 Y-30.32
X138.353 Y-30.893
X137.947 Y-31.584
X137.55 Y-32.405
X137.22 Y-33.255
X136.949 Y-34.125
X136.729 Y-35.01
X136.554 Y-35.905
X136.421 Y-36.807
X136.325 Y-37.714
X136.264 Y-38.624
X136.235 Y-39.535
X136.238 Y-40.447
X136.271 Y-41.358
X136.335 Y-42.268
X136.43 Y-43.174
X136.558 Y-44.077
X136.722 Y-44.974
X136.926 Y-45.863
X137.176 Y-46.74
X137.444 Y-47.492
X137.699 Y-48.059
X137.949 Y-48.513
X138.017 Y-48.617
X138.223 Y-48.866
X138.479 Y-49.064
X138.772 Y-49.202
X139.087 Y-49.273
X139.41 Y-49.274
X141.811 Y-49.019
G3 X142.357 Y-48.397 Z-2.819 I-0.089 J0.629
G1 X142.358 Y-48.302 Z-2.8
X142.573 Y-28.885
X142.571 Y-28.832
G3 X141.893 Y-28.244 Z-3 I-0.633 J-0.046
G1 X139.407 Y-28.508
X139.223 Y-28.537
X138.985 Y-28.594
X138.723 Y-28.68
X138.451 Y-28.795
X138.135 Y-28.958
X137.825 Y-29.151
X137.471 Y-29.413
X137.118 Y-29.722
X136.733 Y-30.117
X136.356 Y-30.573
X135.954 Y-31.146
X135.548 Y-31.837
X135.15 Y-32.658
X134.82 Y-33.508
X134.549 Y-34.379
X134.329 Y-35.263
X134.154 Y-36.158
X134.021 Y-37.06
X133.925 Y-37.967
X133.863 Y-38.877
X133.835 Y-39.788
X133.837 Y-40.7
X133.871 Y-41.611
X133.935 Y-42.521
X134.029 Y-43.428
X134.157 Y-44.331
X134.321 Y-45.227
X134.525 Y-46.116
X134.775 Y-46.993
X135.043 Y-47.746
X135.298 Y-48.313
X135.548 Y-48.767
X135.617 Y-48.872
X135.823 Y-49.121
X136.079 Y-49.319
X136.371 Y-49.457
X136.687 Y-49.528
X137.01 Y-49.529
X139.41 Y-49.274
G3 X139.956 Y-48.65 Z-2.819 I-0.089 J0.629
G1 X139.957 Y-48.557 Z-2.8
X140.087 Y-29.146
X140.085 Y-29.096
G3 X139.407 Y-28.508 Z-3 I-0.633 J-0.046
G1 X137.128 Y-28.75
X136.817 Y-28.799
X136.579 Y-28.857
X136.318 Y-28.942
X136.046 Y-29.056
X135.731 Y-29.219
X135.422 Y-29.412
X135.068 Y-29.674
X134.715 Y-29.982
X134.331 Y-30.378
X133.954 Y-30.832
X133.553 Y-31.404
X133.147 Y-32.095
X132.749 Y-32.916
X132.419 Y-33.766
X132.148 Y-34.637
X131.928 Y-35.522
X131.754 Y-36.417
X131.62 Y-37.319
X131.524 Y-38.225
X131.463 Y-39.135
X131.434 Y-40.046
X131.437 Y-40.958
X131.471 Y-41.869
X131.535 Y-42.779
X131.63 Y-43.686
X131.758 Y-44.589
X131.922 Y-45.486
X132.126 Y-46.374
X132.376 Y-47.251
X132.644 Y-48.003
X132.898 Y-48.569
X133.148 Y-49.023
X133.216 Y-49.127
X133.423 Y-49.376
X133.678 Y-49.574
X133.971 Y-49.712
X134.286 Y-49.783
X134.61 Y-49.784
X137.01 Y-49.529
G3 X137.556 Y-48.909 Z-2.819 I-0.089 J0.629
G1 X137.557 Y-48.812 Z-2.8
X137.808 Y-29.392
X137.807 Y-29.338
G3 X137.128 Y-28.75 Z-3 I-0.633 J-0.046
G1 X134.739 Y-29.004
X134.418 Y-29.055
X134.18 Y-29.112
X133.919 Y-29.198
X133.647 Y-29.312
X133.331 Y-29.475
X133.022 Y-29.668
X132.668 Y-29.93
X132.315 Y-30.238
X131.93 Y-30.634
X131.554 Y-31.088
X131.153 Y-31.66
X130.746 Y-32.352
X130.349 Y-33.173
X130.019 Y-34.023
X129.748 Y-34.893
X129.528 Y-35.778
X129.353 Y-36.673
X129.22 Y-37.575
X129.124 Y-38.482
X129.063 Y-39.391
X129.034 Y-40.303
X129.037 Y-41.215
X129.07 Y-42.126
X129.134 Y-43.035
X129.229 Y-43.942
X129.357 Y-44.845
X129.522 Y-45.742
X129.726 Y-46.631
X129.976 Y-47.507
X130.244 Y-48.259
X130.498 Y-48.825
X130.748 Y-49.279
X130.816 Y-49.382
X131.023 Y-49.631
X131.278 Y-49.829
X131.571 Y-49.967
X131.886 Y-50.038
X132.209 Y-50.039
X134.61 Y-49.784
G3 X135.156 Y-49.164 Z-2.82 I-0.089 J0.629
G1 X135.157 Y-49.067 Z-2.8
X135.419 Y-29.646
X135.417 Y-29.592
G3 X134.739 Y-29.004 Z-3 I-0.633 J-0.046
G1 X132.157 Y-29.279
X132.009 Y-29.302
X131.768 Y-29.362
X131.505 Y-29.45
X131.229 Y-29.567
X130.912 Y-29.734
X130.6 Y-29.931
X130.242 Y-30.2
X129.89 Y-30.512
X129.501 Y-30.917
X129.124 Y-31.378
X128.723 Y-31.958
X128.317 Y-32.66
X127.925 Y-33.483
X127.599 Y-34.335
X127.331 Y-35.206
X127.114 Y-36.092
X126.942 Y-36.987
X126.812 Y-37.89
X126.718 Y-38.797
X126.659 Y-39.707
X126.633 Y-40.618
X126.638 Y-41.53
X126.674 Y-42.441
X126.74 Y-43.351
X126.837 Y-44.257
X126.967 Y-45.16
X127.133 Y-46.056
X127.34 Y-46.944
X127.593 Y-47.82
X127.86 Y-48.557
X128.111 Y-49.108
X128.363 Y-49.56
X128.419 Y-49.644
X128.626 Y-49.89
X128.881 Y-50.087
X129.172 Y-50.223
X129.486 Y-50.294
X129.808
X132.209 Y-50.039
G3 X132.755 Y-49.413 Z-2.818 I-0.089 J0.629
G1 X132.756 Y-49.322 Z-2.8
X132.837 Y-29.915
X132.835 Y-29.866
G3 X132.157 Y-29.279 Z-3 I-0.633 J-0.046
G1 X129.878 Y-29.521
X129.616 Y-29.562
X129.382 Y-29.618
X129.116 Y-29.705
X128.848 Y-29.818
X128.534 Y-29.98
X128.221 Y-30.175
X127.874 Y-30.433
X127.515 Y-30.747
X127.135 Y-31.136
X126.754 Y-31.597
X126.35 Y-32.172
X125.946 Y-32.861
X125.551 Y-33.677
X125.22 Y-34.527
X124.949 Y-35.398
X124.729 Y-36.282
X124.554 Y-37.177
X124.42 Y-38.079
X124.324 Y-38.986
X124.263 Y-39.896
X124.234 Y-40.807
X124.236 Y-41.719
X124.27 Y-42.63
X124.333 Y-43.54
X124.428 Y-44.447
X124.556 Y-45.349
X124.72 Y-46.246
X124.924 Y-47.135
X125.174 Y-48.012
X125.442 Y-48.767
X125.698 Y-49.335
X125.946 Y-49.787
X126.015 Y-49.892
X126.221 Y-50.141
X126.477 Y-50.339
X126.769 Y-50.477
X127.085 Y-50.548
X127.408 Y-50.549
X129.808 Y-50.294
G3 X130.354 Y-49.672 Z-2.819 I-0.089 J0.629
G1 X130.355 Y-49.577 Z-2.8
X130.558 Y-30.161
X130.557 Y-30.109
G3 X129.878 Y-29.521 Z-3 I-0.633 J-0.046
G1 X127.393 Y-29.785
X127.223 Y-29.811
X126.986 Y-29.869
X126.723 Y-29.955
X126.45 Y-30.069
X126.135 Y-30.232
X125.824 Y-30.426
X125.471 Y-30.688
X125.117 Y-30.997
X124.733 Y-31.392
X124.356 Y-31.847
X123.954 Y-32.42
X123.547 Y-33.112
X123.15 Y-33.933
X122.82 Y-34.783
X122.548 Y-35.653
X122.328 Y-36.538
X122.154 Y-37.433
X122.02 Y-38.335
X121.924 Y-39.242
X121.862 Y-40.151
X121.834 Y-41.063
X121.836 Y-41.974
X121.869 Y-42.886
X121.933 Y-43.795
X122.028 Y-44.702
X122.156 Y-45.605
X122.32 Y-46.502
X122.524 Y-47.391
X122.773 Y-48.268
X123.041 Y-49.02
X123.296 Y-49.588
X123.546 Y-50.042
X123.615 Y-50.147
X123.821 Y-50.396
X124.077 Y-50.594
X124.369 Y-50.732
X124.685 Y-50.803
X125.008 Y-50.804
X127.408 Y-50.549
G3 X127.954 Y-49.925 Z-2.819 I-0.089 J0.629
G1 X127.955 Y-49.832 Z-2.8
X128.073 Y-30.422
X128.071 Y-30.373
G3 X127.393 Y-29.785 Z-3 I-0.633 J-0.046
G1 X125.114 Y-30.027
X124.817 Y-30.074
X124.579 Y-30.131
X124.318 Y-30.216
X124.046 Y-30.33
X123.731 Y-30.493
X123.421 Y-30.686
X123.068 Y-30.948
X122.715 Y-31.257
X122.33 Y-31.652
X121.954 Y-32.106
X121.552 Y-32.679
X121.146 Y-33.37
X120.749 Y-34.191
X120.419 Y-35.041
X120.147 Y-35.912
X119.927 Y-36.796
X119.753 Y-37.691
X119.619 Y-38.593
X119.523 Y-39.5
X119.462 Y-40.41
X119.433 Y-41.321
X119.436 Y-42.233
X119.469 Y-43.144
X119.533 Y-44.054
X119.628 Y-44.961
X119.756 Y-45.863
X119.92 Y-46.76
X120.124 Y-47.649
X120.374 Y-48.526
X120.642 Y-49.278
X120.897 Y-49.844
X121.146 Y-50.298
X121.215 Y-50.402
X121.421 Y-50.651
X121.677 Y-50.849
X121.969 Y-50.987
X122.285 Y-51.058
X122.608 Y-51.059
X125.008 Y-50.804
G3 X125.554 Y-50.184 Z-2.819 I-0.089 J0.629
G1 X125.555 Y-50.087 Z-2.8
X125.794 Y-30.668
X125.792 Y-30.615
G3 X125.114 Y-30.027 Z-3 I-0.633 J-0.046
G1 X122.628 Y-30.291
X122.422 Y-30.324
X122.184 Y-30.381
X121.922 Y-30.467
X121.649 Y-30.581
X121.334 Y-30.744
X121.024 Y-30.937
X120.67 Y-31.199
X120.316 Y-31.509
X119.932 Y-31.904
X119.554 Y-32.359
X119.153 Y-32.932
X118.746 Y-33.624
X118.349 Y-34.445
X118.019 Y-35.295
X117.747 Y-36.165
X117.527 Y-37.05
X117.353 Y-37.945
X117.219 Y-38.847
X117.123 Y-39.754
X117.062 Y-40.663
X117.033 Y-41.575
X117.036 Y-42.487
X117.069 Y-43.398
X117.133 Y-44.307
X117.228 Y-45.214
X117.355 Y-46.117
X117.52 Y-47.014
X117.723 Y-47.903
X117.973 Y-48.78
X118.241 Y-49.532
X118.496 Y-50.099
X118.746 Y-50.553
X118.814 Y-50.657
X119.021 Y-50.906
X119.276 Y-51.104
X119.569 Y-51.242
X119.884 Y-51.313
X120.208 Y-51.314
X122.608 Y-51.059
G3 X123.154 Y-50.436 Z-2.819 I-0.089 J0.629
G1 X123.155 Y-50.342 Z-2.8
X123.308 Y-30.929
X123.307 Y-30.879
G3 X122.628 Y-30.291 Z-3 I-0.633 J-0.046
G1 X120.35 Y-30.533
X120.016 Y-30.586
X119.778 Y-30.643
X119.517 Y-30.728
X119.245 Y-30.842
X118.93 Y-31.005
X118.62 Y-31.198
X118.267 Y-31.46
X117.914 Y-31.769
X117.529 Y-32.164
X117.153 Y-32.618
X116.751 Y-33.191
X116.345 Y-33.882
X115.948 Y-34.703
X115.618 Y-35.553
X115.346 Y-36.423
X115.126 Y-37.308
X114.952 Y-38.203
X114.818 Y-39.105
X114.723 Y-40.012
X114.661 Y-40.922
X114.633 Y-41.833
X114.635 Y-42.745
X114.669 Y-43.656
X114.733 Y-44.566
X114.828 Y-45.472
X114.956 Y-46.375
X115.12 Y-47.272
X115.324 Y-48.161
X115.574 Y-49.038
X115.842 Y-49.789
X116.096 Y-50.355
X116.346 Y-50.809
X116.414 Y-50.912
X116.621 Y-51.161
X116.876 Y-51.359
X117.169 Y-51.497
X117.484 Y-51.568
X117.807 Y-51.57
X120.208 Y-51.314
G3 X120.754 Y-50.695 Z-2.82 I-0.089 J0.629
G1 X120.755 Y-50.597 Z-2.8
X121.03 Y-31.176
X121.028 Y-31.121
G3 X120.35 Y-30.533 Z-3 I-0.633 J-0.046
G1 X117.864 Y-30.797
X117.62 Y-30.836
X117.383 Y-30.893
X117.121 Y-30.979
X116.848 Y-31.093
X116.533 Y-31.256
X116.223 Y-31.449
X115.869 Y-31.711
X115.515 Y-32.021
X115.131 Y-32.416
X114.754 Y-32.871
X114.352 Y-33.444
X113.945 Y-34.136
X113.548 Y-34.956
X113.218 Y-35.806
X112.946 Y-36.677
X112.726 Y-37.562
X112.552 Y-38.457
X112.418 Y-39.359
X112.322 Y-40.265
X112.261 Y-41.175
X112.232 Y-42.087
X112.235 Y-42.998
X112.269 Y-43.91
X112.332 Y-44.819
X112.427 Y-45.726
X112.555 Y-46.629
X112.719 Y-47.526
X112.923 Y-48.414
X113.173 Y-49.291
X113.441 Y-50.043
X113.696 Y-50.61
X113.946 Y-51.064
X114.014 Y-51.167
X114.22 Y-51.416
X114.476 Y-51.614
X114.768 Y-51.752
X115.084 Y-51.823
X115.407 Y-51.825
X117.807 Y-51.57
G3 X118.353 Y-50.947 Z-2.819 I-0.089 J0.629
G1 X118.354 Y-50.852 Z-2.8
X118.544 Y-31.437
X118.542 Y-31.385
G3 X117.864 Y-30.797 Z-3 I-0.633 J-0.046
G1 X115.378 Y-31.061
X115.223 Y-31.086
X114.985 Y-31.143
X114.723 Y-31.229
X114.45 Y-31.343
X114.135 Y-31.506
X113.824 Y-31.7
X113.471 Y-31.962
X113.117 Y-32.272
X112.732 Y-32.667
X112.354 Y-33.122
X111.952 Y-33.696
X111.546 Y-34.388
X111.148 Y-35.209
X110.818 Y-36.059
X110.547 Y-36.929
X110.327 Y-37.814
X110.152 Y-38.709
X110.019 Y-39.611
X109.922 Y-40.517
X109.861 Y-41.427
X109.832 Y-42.339
X109.835 Y-43.25
X109.868 Y-44.162
X109.932 Y-45.071
X110.027 Y-45.978
X110.154 Y-46.881
X110.318 Y-47.778
X110.522 Y-48.667
X110.772 Y-49.543
X111.04 Y-50.296
X111.295 Y-50.863
X111.545 Y-51.317
X111.613 Y-51.422
X111.82 Y-51.671
X112.075 Y-51.869
X112.368 Y-52.007
X112.683 Y-52.078
X113.007 Y-52.08
X115.407 Y-51.825
G3 X115.953 Y-51.199 Z-2.819 I-0.089 J0.629
G1 X115.954 Y-51.107 Z-2.8
X116.058 Y-31.698
X116.057 Y-31.649
G3 X115.378 Y-31.061 Z-3 I-0.633 J-0.046
G1 X113.1 Y-31.303
X112.816 Y-31.348
X112.579 Y-31.405
X112.317 Y-31.491
X112.045 Y-31.605
X111.73 Y-31.768
X111.42 Y-31.961
X111.067 Y-32.223
X110.714 Y-32.531
X110.329 Y-32.927
X109.953 Y-33.381
X109.551 Y-33.954
X109.145 Y-34.645
X108.748 Y-35.466
X108.417 Y-36.316
X108.146 Y-37.186
X107.926 Y-38.071
X107.751 Y-38.966
X107.618 Y-39.868
X107.522 Y-40.775
X107.461 Y-41.685
X107.432 Y-42.596
X107.435 Y-43.508
X107.468 Y-44.419
X107.532 Y-45.329
X107.627 Y-46.236
X107.755 Y-47.138
X107.919 Y-48.035
X108.122 Y-48.924
X108.373 Y-49.801
X108.64 Y-50.553
X108.895 Y-51.119
X109.145 Y-51.573
X109.213 Y-51.677
X109.42 Y-51.926
X109.675 Y-52.124
X109.968 Y-52.262
X110.283 Y-52.333
X110.607 Y-52.335
X113.007 Y-52.08
G3 X113.553 Y-51.458 Z-2.819 I-0.089 J0.629
G1 X113.554 Y-51.362 Z-2.8
X113.78 Y-31.944
X113.778 Y-31.891
G3 X113.1 Y-31.303 Z-3 I-0.633 J-0.046
G1 X110.614 Y-31.568
X110.421 Y-31.598
X110.183 Y-31.655
X109.921 Y-31.741
X109.648 Y-31.855
X109.333 Y-32.018
X109.023 Y-32.212
X108.669 Y-32.474
X108.315 Y-32.783
X107.93 Y-33.178
X107.553 Y-33.634
X107.151 Y-34.207
X106.745 Y-34.899
X106.348 Y-35.719
X106.017 Y-36.569
X105.746 Y-37.44
X105.526 Y-38.325
X105.351 Y-39.22
X105.218 Y-40.122
X105.122 Y-41.028
X105.06 Y-41.938
X105.032 Y-42.85
X105.034 Y-43.761
X105.068 Y-44.673
X105.131 Y-45.582
X105.226 Y-46.489
X105.354 Y-47.392
X105.518 Y-48.289
X105.722 Y-49.177
X105.972 Y-50.054
X106.24 Y-50.807
X106.495 Y-51.374
X106.744 Y-51.828
X106.813 Y-51.932
X107.019 Y-52.181
X107.275 Y-52.379
X107.567 Y-52.517
X107.883 Y-52.589
X108.206 Y-52.59
X110.607 Y-52.335
G3 X111.152 Y-51.71 Z-2.819 I-0.089 J0.629
G1 X111.153 Y-51.617 Z-2.8
X111.294 Y-32.206
X111.292 Y-32.155
G3 X110.614 Y-31.568 Z-3 I-0.633 J-0.046
G1 X108.335 Y-31.81
X108.015 Y-31.86
X107.777 Y-31.917
X107.516 Y-32.003
X107.244 Y-32.117
X106.928 Y-32.28
X106.619 Y-32.473
X106.266 Y-32.735
X105.913 Y-33.043
X105.528 Y-33.438
X105.152 Y-33.893
X104.75 Y-34.465
X104.344 Y-35.157
X103.947 Y-35.977
X103.617 Y-36.827
X103.345 Y-37.698
X103.125 Y-38.583
X102.951 Y-39.478
X102.817 Y-40.38
X102.721 Y-41.286
X102.66 Y-42.196
X102.631 Y-43.108
X102.634 Y-44.019
X102.667 Y-44.931
X102.731 Y-45.84
X102.826 Y-46.747
X102.954 Y-47.65
X103.118 Y-48.547
X103.322 Y-49.435
X103.572 Y-50.312
X103.84 Y-51.064
X104.095 Y-51.63
X104.345 Y-52.084
X104.413 Y-52.187
X104.619 Y-52.436
X104.875 Y-52.634
X105.167 Y-52.772
X105.483 Y-52.844
X105.806 Y-52.845
X108.206 Y-52.59
G3 X108.752 Y-51.969 Z-2.82 I-0.089 J0.629
G1 X108.753 Y-51.872 Z-2.8
X109.015 Y-32.452
X109.014 Y-32.398
G3 X108.335 Y-31.81 Z-3 I-0.633 J-0.046
G1 X105.849 Y-32.074
X105.619 Y-32.11
X105.382 Y-32.167
X105.119 Y-32.253
X104.847 Y-32.367
X104.532 Y-32.53
X104.222 Y-32.724
X103.868 Y-32.986
X103.514 Y-33.295
X103.129 Y-33.69
X102.752 Y-34.145
X102.351 Y-34.718
X101.944 Y-35.41
X101.547 Y-36.231
X101.217 Y-37.081
X100.945 Y-37.951
X100.725 Y-38.836
X100.551 Y-39.731
X100.417 Y-40.633
X100.321 Y-41.54
X100.26 Y-42.45
X100.231 Y-43.361
X100.234 Y-44.273
X100.267 Y-45.184
X100.331 Y-46.094
X100.426 Y-47.001
X100.554 Y-47.903
X100.718 Y-48.8
X100.922 Y-49.689
X101.172 Y-50.566
X101.439 Y-51.318
X101.694 Y-51.885
X101.944 Y-52.339
X102.012 Y-52.442
X102.219 Y-52.691
X102.474 Y-52.889
X102.767 Y-53.027
X103.082 Y-53.099
X103.406 Y-53.1
X105.806 Y-52.845
G3 X106.352 Y-52.222 Z-2.819 I-0.089 J0.629
G1 X106.353 Y-52.127 Z-2.8
X106.529 Y-32.713
X106.528 Y-32.662
G3 X105.849 Y-32.074 Z-3 I-0.633 J-0.046
G1 X103.541 Y-32.319
X103.215 Y-32.37
X102.977 Y-32.427
X102.716 Y-32.513
X102.444 Y-32.627
X102.128 Y-32.79
X101.819 Y-32.983
X101.465 Y-33.245
X101.112 Y-33.554
X100.728 Y-33.949
X100.351 Y-34.403
X99.95 Y-34.976
X99.543 Y-35.667
X99.146 Y-36.488
X98.816 Y-37.338
X98.545 Y-38.209
X98.325 Y-39.093
X98.15 Y-39.988
X98.017 Y-40.89
X97.921 Y-41.797
X97.859 Y-42.707
X97.831 Y-43.618
X97.834 Y-44.53
X97.867 Y-45.441
X97.931 Y-46.351
X98.026 Y-47.258
X98.154 Y-48.161
X98.318 Y-49.057
X98.522 Y-49.946
X98.772 Y-50.823
X99.04 Y-51.574
X99.294 Y-52.141
X99.544 Y-52.594
X99.612 Y-52.697
X99.819 Y-52.946
X100.074 Y-53.144
X100.367 Y-53.282
X100.682 Y-53.354
X101.005 Y-53.355
X103.406 Y-53.1
G3 X103.952 Y-52.48 Z-2.82 I-0.089 J0.629
G1 X103.953 Y-52.382 Z-2.8
X104.221 Y-32.961
X104.219 Y-32.907
G3 X103.541 Y-32.319 Z-3 I-0.633 J-0.046
G1 X101.085 Y-32.58
X100.818 Y-32.622
X100.58 Y-32.679
X100.318 Y-32.765
X100.046 Y-32.879
X99.73 Y-33.042
X99.42 Y-33.236
X99.067 Y-33.498
X98.713 Y-33.807
X98.328 Y-34.202
X97.952 Y-34.657
X97.55 Y-35.23
X97.143 Y-35.922
X96.746 Y-36.742
X96.416 Y-37.592
X96.145 Y-38.463
X95.924 Y-39.348
X95.75 Y-40.243
X95.617 Y-41.145
X95.521 Y-42.051
X95.459 Y-42.961
X95.431 Y-43.873
X95.433 Y-44.784
X95.467 Y-45.696
X95.53 Y-46.605
X95.625 Y-47.512
X95.753 Y-48.415
X95.918 Y-49.312
X96.121 Y-50.2
X96.372 Y-51.077
X96.639 Y-51.829
X96.894 Y-52.395
X97.144 Y-52.849
X97.212 Y-52.952
X97.418 Y-53.201
X97.674 Y-53.399
X97.966 Y-53.537
X98.282 Y-53.609
X98.605 Y-53.61
X101.005 Y-53.355
G3 X101.551 Y-52.733 Z-2.819 I-0.089 J0.629
G1 X101.552 Y-52.637 Z-2.8
X101.765 Y-33.22
X101.763 Y-33.168
G3 X101.085 Y-32.58 Z-3 I-0.633 J-0.046
G1 X98.599 Y-32.844
X98.421 Y-32.872
X98.183 Y-32.929
X97.92 Y-33.015
X97.648 Y-33.13
X97.332 Y-33.293
X97.022 Y-33.486
X96.669 Y-33.748
X96.315 Y-34.058
X95.93 Y-34.453
X95.552 Y-34.909
X95.15 Y-35.482
X94.744 Y-36.174
X94.346 Y-36.995
X94.016 Y-37.845
X93.745 Y-38.715
X93.525 Y-39.6
X93.35 Y-40.495
X93.217 Y-41.397
X93.121 Y-42.304
X93.059 Y-43.213
X93.03 Y-44.125
X93.033 Y-45.037
X93.066 Y-45.948
X93.13 Y-46.857
X93.225 Y-47.764
X93.353 Y-48.667
X93.517 Y-49.564
X93.72 Y-50.453
X93.97 Y-51.33
X94.238 Y-52.082
X94.493 Y-52.649
X94.743 Y-53.103
X94.811 Y-53.207
X95.018 Y-53.456
X95.273 Y-53.654
X95.566 Y-53.792
X95.881 Y-53.864
X96.205 Y-53.865
X98.605 Y-53.61
G3 X99.151 Y-52.985 Z-2.819 I-0.089 J0.629
G1 X99.152 Y-52.892 Z-2.8
X99.279 Y-33.482
X99.278 Y-33.432
G3 X98.599 Y-32.844 Z-3 I-0.633 J-0.046
G1 X96.321 Y-33.086
X96.014 Y-33.134
X95.777 Y-33.192
X95.515 Y-33.277
X95.243 Y-33.391
X94.928 Y-33.554
X94.618 Y-33.747
X94.265 Y-34.009
X93.912 Y-34.318
X93.527 Y-34.713
X93.151 Y-35.167
X92.749 Y-35.74
X92.343 Y-36.432
X91.946 Y-37.252
X91.615 Y-38.102
X91.344 Y-38.973
X91.124 Y-39.858
X90.949 Y-40.753
X90.816 Y-41.655
X90.72 Y-42.561
X90.659 Y-43.471
X90.63 Y-44.382
X90.633 Y-45.294
X90.666 Y-46.205
X90.73 Y-47.115
X90.825 Y-48.022
X90.953 Y-48.925
X91.117 Y-49.822
X91.321 Y-50.71
X91.571 Y-51.587
X91.839 Y-52.339
X92.093 Y-52.905
X92.343 Y-53.359
X92.411 Y-53.462
X92.618 Y-53.711
X92.873 Y-53.909
X93.166 Y-54.047
X93.481 Y-54.119
X93.805 Y-54.12
X96.205 Y-53.865
G3 X96.751 Y-53.244 Z-2.819 I-0.089 J0.629
G1 X96.752 Y-53.147 Z-2.8
X97.001 Y-33.728
X96.999 Y-33.674
G3 X96.321 Y-33.086 Z-3 I-0.633 J-0.046
G1 X93.835 Y-33.35
X93.619 Y-33.384
X93.381 Y-33.441
X93.119 Y-33.527
X92.846 Y-33.642
X92.531 Y-33.805
X92.221 Y-33.998
X91.867 Y-34.26
X91.513 Y-34.569
X91.128 Y-34.965
X90.751 Y-35.42
X90.349 Y-35.993
X89.943 Y-36.685
X89.546 Y-37.506
X89.216 Y-38.356
X88.944 Y-39.226
X88.724 Y-40.111
X88.549 Y-41.006
X88.416 Y-41.908
X88.32 Y-42.815
X88.258 Y-43.724
X88.23 Y-44.636
X88.232 Y-45.548
X88.266 Y-46.459
X88.329 Y-47.368
X88.424 Y-48.275
X88.552 Y-49.178
X88.716 Y-50.075
X88.92 Y-50.964
X89.17 Y-51.841
X89.438 Y-52.592
X89.693 Y-53.16
X89.942 Y-53.613
X90.011 Y-53.717
X90.217 Y-53.966
X90.473 Y-54.164
X90.765 Y-54.302
X91.081 Y-54.374
X91.404 Y-54.375
X93.805 Y-54.12
G3 X94.35 Y-53.496 Z-2.819 I-0.089 J0.629
G1 X94.351 Y-53.402 Z-2.8
X94.515 Y-33.989
X94.513 Y-33.938
G3 X93.835 Y-33.35 Z-3 I-0.633 J-0.046
G1 X91.349 Y-33.614
X91.201 Y-33.638
X90.96 Y-33.698
X90.697 Y-33.786
X90.421 Y-33.904
X90.103 Y-34.071
X89.792 Y-34.269
X89.433 Y-34.539
X89.081 Y-34.851
X88.692 Y-35.257
X88.315 Y-35.719
X87.915 Y-36.3
X87.508 Y-37.003
X87.117 Y-37.827
X86.792 Y-38.679
X86.524 Y-39.551
X86.308 Y-40.436
X86.137 Y-41.332
X86.006 Y-42.234
X85.913 Y-43.141
X85.854 Y-44.051
X85.828 Y-44.963
X85.834 Y-45.875
X85.869 Y-46.786
X85.936 Y-47.695
X86.034 Y-48.602
X86.164 Y-49.504
X86.33 Y-50.401
X86.537 Y-51.289
X86.791 Y-52.164
X87.058 Y-52.899
X87.308 Y-53.447
X87.561 Y-53.9
X87.614 Y-53.98
X87.821 Y-54.226
X88.076 Y-54.422
X88.367 Y-54.559
X88.681 Y-54.629
X89.003 Y-54.63
X91.404 Y-54.375
G3 X91.95 Y-53.749 Z-2.818 I-0.089 J0.629
G1 X91.951 Y-53.657 Z-2.8
X92.029 Y-34.25
X92.028 Y-34.202
G3 X91.349 Y-33.614 Z-3 I-0.633 J-0.046
G1 X89.071 Y-33.857
X88.811 Y-33.897
X88.578 Y-33.953
X88.312 Y-34.041
X88.043 Y-34.153
X87.731 Y-34.315
X87.417 Y-34.511
X87.07 Y-34.767
X86.71 Y-35.082
X86.332 Y-35.471
X85.95 Y-35.932
X85.546 Y-36.508
X85.142 Y-37.196
X84.746 Y-38.012
X84.416 Y-38.862
X84.145 Y-39.733
X83.924 Y-40.618
X83.75 Y-41.512
X83.616 Y-42.414
X83.52 Y-43.321
X83.458 Y-44.231
X83.429 Y-45.142
X83.432 Y-46.054
X83.465 Y-46.965
X83.528 Y-47.875
X83.623 Y-48.782
X83.751 Y-49.684
X83.915 Y-50.581
X84.119 Y-51.47
X84.369 Y-52.347
X84.637 Y-53.102
X84.893 Y-53.671
X85.141 Y-54.123
X85.21 Y-54.227
X85.416 Y-54.476
X85.672 Y-54.674
X85.964 Y-54.812
X86.28 Y-54.884
X86.603 Y-54.885
X89.003 Y-54.63
G3 X89.549 Y-54.008 Z-2.819 I-0.089 J0.629
G1 X89.55 Y-53.912 Z-2.8
X89.751 Y-34.497
X89.749 Y-34.444
G3 X89.071 Y-33.857 Z-3 I-0.633 J-0.046
G1 X86.585 Y-34.121
X86.419 Y-34.147
X86.182 Y-34.204
X85.918 Y-34.29
X85.646 Y-34.404
X85.33 Y-34.567
X85.02 Y-34.761
X84.667 Y-35.023
X84.313 Y-35.332
X83.928 Y-35.727
X83.551 Y-36.182
X83.15 Y-36.755
X82.743 Y-37.447
X82.346 Y-38.268
X82.015 Y-39.118
X81.744 Y-39.988
X81.524 Y-40.873
X81.349 Y-41.768
X81.215 Y-42.67
X81.119 Y-43.577
X81.058 Y-44.487
X81.029 Y-45.398
X81.031 Y-46.31
X81.065 Y-47.221
X81.128 Y-48.131
X81.223 Y-49.037
X81.351 Y-49.94
X81.515 Y-50.837
X81.719 Y-51.726
X81.969 Y-52.603
X82.236 Y-53.355
X82.491 Y-53.923
X82.741 Y-54.377
X82.81 Y-54.482
X83.016 Y-54.731
X83.272 Y-54.929
X83.564 Y-55.067
X83.88 Y-55.139
X84.203 Y-55.14
X86.603 Y-54.885
G3 X87.149 Y-54.26 Z-2.819 I-0.089 J0.629
G1 X87.15 Y-54.167 Z-2.8
X87.265 Y-34.758
X87.263 Y-34.709
G3 X86.585 Y-34.121 Z-3 I-0.633 J-0.046
G1 X84.306 Y-34.363
X84.013 Y-34.409
X83.775 Y-34.466
X83.514 Y-34.552
X83.242 Y-34.666
X82.926 Y-34.829
X82.617 Y-35.022
X82.264 Y-35.284
X81.911 Y-35.592
X81.526 Y-35.987
X81.149 Y-36.442
X80.748 Y-37.014
X80.342 Y-37.706
X79.944 Y-38.527
X79.614 Y-39.377
X79.343 Y-40.247
X79.123 Y-41.132
X78.948 Y-42.027
X78.815 Y-42.929
X78.719 Y-43.836
X78.657 Y-44.745
X78.629 Y-45.657
X78.631 Y-46.569
X78.665 Y-47.48
X78.728 Y-48.389
X78.823 Y-49.296
X78.951 Y-50.199
X79.115 Y-51.096
X79.319 Y-51.985
X79.569 Y-52.861
X79.837 Y-53.613
X80.092 Y-54.18
X80.341 Y-54.634
X80.41 Y-54.737
X80.616 Y-54.986
X80.872 Y-55.185
X81.164 Y-55.323
X81.48 Y-55.394
X81.803 Y-55.395
X84.203 Y-55.14
G3 X84.749 Y-54.519 Z-2.819 I-0.089 J0.629
G1 X84.75 Y-54.422 Z-2.8
X84.986 Y-35.004
X84.985 Y-34.951
G3 X84.306 Y-34.363 Z-3 I-0.633 J-0.046
G1 X81.821 Y-34.627
X81.617 Y-34.659
X81.38 Y-34.716
X81.117 Y-34.802
X80.845 Y-34.916
X80.53 Y-35.079
X80.219 Y-35.273
X79.866 Y-35.535
X79.512 Y-35.844
X79.127 Y-36.239
X78.75 Y-36.694
X78.348 Y-37.268
X77.942 Y-37.96
X77.544 Y-38.78
X77.214 Y-39.63
X76.943 Y-40.501
X76.723 Y-41.386
X76.548 Y-42.281
X76.415 Y-43.182
X76.318 Y-44.089
X76.257 Y-44.999
X76.228 Y-45.91
X76.231 Y-46.822
X76.264 Y-47.733
X76.328 Y-48.643
X76.423 Y-49.55
X76.551 Y-50.453
X76.715 Y-51.35
X76.919 Y-52.238
X77.169 Y-53.115
X77.436 Y-53.867
X77.691 Y-54.434
X77.941 Y-54.888
X78.009 Y-54.992
X78.216 Y-55.241
X78.472 Y-55.44
X78.764 Y-55.578
X79.079 Y-55.649
X79.403 Y-55.65
X81.803 Y-55.395
G3 X82.349 Y-54.771 Z-2.819 I-0.089 J0.629
G1 X82.35 Y-54.677 Z-2.8
X82.501 Y-35.265
X82.499 Y-35.215
G3 X81.821 Y-34.627 Z-3 I-0.633 J-0.046
G1 X79.542 Y-34.869
X79.211 Y-34.921
X78.974 Y-34.978
X78.713 Y-35.064
X78.44 Y-35.178
X78.125 Y-35.341
X77.816 Y-35.534
X77.462 Y-35.796
X77.11 Y-36.104
X76.725 Y-36.499
X76.348 Y-36.954
X75.947 Y-37.526
X75.541 Y-38.218
X75.143 Y-39.038
X74.813 Y-39.888
X74.542 Y-40.759
X74.322 Y-41.644
X74.147 Y-42.539
X74.014 Y-43.441
X73.918 Y-44.347
X73.857 Y-45.257
X73.828 Y-46.168
X73.831 Y-47.08
X73.864 Y-47.991
X73.928 Y-48.901
X74.023 Y-49.808
X74.151 Y-50.711
X74.315 Y-51.608
X74.519 Y-52.496
X74.769 Y-53.373
X75.037 Y-54.124
X75.292 Y-54.691
X75.541 Y-55.145
X75.609 Y-55.248
X75.816 Y-55.497
X76.071 Y-55.695
X76.364 Y-55.833
X76.679 Y-55.904
X77.003 Y-55.905
X79.403 Y-55.65
G3 X79.949 Y-55.03 Z-2.82 I-0.089 J0.629
G1 X79.95 Y-54.932 Z-2.8
X80.222 Y-35.511
X80.22 Y-35.457
G3 X79.542 Y-34.869 Z-3 I-0.633 J-0.046
G1 X77.056 Y-35.133
X76.816 Y-35.171
X76.579 Y-35.228
X76.316 Y-35.314
X76.044 Y-35.428
X75.728 Y-35.591
X75.418 Y-35.785
X75.065 Y-36.047
X74.711 Y-36.356
X74.326 Y-36.751
X73.949 Y-37.206
X73.547 Y-37.779
X73.141 Y-38.471
X72.743 Y-39.292
X72.413 Y-40.142
X72.142 Y-41.012
X71.922 Y-41.897
X71.747 Y-42.792
X71.614 Y-43.694
X71.518 Y-44.601
X71.456 Y-45.511
X71.428 Y-46.422
X71.431 Y-47.334
X71.464 Y-48.245
X71.528 Y-49.155
X71.623 Y-50.061
X71.75 Y-50.964
X71.915 Y-51.861
X72.118 Y-52.75
X72.369 Y-53.627
X72.636 Y-54.378
X72.891 Y-54.945
X73.141 Y-55.399
X73.209 Y-55.503
X73.415 Y-55.752
X73.671 Y-55.95
X73.964 Y-56.088
X74.279 Y-56.159
X74.602 Y-56.16
X77.003 Y-55.905
G3 X77.548 Y-55.282 Z-2.819 I-0.089 J0.629
G1 X77.549 Y-55.187 Z-2.8
X77.736 Y-35.773
X77.735 Y-35.721
G3 X77.056 Y-35.133 Z-3 I-0.633 J-0.046
G1 X74.57 Y-35.397
X74.419 Y-35.421
X74.181 Y-35.478
X73.918 Y-35.564
X73.646 Y-35.678
X73.33 Y-35.842
X73.02 Y-36.035
X72.666 Y-36.297
X72.312 Y-36.607
X71.927 Y-37.002
X71.55 Y-37.458
X71.148 Y-38.031
X70.741 Y-38.723
X70.344 Y-39.544
X70.014 Y-40.394
X69.742 Y-41.264
X69.522 Y-42.149
X69.347 Y-43.044
X69.214 Y-43.946
X69.118 Y-44.853
X69.056 Y-45.763
X69.028 Y-46.674
X69.03 Y-47.586
X69.063 Y-48.497
X69.127 Y-49.407
X69.222 Y-50.313
X69.35 Y-51.216
X69.514 Y-52.113
X69.717 Y-53.002
X69.967 Y-53.879
X70.235 Y-54.631
X70.49 Y-55.199
X70.74 Y-55.653
X70.809 Y-55.757
X71.015 Y-56.006
X71.271 Y-56.205
X71.563 Y-56.343
X71.879 Y-56.414
X72.202 Y-56.415
X74.602 Y-56.16
G3 X75.148 Y-55.535 Z-2.818 I-0.089 J0.629
G1 X75.149 Y-55.442 Z-2.8
X75.25 Y-36.034
X75.249 Y-35.985
G3 X74.57 Y-35.397 Z-3 I-0.633 J-0.046
G1 X72.343 Y-35.634
X72.01 Y-35.686
X71.772 Y-35.743
X71.511 Y-35.829
X71.239 Y-35.943
X70.924 Y-36.106
X70.615 Y-36.299
X70.261 Y-36.561
X69.909 Y-36.869
X69.524 Y-37.264
X69.147 Y-37.718
X68.746 Y-38.291
X68.34 Y-38.982
X67.943 Y-39.803
X67.612 Y-40.653
X67.341 Y-41.523
X67.121 Y-42.408
X66.947 Y-43.303
X66.813 Y-44.205
X66.717 Y-45.112
X66.656 Y-46.022
X66.627 Y-46.933
X66.63 Y-47.845
X66.663 Y-48.756
X66.727 Y-49.666
X66.822 Y-50.572
X66.95 Y-51.475
X67.114 Y-52.372
X67.318 Y-53.261
X67.568 Y-54.138
X67.836 Y-54.889
X68.091 Y-55.456
X68.34 Y-55.91
X68.409 Y-56.013
X68.615 Y-56.262
X68.871 Y-56.46
X69.163 Y-56.598
X69.478 Y-56.669
X69.802 Y-56.67
X72.202 Y-56.415
G3 X72.748 Y-55.795 Z-2.82 I-0.089 J0.629
G1 X72.749 Y-55.697 Z-2.8
X73.023 Y-36.276
X73.021 Y-36.222
G3 X72.343 Y-35.634 Z-3 I-0.633 J-0.046
G1 X69.806 Y-35.903
X69.617 Y-35.933
X69.379 Y-35.99
X69.117 Y-36.076
X68.844 Y-36.19
X68.529 Y-36.354
X68.219 Y-36.547
X67.865 Y-36.809
X67.511 Y-37.119
X67.126 Y-37.514
X66.749 Y-37.969
X66.347 Y-38.543
X65.94 Y-39.235
X65.543 Y-40.055
X65.213 Y-40.905
X64.941 Y-41.776
X64.721 Y-42.661
X64.547 Y-43.556
X64.413 Y-44.458
X64.317 Y-45.364
X64.256 Y-46.274
X64.227 Y-47.185
X64.23 Y-48.097
X64.263 Y-49.008
X64.327 Y-49.918
X64.421 Y-50.825
X64.549 Y-51.728
X64.713 Y-52.625
X64.917 Y-53.513
X65.167 Y-54.39
X65.435 Y-55.142
X65.69 Y-55.71
X65.94 Y-56.164
X66.008 Y-56.268
X66.215 Y-56.516
X66.47 Y-56.715
X66.763 Y-56.853
X67.078 Y-56.924
X67.402 Y-56.925
X69.802 Y-56.67
G3 X70.348 Y-56.046 Z-2.819 I-0.089 J0.629
G1 Y-55.953 Z-2.8
X70.486 Y-36.541
X70.484 Y-36.491
G3 X69.806 Y-35.903 Z-3 I-0.633 J-0.046
G1 X67.527 Y-36.145
X67.21 Y-36.195
X66.973 Y-36.252
X66.712 Y-36.338
X66.439 Y-36.452
X66.124 Y-36.615
X65.815 Y-36.808
X65.461 Y-37.07
X65.108 Y-37.379
X64.724 Y-37.774
X64.347 Y-38.228
X63.946 Y-38.801
X63.539 Y-39.492
X63.142 Y-40.313
X62.812 Y-41.163
X62.541 Y-42.033
X62.321 Y-42.918
X62.146 Y-43.813
X62.013 Y-44.715
X61.917 Y-45.622
X61.855 Y-46.532
X61.827 Y-47.443
X61.829 Y-48.355
X61.863 Y-49.266
X61.927 Y-50.176
X62.022 Y-51.083
X62.149 Y-51.985
X62.314 Y-52.882
X62.518 Y-53.771
X62.768 Y-54.648
X63.035 Y-55.399
X63.29 Y-55.966
X63.54 Y-56.42
X63.608 Y-56.523
X63.814 Y-56.772
X64.07 Y-56.97
X64.362 Y-57.108
X64.678 Y-57.179
X65.001 Y-57.18
X67.402 Y-56.925
G3 X67.947 Y-56.305 Z-2.82 I-0.089 J0.629
G1 X67.949 Y-56.208 Z-2.8
X68.207 Y-36.787
X68.206 Y-36.733
G3 X67.527 Y-36.145 Z-3 I-0.633 J-0.046
G1 X65.042 Y-36.41
X64.815 Y-36.445
X64.578 Y-36.502
X64.315 Y-36.588
X64.043 Y-36.702
X63.727 Y-36.866
X63.417 Y-37.059
X63.064 Y-37.321
X62.71 Y-37.63
X62.325 Y-38.026
X61.948 Y-38.481
X61.546 Y-39.054
X61.14 Y-39.746
X60.742 Y-40.567
X60.412 Y-41.416
X60.141 Y-42.287
X59.921 Y-43.172
X59.746 Y-44.067
X59.613 Y-44.969
X59.517 Y-45.875
X59.455 Y-46.785
X59.426 Y-47.697
X59.429 Y-48.608
X59.462 Y-49.52
X59.526 Y-50.429
X59.621 Y-51.336
X59.749 Y-52.239
X59.913 Y-53.136
X60.117 Y-54.025
X60.367 Y-54.901
X60.635 Y-55.653
X60.89 Y-56.22
X61.139 Y-56.674
X61.208 Y-56.778
X61.414 Y-57.027
X61.67 Y-57.225
X61.962 Y-57.363
X62.278 Y-57.434
X62.601 Y-57.435
X65.001 Y-57.18
G3 X65.547 Y-56.557 Z-2.819 I-0.089 J0.629
G1 X65.548 Y-56.463 Z-2.8
X65.722 Y-37.049
X65.72 Y-36.997
G3 X65.042 Y-36.41 Z-3 I-0.633 J-0.046
G1 X62.593 Y-36.67
X62.416 Y-36.698
X62.178 Y-36.755
X61.916 Y-36.841
X61.644 Y-36.955
X61.328 Y-37.118
X61.018 Y-37.312
X60.664 Y-37.574
X60.31 Y-37.883
X59.925 Y-38.278
X59.548 Y-38.734
X59.146 Y-39.307
X58.74 Y-39.999
X58.342 Y-40.82
X58.012 Y-41.67
X57.741 Y-42.54
X57.521 Y-43.425
X57.346 Y-44.32
X57.212 Y-45.222
X57.116 Y-46.129
X57.055 Y-47.038
X57.026 Y-47.95
X57.029 Y-48.861
X57.062 Y-49.773
X57.126 Y-50.682
X57.221 Y-51.589
X57.348 Y-52.492
X57.512 Y-53.389
X57.716 Y-54.278
X57.966 Y-55.154
X58.234 Y-55.907
X58.489 Y-56.474
X58.738 Y-56.928
X58.807 Y-57.033
X59.014 Y-57.282
X59.269 Y-57.48
X59.562 Y-57.618
X59.877 Y-57.689
X60.201 Y-57.69
X62.601 Y-57.435
G3 X63.147 Y-56.811 Z-2.819 I-0.089 J0.629
G1 Y-56.718 Z-2.8
X63.273 Y-37.307
X63.272 Y-37.258
G3 X62.593 Y-36.67 Z-3 I-0.633 J-0.046
G1 X60.277 Y-36.916
X60.011 Y-36.958
X59.774 Y-37.015
X59.512 Y-37.101
X59.24 Y-37.215
X58.925 Y-37.378
X58.615 Y-37.571
X58.261 Y-37.833
X57.908 Y-38.141
X57.523 Y-38.537
X57.147 Y-38.991
X56.745 Y-39.564
X56.339 Y-40.256
X55.942 Y-41.076
X55.611 Y-41.926
X55.34 Y-42.797
X55.12 Y-43.682
X54.945 Y-44.577
X54.812 Y-45.479
X54.716 Y-46.385
X54.655 Y-47.295
X54.626 Y-48.206
X54.629 Y-49.118
X54.662 Y-50.029
X54.726 Y-50.939
X54.821 Y-51.846
X54.948 Y-52.749
X55.112 Y-53.646
X55.316 Y-54.534
X55.566 Y-55.411
X55.834 Y-56.163
X56.089 Y-56.73
X56.339 Y-57.184
X56.407 Y-57.288
X56.614 Y-57.537
X56.869 Y-57.735
X57.162 Y-57.873
X57.477 Y-57.944
X57.8 Y-57.945
X60.201 Y-57.69
G3 X60.747 Y-57.068 Z-2.819 I-0.089 J0.629
G1 X60.748 Y-56.973 Z-2.8
X60.957 Y-37.556
X60.956 Y-37.504
G3 X60.277 Y-36.916 Z-3 I-0.633 J-0.046
G1 X57.792 Y-37.18
X57.615 Y-37.208
X57.378 Y-37.265
X57.115 Y-37.351
X56.843 Y-37.465
X56.527 Y-37.628
X56.217 Y-37.822
X55.863 Y-38.084
X55.51 Y-38.393
X55.125 Y-38.788
X54.747 Y-39.244
X54.346 Y-39.817
X53.939 Y-40.509
X53.542 Y-41.33
X53.212 Y-42.18
X52.94 Y-43.05
X52.72 Y-43.935
X52.545 Y-44.83
X52.412 Y-45.732
X52.316 Y-46.638
X52.254 Y-47.548
X52.226 Y-48.46
X52.228 Y-49.371
X52.261 Y-50.283
X52.325 Y-51.192
X52.42 Y-52.099
X52.548 Y-53.002
X52.712 Y-53.899
X52.916 Y-54.788
X53.166 Y-55.664
X53.433 Y-56.417
X53.688 Y-56.984
X53.938 Y-57.438
X54.007 Y-57.543
X54.213 Y-57.792
X54.469 Y-57.99
X54.761 Y-58.128
X55.077 Y-58.199
X55.4 Y-58.2
X57.8 Y-57.945
G3 X58.346 Y-57.321 Z-2.819 I-0.089 J0.629
G1 X58.347 Y-57.228 Z-2.8
X58.472 Y-37.817
X58.47 Y-37.768
G3 X57.792 Y-37.18 Z-3 I-0.633 J-0.046
G1 X55.513 Y-37.422
X55.209 Y-37.47
X54.971 Y-37.527
X54.71 Y-37.613
X54.438 Y-37.727
X54.123 Y-37.89
X53.813 Y-38.083
X53.46 Y-38.345
X53.107 Y-38.653
X52.722 Y-39.048
X52.346 Y-39.503
X51.944 Y-40.075
X51.538 Y-40.767
X51.141 Y-41.587
X50.811 Y-42.437
X50.539 Y-43.308
X50.319 Y-44.193
X50.145 Y-45.088
X50.011 Y-45.99
X49.915 Y-46.896
X49.854 Y-47.806
X49.825 Y-48.718
X49.828 Y-49.629
X49.861 Y-50.541
X49.925 Y-51.45
X50.02 Y-52.357
X50.148 Y-53.26
X50.312 Y-54.157
X50.516 Y-55.045
X50.766 Y-55.922
X51.034 Y-56.674
X51.289 Y-57.24
X51.538 Y-57.694
X51.607 Y-57.798
X51.813 Y-58.047
X52.069 Y-58.245
X52.361 Y-58.383
X52.676 Y-58.454
X53 Y-58.455
X55.4 Y-58.2
G3 X55.946 Y-57.58 Z-2.819 I-0.089 J0.629
G1 X55.947 Y-57.483 Z-2.8
X56.193 Y-38.063
X56.191 Y-38.01
G3 X55.513 Y-37.422 Z-3 I-0.633 J-0.046
G1 X53.027 Y-37.686
X52.814 Y-37.72
X52.576 Y-37.777
X52.314 Y-37.863
X52.041 Y-37.977
X51.726 Y-38.14
X51.416 Y-38.333
X51.062 Y-38.596
X50.708 Y-38.905
X50.324 Y-39.3
X49.946 Y-39.755
X49.545 Y-40.328
X49.138 Y-41.02
X48.741 Y-41.841
X48.411 Y-42.691
X48.139 Y-43.561
X47.919 Y-44.446
X47.745 Y-45.341
X47.611 Y-46.243
X47.515 Y-47.15
X47.454 Y-48.06
X47.425 Y-48.971
X47.428 Y-49.883
X47.461 Y-50.794
X47.525 Y-51.704
X47.62 Y-52.611
X47.747 Y-53.513
X47.912 Y-54.41
X48.115 Y-55.299
X48.365 Y-56.176
X48.633 Y-56.928
X48.888 Y-57.495
X49.138 Y-57.949
X49.206 Y-58.053
X49.413 Y-58.302
X49.668 Y-58.5
X49.961 Y-58.638
X50.276 Y-58.709
X50.6 Y-58.71
X53 Y-58.455
G3 X53.546 Y-57.832 Z-2.819 I-0.089 J0.629
G1 X53.547 Y-57.738 Z-2.8
X53.707 Y-38.325
X53.706 Y-38.274
G3 X53.027 Y-37.686 Z-3 I-0.633 J-0.046
G1 X50.542 Y-37.95
X50.393 Y-37.974
X50.151 Y-38.034
X49.889 Y-38.122
X49.612 Y-38.241
X49.294 Y-38.409
X48.983 Y-38.607
X48.623 Y-38.879
X48.272 Y-39.191
X47.882 Y-39.598
X47.505 Y-40.061
X47.105 Y-40.643
X46.698 Y-41.348
X46.308 Y-42.172
X45.984 Y-43.024
X45.717 Y-43.896
X45.501 Y-44.782
X45.33 Y-45.678
X45.2 Y-46.58
X45.107 Y-47.487
X45.049 Y-48.397
X45.023 Y-49.309
X45.029 Y-50.221
X45.065 Y-51.132
X45.132 Y-52.041
X45.23 Y-52.947
X45.361 Y-53.85
X45.528 Y-54.746
X45.735 Y-55.634
X45.989 Y-56.51
X46.256 Y-57.242
X46.506 Y-57.788
X46.759 Y-58.24
X46.81 Y-58.317
X47.017 Y-58.563
X47.272 Y-58.758
X47.563 Y-58.895
X47.876 Y-58.965
X48.198 Y-58.966
X50.6 Y-58.71
G3 X51.146 Y-58.084 Z-2.818 I-0.089 J0.629
G1 Y-57.993 Z-2.8
X51.222 Y-38.586
X51.22 Y-38.538
G3 X50.542 Y-37.95 Z-3 I-0.633 J-0.046
G1 X48.263 Y-38.192
X48.006 Y-38.233
X47.773 Y-38.289
X47.506 Y-38.376
X47.238 Y-38.489
X46.927 Y-38.65
X46.612 Y-38.846
X46.266 Y-39.102
X45.905 Y-39.418
X45.528 Y-39.805
X45.145 Y-40.268
X44.74 Y-40.844
X44.337 Y-41.531
X43.942 Y-42.347
X43.612 Y-43.197
X43.34 Y-44.068
X43.12 Y-44.952
X42.945 Y-45.847
X42.811 Y-46.749
X42.715 Y-47.656
X42.653 Y-48.566
X42.625 Y-49.477
X42.627 Y-50.389
X42.66 Y-51.3
X42.723 Y-52.21
X42.818 Y-53.117
X42.946 Y-54.019
X43.11 Y-54.916
X43.314 Y-55.805
X43.564 Y-56.682
X43.833 Y-57.438
X44.088 Y-58.007
X44.336 Y-58.458
X44.405 Y-58.563
X44.611 Y-58.812
X44.867 Y-59.01
X45.16 Y-59.148
X45.475 Y-59.219
X45.799 Y-59.22
X48.198 Y-58.966
G3 X48.744 Y-58.343 Z-2.819 I-0.089 J0.629
G1 X48.745 Y-58.248 Z-2.8
X48.943 Y-38.832
X48.941 Y-38.78
G3 X48.263 Y-38.192 Z-3 I-0.633 J-0.046
G1 X45.777 Y-38.456
X45.614 Y-38.482
X45.377 Y-38.539
X45.114 Y-38.625
X44.841 Y-38.74
X44.526 Y-38.903
X44.216 Y-39.096
X43.862 Y-39.358
X43.509 Y-39.667
X43.124 Y-40.062
X42.747 Y-40.517
X42.345 Y-41.09
X41.938 Y-41.783
X41.541 Y-42.603
X41.211 Y-43.453
X40.939 Y-44.324
X40.719 Y-45.209
X40.544 Y-46.104
X40.411 Y-47.006
X40.315 Y-47.912
X40.253 Y-48.822
X40.224 Y-49.733
X40.227 Y-50.645
X40.26 Y-51.556
X40.323 Y-52.466
X40.418 Y-53.373
X40.546 Y-54.276
X40.71 Y-55.173
X40.914 Y-56.061
X41.164 Y-56.938
X41.431 Y-57.691
X41.686 Y-58.258
X41.936 Y-58.712
X42.005 Y-58.817
X42.211 Y-59.067
X42.467 Y-59.265
X42.76 Y-59.403
X43.075 Y-59.474
X43.399 Y-59.475
X45.799 Y-59.22
G3 X46.344 Y-58.595 Z-2.819 I-0.089 J0.629
G1 X46.345 Y-58.503 Z-2.8
X46.457 Y-39.094
X46.456 Y-39.044
G3 X45.777 Y-38.456 Z-3 I-0.633 J-0.046
G1 X43.499 Y-38.699
X43.208 Y-38.744
X42.97 Y-38.801
X42.709 Y-38.887
X42.437 Y-39.001
X42.122 Y-39.164
X41.812 Y-39.357
X41.459 Y-39.619
X41.106 Y-39.927
X40.721 Y-40.323
X40.345 Y-40.777
X39.943 Y-41.35
X39.537 Y-42.041
X39.14 Y-42.862
X38.809 Y-43.712
X38.538 Y-44.582
X38.318 Y-45.467
X38.143 Y-46.362
X38.01 Y-47.264
X37.914 Y-48.171
X37.852 Y-49.081
X37.824 Y-49.992
X37.826 Y-50.904
X37.86 Y-51.815
X37.924 Y-52.725
X38.019 Y-53.632
X38.146 Y-54.534
X38.311 Y-55.431
X38.514 Y-56.32
X38.764 Y-57.197
X39.032 Y-57.948
X39.287 Y-58.515
X39.537 Y-58.969
X39.605 Y-59.073
X39.811 Y-59.322
X40.067 Y-59.52
X40.36 Y-59.658
X40.675 Y-59.729
X40.998 Y-59.73
X43.399 Y-59.475
G3 X43.944 Y-58.854 Z-2.819 I-0.089 J0.629
G1 X43.946 Y-58.758 Z-2.8
X44.179 Y-39.34
X44.177 Y-39.286
G3 X43.499 Y-38.699 Z-3 I-0.633 J-0.046
G1 X41.144 Y-38.949
X40.807 Y-39.002
X40.57 Y-39.059
X40.308 Y-39.144
X40.036 Y-39.259
X39.721 Y-39.422
X39.412 Y-39.615
X39.058 Y-39.877
X38.705 Y-40.185
X38.32 Y-40.58
X37.944 Y-41.035
X37.542 Y-41.607
X37.136 Y-42.299
X36.739 Y-43.119
X36.409 Y-43.969
X36.137 Y-44.84
X35.917 Y-45.725
X35.743 Y-46.62
X35.609 Y-47.522
X35.513 Y-48.428
X35.452 Y-49.338
X35.424 Y-50.25
X35.426 Y-51.161
X35.46 Y-52.073
X35.524 Y-52.982
X35.619 Y-53.889
X35.747 Y-54.792
X35.911 Y-55.689
X36.115 Y-56.577
X36.365 Y-57.454
X36.633 Y-58.205
X36.887 Y-58.771
X37.137 Y-59.225
X37.205 Y-59.328
X37.411 Y-59.577
X37.667 Y-59.775
X37.959 Y-59.913
X38.275 Y-59.984
X38.598 Y-59.986
X40.998 Y-59.73
G3 X41.544 Y-59.111 Z-2.82 I-0.089 J0.629
G1 X41.546 Y-59.013 Z-2.8
X41.824 Y-39.591
X41.823 Y-39.537
G3 X41.144 Y-38.949 Z-3 I-0.633 J-0.046
G1 X38.734 Y-39.205
X38.409 Y-39.256
X38.171 Y-39.313
X37.909 Y-39.399
X37.637 Y-39.513
X37.322 Y-39.676
X37.012 Y-39.869
X36.659 Y-40.131
X36.305 Y-40.44
X35.92 Y-40.835
X35.544 Y-41.29
X35.142 Y-41.863
X34.736 Y-42.554
X34.339 Y-43.375
X34.008 Y-44.225
X33.737 Y-45.095
X33.517 Y-45.98
X33.343 Y-46.875
X33.209 Y-47.777
X33.113 Y-48.684
X33.052 Y-49.594
X33.023 Y-50.505
X33.026 Y-51.417
X33.06 Y-52.328
X33.123 Y-53.238
X33.218 Y-54.145
X33.346 Y-55.047
X33.511 Y-55.944
X33.715 Y-56.833
X33.965 Y-57.71
X34.232 Y-58.461
X34.487 Y-59.027
X34.737 Y-59.481
X34.805 Y-59.583
X35.011 Y-59.832
X35.267 Y-60.03
X35.559 Y-60.168
X35.874 Y-60.239
X36.198 Y-60.241
X38.598 Y-59.986
G3 X39.144 Y-59.366 Z-2.82 I-0.089 J0.629
G1 X39.145 Y-59.268 Z-2.8
X39.414 Y-39.847
X39.413 Y-39.793
G3 X38.734 Y-39.205 Z-3 I-0.633 J-0.046
G1 X36.248 Y-39.469
X36.012 Y-39.506
X35.775 Y-39.563
X35.512 Y-39.649
X35.24 Y-39.763
X34.924 Y-39.927
X34.614 Y-40.12
X34.261 Y-40.382
X33.907 Y-40.691
X33.522 Y-41.087
X33.145 Y-41.542
X32.743 Y-42.115
X32.336 Y-42.807
X31.939 Y-43.628
X31.609 Y-44.478
X31.337 Y-45.348
X31.117 Y-46.233
X30.943 Y-47.128
X30.809 Y-48.03
X30.713 Y-48.937
X30.652 Y-49.847
X30.623 Y-50.758
X30.626 Y-51.67
X30.659 Y-52.581
X30.723 Y-53.491
X30.818 Y-54.397
X30.946 Y-55.3
X31.11 Y-56.197
X31.314 Y-57.086
X31.564 Y-57.963
X31.832 Y-58.714
X32.086 Y-59.281
X32.336 Y-59.735
X32.404 Y-59.838
X32.611 Y-60.087
X32.866 Y-60.285
X33.159 Y-60.423
X33.474 Y-60.494
X33.798 Y-60.496
X36.198 Y-60.241
G3 X36.744 Y-59.618 Z-2.819 I-0.089 J0.629
G1 X36.745 Y-59.523 Z-2.8
X36.928 Y-40.108
X36.927 Y-40.057
G3 X36.248 Y-39.469 Z-3 I-0.633 J-0.046
G1 X33.763 Y-39.733
X33.614 Y-39.756
X33.377 Y-39.813
X33.114 Y-39.9
X32.842 Y-40.014
X32.526 Y-40.177
X32.215 Y-40.371
X31.862 Y-40.633
X31.508 Y-40.942
X31.123 Y-41.338
X30.745 Y-41.793
X30.343 Y-42.367
X29.937 Y-43.059
X29.539 Y-43.88
X29.209 Y-44.73
X28.938 Y-45.6
X28.717 Y-46.485
X28.543 Y-47.38
X28.409 Y-48.282
X28.313 Y-49.189
X28.252 Y-50.098
X28.223 Y-51.01
X28.225 Y-51.921
X28.259 Y-52.833
X28.322 Y-53.742
X28.417 Y-54.649
X28.545 Y-55.552
X28.709 Y-56.449
X28.913 Y-57.338
X29.163 Y-58.214
X29.43 Y-58.967
X29.685 Y-59.534
X29.935 Y-59.988
X30.004 Y-60.093
X30.21 Y-60.342
X30.466 Y-60.54
X30.758 Y-60.678
X31.074 Y-60.749
X31.397 Y-60.751
X33.798 Y-60.496
G3 X34.343 Y-59.87 Z-2.818 I-0.089 J0.629
G1 X34.344 Y-59.778 Z-2.8
X34.443 Y-40.37
X34.441 Y-40.321
G3 X33.763 Y-39.733 Z-3 I-0.633 J-0.046
G1 X31.484 Y-39.975
X31.207 Y-40.019
X30.97 Y-40.076
X30.708 Y-40.161
X30.436 Y-40.276
X30.121 Y-40.439
X29.811 Y-40.632
X29.458 Y-40.894
X29.105 Y-41.202
X28.72 Y-41.597
X28.343 Y-42.052
X27.942 Y-42.624
X27.536 Y-43.316
X27.138 Y-44.137
X26.808 Y-44.987
X26.537 Y-45.857
X26.317 Y-46.742
X26.142 Y-47.637
X26.009 Y-48.539
X25.913 Y-49.446
X25.851 Y-50.356
X25.823 Y-51.267
X25.825 Y-52.179
X25.859 Y-53.09
X25.922 Y-54
X26.017 Y-54.906
X26.145 Y-55.809
X26.309 Y-56.706
X26.513 Y-57.595
X26.763 Y-58.472
X27.031 Y-59.224
X27.286 Y-59.79
X27.535 Y-60.244
X27.604 Y-60.348
X27.81 Y-60.597
X28.066 Y-60.795
X28.358 Y-60.933
X28.674 Y-61.004
X28.997 Y-61.006
X31.397 Y-60.751
G3 X31.943 Y-60.129 Z-2.819 I-0.089 J0.629
G1 X31.944 Y-60.033 Z-2.8
X32.164 Y-40.616
X32.162 Y-40.563
G3 X31.484 Y-39.975 Z-3 I-0.633 J-0.046
G1 X28.998 Y-40.239
X28.812 Y-40.269
X28.574 Y-40.326
X28.312 Y-40.412
X28.039 Y-40.526
X27.724 Y-40.689
X27.414 Y-40.882
X27.06 Y-41.145
X26.706 Y-41.454
X26.321 Y-41.849
X25.944 Y-42.304
X25.542 Y-42.878
X25.136 Y-43.57
X24.738 Y-44.39
X24.408 Y-45.24
X24.137 Y-46.111
X23.917 Y-46.996
X23.742 Y-47.891
X23.609 Y-48.793
X23.512 Y-49.699
X23.451 Y-50.609
X23.422 Y-51.52
X23.425 Y-52.432
X23.458 Y-53.343
X23.522 Y-54.253
X23.617 Y-55.16
X23.744 Y-56.063
X23.909 Y-56.96
X24.112 Y-57.848
X24.362 Y-58.725
X24.63 Y-59.477
X24.885 Y-60.045
X25.135 Y-60.499
X25.203 Y-60.603
X25.41 Y-60.852
X25.665 Y-61.05
X25.958 Y-61.188
X26.273 Y-61.26
X26.597 Y-61.261
X28.997 Y-61.006
G3 X29.543 Y-60.381 Z-2.819 I-0.089 J0.629
G1 X29.544 Y-60.288 Z-2.8
X29.678 Y-40.877
X29.677 Y-40.827
G3 X28.998 Y-40.239 Z-3 I-0.633 J-0.046
G1 X26.72 Y-40.481
X26.406 Y-40.531
X26.168 Y-40.588
X25.907 Y-40.673
X25.635 Y-40.788
X25.319 Y-40.951
X25.01 Y-41.143
X24.656 Y-41.406
X24.304 Y-41.714
X23.919 Y-42.109
X23.542 Y-42.563
X23.141 Y-43.136
X22.735 Y-43.827
X22.337 Y-44.648
X22.007 Y-45.498
X21.736 Y-46.369
X21.516 Y-47.253
X21.341 Y-48.148
X21.208 Y-49.05
X21.112 Y-49.957
X21.051 Y-50.867
X21.022 Y-51.778
X21.025 Y-52.69
X21.058 Y-53.601
X21.122 Y-54.511
X21.217 Y-55.418
X21.345 Y-56.321
X21.509 Y-57.217
X21.713 Y-58.106
X21.963 Y-58.983
X22.231 Y-59.734
X22.485 Y-60.301
X22.735 Y-60.755
X22.803 Y-60.858
X23.01 Y-61.107
X23.265 Y-61.305
X23.558 Y-61.443
X23.873 Y-61.515
X24.196 Y-61.516
X26.597 Y-61.261
G3 X27.143 Y-60.64 Z-2.82 I-0.089 J0.629
G1 X27.144 Y-60.543 Z-2.8
X27.4 Y-41.123
X27.398 Y-41.069
G3 X26.72 Y-40.481 Z-3 I-0.633 J-0.046
G1 X24.234 Y-40.745
X24.01 Y-40.781
X23.773 Y-40.838
X23.51 Y-40.924
X23.238 Y-41.038
X22.922 Y-41.201
X22.612 Y-41.394
X22.259 Y-41.656
X21.905 Y-41.966
X21.52 Y-42.361
X21.143 Y-42.816
X20.741 Y-43.389
X20.335 Y-44.081
X19.938 Y-44.902
X19.607 Y-45.752
X19.336 Y-46.622
X19.116 Y-47.507
X18.941 Y-48.402
X18.808 Y-49.304
X18.712 Y-50.211
X18.65 Y-51.121
X18.622 Y-52.032
X18.624 Y-52.944
X18.658 Y-53.855
X18.721 Y-54.764
X18.816 Y-55.671
X18.944 Y-56.574
X19.108 Y-57.471
X19.312 Y-58.36
X19.562 Y-59.237
X19.83 Y-59.989
X20.085 Y-60.555
X20.334 Y-61.009
X20.403 Y-61.113
X20.609 Y-61.362
X20.865 Y-61.56
X21.157 Y-61.698
X21.473 Y-61.77
X21.796 Y-61.771
X24.196 Y-61.516
G3 X24.742 Y-60.893 Z-2.819 I-0.089 J0.629
G1 X24.743 Y-60.798 Z-2.8
X24.914 Y-41.384
X24.912 Y-41.333
G3 X24.234 Y-40.745 Z-3 I-0.633 J-0.046
G1 X21.748 Y-41.01
X21.6 Y-41.033
X21.36 Y-41.092
X21.098 Y-41.179
X20.823 Y-41.296
X20.506 Y-41.462
X20.195 Y-41.658
X19.838 Y-41.925
X19.485 Y-42.236
X19.097 Y-42.638
X18.721 Y-43.097
X18.319 Y-43.676
X17.913 Y-44.375
X17.519 Y-45.198
X17.192 Y-46.049
X16.923 Y-46.92
X16.705 Y-47.806
X16.533 Y-48.701
X16.402 Y-49.603
X16.307 Y-50.51
X16.248 Y-51.42
X16.221 Y-52.332
X16.225 Y-53.243
X16.26 Y-54.155
X16.325 Y-55.064
X16.422 Y-55.971
X16.551 Y-56.873
X16.717 Y-57.77
X16.923 Y-58.658
X17.175 Y-59.534
X17.442 Y-60.275
X17.694 Y-60.831
X17.945 Y-61.284
X18.005 Y-61.373
X18.211 Y-61.62
X18.467 Y-61.817
X18.758 Y-61.954
X19.073 Y-62.025
X19.395 Y-62.026
X21.796 Y-61.771
G3 X22.342 Y-61.145 Z-2.818 I-0.089 J0.629
G1 X22.343 Y-61.053 Z-2.8
X22.428 Y-41.646
X22.427 Y-41.597
G3 X21.748 Y-41.01 Z-3 I-0.633 J-0.046
G1 X19.47 Y-41.252
X19.204 Y-41.293
X18.969 Y-41.35
X18.704 Y-41.437
X18.435 Y-41.55
X18.121 Y-41.712
X17.809 Y-41.906
X17.46 Y-42.165
X17.103 Y-42.478
X16.722 Y-42.869
X16.342 Y-43.328
X15.939 Y-43.902
X15.533 Y-44.592
X15.138 Y-45.41
X14.808 Y-46.26
X14.536 Y-47.13
X14.435 Y-47.535
X14.404 Y-47.704
X14.392 Y-47.877
X14.4 Y-48.049
G3 X15.117 Y-48.589 Z-2.8 I0.629 J0.089
X15.539 Y-48.337 I-0.089 J0.629
G1 X20.025 Y-42.262
G3 X20.148 Y-41.84 I-0.511 J0.377
X19.47 Y-41.252 Z-3 I-0.633 J-0.046
G1 X16.984 Y-41.516
X16.811 Y-41.543
X16.573 Y-41.6
X16.31 Y-41.686
X16.038 Y-41.8
X15.722 Y-41.964
X15.412 Y-42.157
X15.058 Y-42.419
X14.705 Y-42.728
X14.406 Y-43.036
X14.206 Y-43.292
X14.067 Y-43.585
X13.995 Y-43.901
X13.994 Y-44.226
G3 X14.711 Y-44.766 Z-2.8 I0.629 J0.089
X15.027 Y-44.626 I-0.089 J0.629
G1 X17.433 Y-42.639
G3 X17.662 Y-42.104 I-0.404 J0.49
X16.984 Y-41.516 Z-3 I-0.633 J-0.046
G1 X14.705 Y-41.758
X14.527 Y-41.786
X14.285 Y-41.882
X14.081 Y-42.044
X13.931 Y-42.256
X13.848 Y-42.502
X13.838 Y-42.762
G3 X14.17 Y-43.37 Z-2.858 I0.976 J0.138
X14.415 Y-43.522 Z-2.8 I0.601 J0.696
X15.551 Y-42.189 I0.356 J0.847
X14.705 Y-41.758 Z-3 I-0.78 J-0.486
G1 X14.498 Y-41.78
X14.291 Y-41.81
X14.238 Y-41.827
X14.186 Y-41.849
X14.135 Y-41.876
X14.084 Y-41.91
X14.042 Y-41.943
X14 Y-41.983
X13.939 Y-42.056
X13.905 Y-42.106
X13.877 Y-42.155
X13.852 Y-42.209
X13.834 Y-42.264
X13.812 Y-42.367
X13.808 Y-42.471
X13.829 Y-42.678
X15.678 Y-60.081
X15.758 Y-60.59
X15.839 Y-60.926
X15.942 Y-61.241
X15.978 Y-61.326
X16.13 Y-61.603
X16.338 Y-61.841
X16.59 Y-62.029
X16.877 Y-62.16
X17.186 Y-62.227
X17.501
G3 X18.041 Y-61.51 Z-2.8 I-0.089 J0.629
X17.931 Y-61.233 I-0.629 J-0.089
G1 X16.831 Y-59.67
G3 X16.266 Y-59.402 I-0.519 J-0.366
X15.678 Y-60.081 Z-3 I0.046 J-0.633
G1 X15.854 Y-61.738
X15.872 Y-61.842
X15.909 Y-61.945
X15.948 Y-62.018
X15.996 Y-62.085
X16.057 Y-62.152
X16.106 Y-62.195
X16.155 Y-62.23
X16.207 Y-62.26
X16.259 Y-62.283
X16.362 Y-62.315
X16.466 Y-62.329
X16.57 Y-62.326
X19.395 Y-62.026
G3 X19.929 Y-61.519 I-0.089 J0.629
G1 X19.948 Y-61.422 Z-2.992
X19.967 Y-61.326 Z-2.969
X19.985 Y-61.236 Z-2.931
X20.001 Y-61.153 Z-2.879
X20.015 Y-61.078 Z-2.814
X20.028 Y-61.015 Z-2.738
X20.038 Y-60.964 Z-2.653
X20.045 Y-60.926 Z-2.561
X20.05 Y-60.903 Z-2.464
X20.051 Y-60.896 Z-2.365
G0 Z15
X268.663 Y-152.215
Z5
Z2.55
G3 X268.143 Y-147.196 Z2.344 I-2.068 J2.322 F166.7
X263.552 Y-149.275 Z2.139 I-1.546 J-2.694
X266.974 Y-152.968 Z1.933 I3.041 J-0.613
X269.39 Y-148.558 Z1.728 I-0.38 J3.075
X264.448 Y-147.663 Z1.522 I-2.794 J-1.333
X265.163 Y-152.629 Z1.317 I2.146 J-2.225
X269.641 Y-150.381 Z1.111 I1.43 J2.737
X266.096 Y-146.848 Z0.906 I-3.046 J0.489
X263.87 Y-151.325 Z0.7 I0.5 J-3.04
X268.815 Y-152.018 Z0.494 I2.722 J1.435
X267.908 Y-147.114 Z0.289 I-2.22 J2.126
X263.548 Y-149.524 Z0.083 I-1.312 J-2.776
X267.21 Y-152.893 Z-0.122 I3.045 J-0.365
X269.244 Y-148.358 Z-0.328 I-0.617 J3
X264.304 Y-147.865 Z-0.533 I-2.648 J-1.533
X265.399 Y-152.701 Z-0.739 I2.29 J-2.024
X269.635 Y-150.134 Z-0.944 I1.193 J2.809
X265.864 Y-146.932 Z-1.15 I-3.039 J0.242
X264.023 Y-151.518 Z-1.356 I0.731 J-2.956
X268.949 Y-151.812 Z-1.561 I2.569 J1.628
X267.671 Y-147.052 Z-1.767 I-2.354 J1.92
X263.564 Y-149.769 Z-1.972 I-1.074 J-2.838
X267.437 Y-152.8 Z-2.178 I3.028 J-0.121
X269.084 Y-148.172 Z-2.383 I-0.843 J2.907
X264.179 Y-148.075 Z-2.589 I-2.488 J-1.718
X265.638 Y-152.753 Z-2.794 I2.415 J-1.814
X269.609 Y-149.892 Z-3 I0.955 J2.861
X263.576 Y-149.892 I-3.016 J0
X269.609 Y-149.892 I3.016 J0
G1 X269.613 Y-149.664 F500
X269.768 Y-148.765
X269.822 Y-148.625
X269.859 Y-148.48
X269.882 Y-148.332
X269.891 Y-148.182
X269.888 Y-148.024
X269.871 Y-147.855
X269.838 Y-147.676
X269.788 Y-147.489
X269.719 Y-147.296
X269.631 Y-147.098
X269.521 Y-146.899
X269.39 Y-146.699
X269.236 Y-146.502
X269.06 Y-146.311
X268.861 Y-146.127
X268.641 Y-145.953
X268.399 Y-145.793
X268.138 Y-145.649
X267.859 Y-145.522
X267.563 Y-145.415
X267.253 Y-145.331
X266.93 Y-145.271
X266.597 Y-145.236
X266.256 Y-145.228
X265.911 Y-145.247
X265.564 Y-145.295
X265.218 Y-145.372
X264.876 Y-145.477
X264.539 Y-145.61
X264.212 Y-145.771
X263.897 Y-145.96
X263.595 Y-146.175
X263.31 Y-146.414
X263.044 Y-146.677
X262.799 Y-146.962
X262.577 Y-147.267
X262.379 Y-147.589
X262.207 Y-147.928
X262.062 Y-148.28
X261.946 Y-148.644
X261.859 Y-149.016
X261.802 Y-149.395
X261.776 Y-149.778
X261.781 Y-150.163
X261.817 Y-150.546
X261.883 Y-150.925
X261.979 Y-151.298
X262.106 Y-151.663
X262.261 Y-152.016
X262.444 Y-152.357
X262.654 Y-152.681
X262.89 Y-152.988
X263.149 Y-153.275
X263.431 Y-153.54
X263.733 Y-153.782
X264.054 Y-153.999
X264.392 Y-154.189
X264.743 Y-154.352
X265.107 Y-154.486
X265.48 Y-154.591
X265.86 Y-154.665
X266.245 Y-154.709
X266.633 Y-154.721
X267.02 Y-154.702
X267.405 Y-154.653
X267.784 Y-154.572
X268.156 Y-154.462
X268.517 Y-154.321
X268.867 Y-154.153
X269.201 Y-153.957
X269.519 Y-153.734
X269.818 Y-153.487
X270.096 Y-153.217
X270.352 Y-152.925
X270.583 Y-152.613
X270.823 Y-152.229
X271.228 Y-151.448
X271.49 Y-150.823
X271.667 Y-150.286
X271.784 Y-149.799
X271.858 Y-149.335
X271.892 Y-148.884
X271.891 Y-148.449
X271.855 Y-148.024
X271.786 Y-147.609
X271.684 Y-147.204
X271.551 Y-146.808
X271.386 Y-146.423
X271.189 Y-146.05
X270.961 Y-145.692
X270.703 Y-145.35
X270.415 Y-145.026
X270.099 Y-144.724
X269.755 Y-144.444
X269.384 Y-144.189
X268.989 Y-143.961
X268.571 Y-143.764
X268.133 Y-143.598
X267.676 Y-143.466
X267.205 Y-143.37
X266.722 Y-143.311
X266.231 Y-143.291
X265.734 Y-143.311
X265.236 Y-143.372
X264.74 Y-143.472
X264.25 Y-143.614
X263.77 Y-143.795
X263.302 Y-144.016
X262.851 Y-144.276
X262.42 Y-144.572
X262.012 Y-144.904
X261.63 Y-145.27
X261.277 Y-145.667
X260.955 Y-146.092
X260.668 Y-146.544
X260.417 Y-147.018
X260.204 Y-147.513
X260.032 Y-148.025
X259.9 Y-148.55
X259.811 Y-149.085
X259.765 Y-149.626
X259.763 Y-150.17
X259.804 Y-150.714
X259.889 Y-151.253
X260.017 Y-151.784
X260.188 Y-152.303
X260.4 Y-152.808
X260.652 Y-153.294
X260.942 Y-153.759
X261.269 Y-154.199
X261.63 Y-154.612
X262.023 Y-154.995
X262.446 Y-155.345
X262.896 Y-155.66
X263.37 Y-155.938
X263.865 Y-156.178
X264.378 Y-156.376
X264.905 Y-156.533
X265.443 Y-156.648
X265.988 Y-156.718
X266.538 Y-156.745
X267.087 Y-156.728
