(plastic_sheild_design_02)
(T22 D=3.175 CR=0 - ZMIN=-4.76 - flat end mill)
G90 G94
G17
G21
G28 G91 Z0
G90

(2D Adaptive1)
T22
S18000 M3
G17 G90 G94
G54
G0 X-0.327 Y-87.893
Z15
G0 Z5
Z-4.125
G1 Z-4.443 F300
X-0.325 Y-87.885 Z-4.513
X-0.32 Y-87.862 Z-4.58
X-0.31 Y-87.826 Z-4.64
X-0.298 Y-87.777 Z-4.691
X-0.283 Y-87.719 Z-4.729
X-0.266 Y-87.654 Z-4.752
X-0.249 Y-87.585 Z-4.76
G3 X0 Y-85.857 I-7.852 J2.011
G1 Y-85.215
X0.045 Y-85.061
X0.088 Y-84.858
X0.122 Y-84.601
X0.138 Y-84.27
X0.124 Y-83.824
X0.052 Y-83.186
X-0.036 Y-82.549
X-0.114 Y-81.912
X-0.186 Y-81.274
X-0.24 Y-80.634
X-0.272 Y-79.993
X-0.291 Y-79.351
X-0.302 Y-78.709
X-0.308 Y-78.066
X-0.312 Y-77.424
X-0.316 Y-76.14
X-0.317 Y-73.571
Y-35.682
Y-11.279
X-0.306 Y-10.637
X-0.274 Y-9.996
X-0.229 Y-9.355
X-0.16 Y-8.717
X-0.043 Y-8.085
X0.103 Y-7.46
X0.276 Y-6.841
X0.503 Y-6.24
X0.761 Y-5.652
X1.042 Y-5.075
X1.376 Y-4.527
X1.741 Y-3.998
X2.123 Y-3.482
X2.554 Y-3.006
X3.012 Y-2.556
X3.487 Y-2.123
X3.997 Y-1.734
X4.532 Y-1.379
X5.081 Y-1.044
X5.654 Y-0.755
X6.246 Y-0.507
X6.848 Y-0.283
X7.465 Y-0.104
X8.093 Y0.028
X8.727 Y0.133
X9.365 Y0.208
X10.005 Y0.253
X10.647 Y0.28
X11.289 Y0.295
X11.931 Y0.304
X12.573 Y0.31
X13.215 Y0.313
X14.5 Y0.316
X17.711 Y0.317
X18.353
X68.443
X118.534
X168.624
X218.715
X268.805
X308.621
X309.263 Y0.313
X309.905 Y0.285
X310.545 Y0.242
X311.185 Y0.187
X311.818 Y0.079
X312.445 Y-0.061
X313.067 Y-0.221
X313.671 Y-0.437
X314.262 Y-0.69
X314.843 Y-0.963
X315.399 Y-1.285
X315.932 Y-1.643
X316.45 Y-2.022
X316.938 Y-2.44
X317.394 Y-2.892
X317.831 Y-3.362
X318.233 Y-3.863
X318.597 Y-4.392
X318.936 Y-4.937
X319.24 Y-5.503
X319.498 Y-6.091
X319.727 Y-6.691
X319.922 Y-7.303
X320.065 Y-7.929
X320.175 Y-8.562
X320.26 Y-9.198
X320.311 Y-9.839
X320.341 Y-10.48
X320.359 Y-11.122
X320.37 Y-11.764
X320.376 Y-12.406
X320.379 Y-13.048
X320.383 Y-14.333
X320.384 Y-16.902
Y-52.864
Y-78.551
X320.382 Y-79.194
X320.355 Y-79.835
X320.313 Y-80.476
X320.263 Y-81.116
X320.157 Y-81.75
X320.018 Y-82.377
X319.86 Y-82.999
X319.647 Y-83.605
X319.398 Y-84.197
X319.126 Y-84.779
X318.808 Y-85.336
X318.453 Y-85.871
X318.075 Y-86.391
X317.661 Y-86.881
X317.211 Y-87.34
X316.742 Y-87.778
X316.245 Y-88.185
X315.717 Y-88.551
X315.173 Y-88.892
X314.609 Y-89.2
X314.022 Y-89.46
X313.423 Y-89.691
X312.813 Y-89.891
X312.187 Y-90.036
X311.555 Y-90.149
X310.919 Y-90.237
X310.279 Y-90.29
X309.637 Y-90.321
X308.995 Y-90.339
X308.353 Y-90.35
X307.711 Y-90.357
X307.069 Y-90.36
X305.785 Y-90.364
X303.216 Y-90.366
X253.125
X203.035
X152.945
X102.854
X52.764
X11.021
X10.38 Y-90.344
X9.739 Y-90.306
X9.098 Y-90.258
X8.463 Y-90.166
X7.834 Y-90.035
X7.21 Y-89.882
X6.599 Y-89.685
X6.004 Y-89.444
X5.419 Y-89.178
X4.854 Y-88.874
X4.313 Y-88.527
X3.79 Y-88.155
X3.289 Y-87.752
X2.824 Y-87.31
X2.381 Y-86.845
X1.962 Y-86.358
X1.731 Y-85.759
X1.599 Y-85.131
X1.507 Y-84.495
X1.422 Y-83.858
X1.337 Y-83.222
X1.255 Y-82.585
X1.178 Y-81.947
X1.113 Y-81.309
X1.063 Y-80.668
X1.027 Y-80.027
X1.002 Y-79.385
X0.985 Y-78.743
X0.973 Y-78.101
X0.966 Y-77.459
X0.961 Y-76.817
X0.958 Y-76.175
X0.955 Y-74.891
X0.953 Y-72.322
X0.952 Y-38.286
Y-12.599
X0.954 Y-11.956
X0.964 Y-11.314
X0.985 Y-10.672
X1.022 Y-10.031
X1.086 Y-9.392
X1.181 Y-8.757
X1.308 Y-8.128
X1.48 Y-7.509
X1.689 Y-6.902
X1.939 Y-6.31
X2.231 Y-5.738
X2.559 Y-5.186
X2.927 Y-4.66
X3.334 Y-4.163
X3.774 Y-3.695
X4.249 Y-3.263
X4.752 Y-2.864
X5.283 Y-2.502
X5.839 Y-2.182
X6.416 Y-1.899
X7.013 Y-1.662
X7.625 Y-1.469
X8.249 Y-1.317
X8.881 Y-1.202
X9.518 Y-1.119
X10.157 Y-1.062
X10.798 Y-1.024
X11.44 Y-0.998
X12.082 Y-0.982
X12.724 Y-0.971
X13.366 Y-0.964
X14.008 Y-0.96
X14.651 Y-0.957
X15.935 Y-0.954
X17.862 Y-0.953
X67.952 Y-0.952
X118.043
X168.133
X218.223
X268.314
X307.487
X308.129 Y-0.954
X308.772 Y-0.963
X309.413 Y-0.985
X310.055 Y-1.02
X310.694 Y-1.084
X311.328 Y-1.181
X311.957 Y-1.311
X312.576 Y-1.484
X313.183 Y-1.694
X313.774 Y-1.945
X314.345 Y-2.238
X314.896 Y-2.569
X315.42 Y-2.94
X315.915 Y-3.348
X316.382 Y-3.79
X316.814 Y-4.264
X317.212 Y-4.768
X317.574 Y-5.299
X317.893 Y-5.856
X318.173 Y-6.434
X318.41 Y-7.031
X318.602 Y-7.644
X318.754 Y-8.268
X318.869 Y-8.9
X318.951 Y-9.537
X319.007 Y-10.176
X319.045 Y-10.817
X319.07 Y-11.459
X319.086 Y-12.101
X319.096 Y-12.743
X319.103 Y-13.385
X319.107 Y-14.027
X319.112 Y-15.312
X319.114 Y-17.238
X319.115 Y-38.43
Y-54.485
Y-77.604
X319.114 Y-78.246
X319.102 Y-78.888
X319.077 Y-79.53
X319.037 Y-80.171
X318.964 Y-80.809
X318.861 Y-81.443
X318.722 Y-82.07
X318.542 Y-82.686
X318.325 Y-83.29
X318.064 Y-83.877
X317.762 Y-84.444
X317.422 Y-84.989
X317.042 Y-85.507
X316.628 Y-85.997
X316.181 Y-86.458
X315.699 Y-86.883
X315.189 Y-87.273
X314.652 Y-87.625
X314.09 Y-87.936
X313.508 Y-88.208
X312.908 Y-88.436
X312.293 Y-88.62
X311.667 Y-88.765
X311.034 Y-88.871
X310.396 Y-88.947
X309.756 Y-88.998
X309.115 Y-89.032
X308.473 Y-89.055
X307.831 Y-89.07
X307.189 Y-89.079
X306.547 Y-89.085
X305.904 Y-89.089
X304.62 Y-89.093
X302.051 Y-89.095
X299.482 Y-89.096
X249.392
X199.302
X149.211
X99.121
X49.03
X12.426
X11.783 Y-89.093
X11.141 Y-89.081
X10.5 Y-89.056
X9.859 Y-89.013
X9.221 Y-88.94
X8.587 Y-88.837
X7.96 Y-88.698
X7.344 Y-88.516
X6.741 Y-88.295
X6.155 Y-88.033
X5.589 Y-87.73
X5.044 Y-87.39
X4.525 Y-87.011
X4.036 Y-86.596
X3.609 Y-86.116
X3.296 Y-85.555
X3.068 Y-84.955
X2.897 Y-84.336
X2.76 Y-83.708
X2.647 Y-83.076
X2.55 Y-82.441
X2.47 Y-81.804
X2.405 Y-81.165
X2.354 Y-80.525
X2.316 Y-79.884
X2.288 Y-79.242
X2.268 Y-78.601
X2.253 Y-77.959
X2.243 Y-77.316
X2.236 Y-76.674
X2.232 Y-76.032
X2.229 Y-75.39
X2.225 Y-74.106
X2.223 Y-71.537
Y-32.364
Y-13.098
X2.226 Y-12.456
X2.235 Y-11.814
X2.254 Y-11.172
X2.289 Y-10.531
X2.349 Y-9.891
X2.439 Y-9.255
X2.567 Y-8.626
X2.736 Y-8.006
X2.949 Y-7.401
X3.206 Y-6.812
X3.508 Y-6.245
X3.857 Y-5.707
X4.25 Y-5.199
X4.685 Y-4.726
X5.157 Y-4.291
X5.664 Y-3.897
X6.204 Y-3.548
X6.771 Y-3.248
X7.362 Y-2.997
X7.971 Y-2.793
X8.593 Y-2.634
X9.224 Y-2.513
X9.86 Y-2.425
X10.499 Y-2.361
X11.14 Y-2.317
X11.781 Y-2.286
X12.423 Y-2.265
X13.065 Y-2.25
X13.707 Y-2.241
X14.35 Y-2.235
X14.992 Y-2.23
X16.276 Y-2.226
X18.203 Y-2.223
X25.909
X75.999
X126.09
X176.18
X226.271
X276.361
X307.186
X307.828 Y-2.227
X308.47 Y-2.239
X309.112 Y-2.262
X309.753 Y-2.305
X310.391 Y-2.374
X311.025 Y-2.477
X311.652 Y-2.618
X312.268 Y-2.8
X312.868 Y-3.028
X313.449 Y-3.302
X314.005 Y-3.622
X314.534 Y-3.987
X315.031 Y-4.394
X315.492 Y-4.84
X315.914 Y-5.325
X316.292 Y-5.844
X316.624 Y-6.394
X316.908 Y-6.97
X317.144 Y-7.567
X317.334 Y-8.18
X317.48 Y-8.806
X317.588 Y-9.439
X317.667 Y-10.076
X317.723 Y-10.716
X317.762 Y-11.357
X317.789 Y-11.998
X317.808 Y-12.64
X317.82 Y-13.282
X317.829 Y-13.925
X317.834 Y-14.567
X317.838 Y-15.209
X317.842 Y-16.493
X317.844 Y-19.062
X317.845 Y-64.657
X317.844 Y-76.859
X317.843 Y-77.501
X317.835 Y-78.143
X317.818 Y-78.785
X317.785 Y-79.426
X317.729 Y-80.066
X317.644 Y-80.703
X317.523 Y-81.333
X317.361 Y-81.955
X317.154 Y-82.563
X316.901 Y-83.153
X316.603 Y-83.722
X316.26 Y-84.265
X315.875 Y-84.778
X315.446 Y-85.257
X314.979 Y-85.697
X314.475 Y-86.095
X313.94 Y-86.451
X313.378 Y-86.76
X312.79 Y-87.02
X312.184 Y-87.231
X311.563 Y-87.396
X310.933 Y-87.521
X310.298 Y-87.613
X309.659 Y-87.68
X309.018 Y-87.726
X308.377 Y-87.759
X307.735 Y-87.781
X307.093 Y-87.796
X306.451 Y-87.806
X305.809 Y-87.813
X305.167 Y-87.817
X304.525 Y-87.82
X303.24 Y-87.824
X300.672 Y-87.825
X287.186 Y-87.826
X237.095
X187.005
X136.914
X86.824
X36.733
X13.615
X12.972 Y-87.825
X12.33 Y-87.821
X11.688 Y-87.811
X11.046 Y-87.789
X10.405 Y-87.749
X9.766 Y-87.685
X9.132 Y-87.588
X8.504 Y-87.452
X7.887 Y-87.274
X7.284 Y-87.052
X6.7 Y-86.785
X6.139 Y-86.473
X5.609 Y-86.11
X5.146 Y-85.665
X4.776 Y-85.14
X4.488 Y-84.566
X4.265 Y-83.964
X4.09 Y-83.346
X3.951 Y-82.719
X3.841 Y-82.086
X3.754 Y-81.45
X3.686 Y-80.811
X3.634 Y-80.171
X3.595 Y-79.53
X3.566 Y-78.889
X3.544 Y-78.247
X3.529 Y-77.605
X3.518 Y-76.963
X3.51 Y-76.321
X3.504 Y-75.678
X3.501 Y-75.036
X3.496 Y-73.752
X3.494 Y-71.825
X3.493 Y-67.972
Y-17.882
Y-14.029
X3.494 Y-13.386
X3.499 Y-12.744
X3.51 Y-12.102
X3.532 Y-11.46
X3.572 Y-10.819
X3.639 Y-10.181
X3.739 Y-9.546
X3.878 Y-8.92
X4.062 Y-8.304
X4.298 Y-7.707
X4.587 Y-7.133
X4.929 Y-6.59
X5.321 Y-6.081
X5.762 Y-5.615
X6.25 Y-5.197
X6.778 Y-4.832
X7.34 Y-4.522
X7.93 Y-4.267
X8.539 Y-4.064
X9.162 Y-3.908
X9.793 Y-3.79
X10.43 Y-3.704
X11.069 Y-3.64
X11.709 Y-3.595
X12.351 Y-3.563
X12.993 Y-3.541
X13.635 Y-3.525
X14.277 Y-3.515
X14.919 Y-3.507
X15.561 Y-3.502
X16.203 Y-3.499
X17.488 Y-3.495
X20.056 Y-3.493
X42.533
X92.623
X142.714
X192.804
X242.895
X292.985
X305.829
X306.471
X307.113 Y-3.496
X307.755 Y-3.505
X308.397 Y-3.523
X309.039 Y-3.556
X309.678 Y-3.613
X310.315 Y-3.7
X310.945 Y-3.824
X311.564 Y-3.995
X312.167 Y-4.215
X312.749 Y-4.487
X313.303 Y-4.811
X313.824 Y-5.187
X314.304 Y-5.614
X314.737 Y-6.087
X315.121 Y-6.602
X315.451 Y-7.153
X315.724 Y-7.735
X315.942 Y-8.339
X316.113 Y-8.958
X316.242 Y-9.587
X316.338 Y-10.222
X316.408 Y-10.86
X316.459 Y-11.5
X316.494 Y-12.142
X316.52 Y-12.783
X316.537 Y-13.425
X316.549 Y-14.067
X316.558 Y-14.709
X316.563 Y-15.352
X316.567 Y-15.994
X316.571 Y-17.278
X316.574 Y-19.205
Y-28.195
Y-33.333
Y-75.717
Y-76.359
X316.571 Y-77.001
X316.564 Y-77.643
X316.548 Y-78.285
X316.517 Y-78.927
X316.466 Y-79.567
X316.383 Y-80.204
X316.263 Y-80.835
X316.099 Y-81.456
X315.886 Y-82.062
X315.623 Y-82.647
X315.307 Y-83.206
X314.937 Y-83.731
X314.517 Y-84.217
X314.051 Y-84.659
X313.542 Y-85.051
X312.995 Y-85.388
X312.418 Y-85.668
X311.817 Y-85.894
X311.2 Y-86.072
X310.572 Y-86.207
X309.938 Y-86.307
X309.3 Y-86.381
X308.66 Y-86.434
X308.018 Y-86.472
X307.377 Y-86.498
X306.735 Y-86.517
X306.093 Y-86.529
X305.451 Y-86.538
X304.809 Y-86.544
X304.166 Y-86.548
X302.882 Y-86.552
X300.955 Y-86.555
X293.249 Y-86.556
X266.277
X216.187
X166.096
X116.006
X65.916
X15.825
X13.899
X13.256 Y-86.554
X12.614 Y-86.548
X11.972 Y-86.535
X11.33 Y-86.51
X10.69 Y-86.465
X10.052 Y-86.393
X9.419 Y-86.285
X8.794 Y-86.136
X8.182 Y-85.941
X7.589 Y-85.694
X7.029 Y-85.38
X6.539 Y-84.965
X6.135 Y-84.466
X5.813 Y-83.91
X5.563 Y-83.319
X5.369 Y-82.706
X5.22 Y-82.082
X5.105 Y-81.45
X5.017 Y-80.814
X4.95 Y-80.175
X4.899 Y-79.535
X4.862 Y-78.894
X4.834 Y-78.252
X4.814 Y-77.61
X4.799 Y-76.968
X4.788 Y-76.326
X4.78 Y-75.684
X4.775 Y-75.042
X4.771 Y-74.4
X4.767 Y-73.115
X4.764 Y-71.189
X4.763 Y-65.409
X4.762 Y-44.859
X4.763 Y-14.677
X4.764 Y-14.034
X4.768 Y-13.392
X4.777 Y-12.75
X4.795 Y-12.108
X4.829 Y-11.467
X4.886 Y-10.827
X4.974 Y-10.191
X5.104 Y-9.562
X5.285 Y-8.946
X5.523 Y-8.35
X5.821 Y-7.781
X6.184 Y-7.251
X6.609 Y-6.77
X7.091 Y-6.345
X7.621 Y-5.983
X8.191 Y-5.687
X8.789 Y-5.452
X9.404 Y-5.269
X10.031 Y-5.131
X10.665 Y-5.027
X11.303 Y-4.951
X11.943 Y-4.896
X12.584 Y-4.856
X13.225 Y-4.828
X13.867 Y-4.808
X14.509 Y-4.794
X15.151 Y-4.784
X15.793 Y-4.777
X16.436 Y-4.772
X17.078 Y-4.769
X17.72 Y-4.767
X19.646 Y-4.764
X24.784 Y-4.763
X67.81 Y-4.762
X117.901
X167.991
X218.082
X268.172
X305.419 Y-4.763
X306.061 Y-4.764
X306.703 Y-4.768
X307.346 Y-4.777
X307.987 Y-4.795
X308.629 Y-4.829
X309.268 Y-4.887
X309.904 Y-4.978
X310.532 Y-5.111
X311.148 Y-5.294
X311.744 Y-5.534
X312.31 Y-5.837
X312.837 Y-6.203
X313.318 Y-6.629
X313.739 Y-7.113
X314.097 Y-7.647
X314.391 Y-8.218
X314.624 Y-8.816
X314.806 Y-9.432
X314.943 Y-10.059
X315.045 Y-10.693
X315.12 Y-11.331
X315.174 Y-11.971
X315.213 Y-12.612
X315.241 Y-13.254
X315.26 Y-13.896
X315.274 Y-14.538
X315.284 Y-15.18
X315.29 Y-15.822
X315.295 Y-16.464
X315.3 Y-17.748
X315.303 Y-19.675
X315.304 Y-25.455
X315.305 Y-60.775
X315.304 Y-75.545
X315.302 Y-76.187
X315.298 Y-76.829
X315.287 Y-77.472
X315.265 Y-78.113
X315.227 Y-78.754
X315.162 Y-79.393
X315.063 Y-80.028
X314.921 Y-80.654
X314.725 Y-81.266
X314.47 Y-81.855
X314.153 Y-82.414
X313.774 Y-82.932
X313.333 Y-83.398
X312.836 Y-83.806
X312.294 Y-84.151
X311.717 Y-84.431
X311.113 Y-84.651
X310.494 Y-84.821
X309.865 Y-84.949
X309.23 Y-85.045
X308.591 Y-85.114
X307.951 Y-85.165
X307.31 Y-85.201
X306.668 Y-85.227
X306.026 Y-85.245
X305.384 Y-85.258
X304.742 Y-85.267
X304.1 Y-85.273
X303.458 Y-85.277
X302.174 Y-85.282
X300.247 Y-85.285
X293.825 Y-85.286
X286.761
X236.671
X186.58
X136.49
X86.399
X36.309
X14.474 Y-85.285
X13.832 Y-85.283
X13.19 Y-85.278
X12.548 Y-85.267
X11.906 Y-85.245
X11.265 Y-85.205
X10.626 Y-85.14
X9.992 Y-85.038
X9.367 Y-84.892
X8.758 Y-84.689
X8.192 Y-84.386
X7.702 Y-83.97
X7.303 Y-83.467
X6.99 Y-82.906
X6.748 Y-82.311
X6.565 Y-81.696
X6.426 Y-81.069
X6.322 Y-80.435
X6.245 Y-79.798
X6.187 Y-79.158
X6.145 Y-78.517
X6.113 Y-77.876
X6.091 Y-77.234
X6.074 Y-76.592
X6.062 Y-75.95
X6.053 Y-75.308
X6.047 Y-74.666
X6.043 Y-74.024
X6.037 Y-72.739
X6.034 Y-70.813
X6.033 Y-66.317
Y-63.106
Y-15.585
Y-14.942
X6.035 Y-14.3
X6.04 Y-13.658
X6.052 Y-13.016
X6.074 Y-12.374
X6.113 Y-11.733
X6.179 Y-11.094
X6.283 Y-10.461
X6.436 Y-9.837
X6.655 Y-9.233
X6.948 Y-8.662
X7.318 Y-8.137
X7.767 Y-7.678
X8.28 Y-7.292
X8.841 Y-6.978
X9.434 Y-6.734
X10.049 Y-6.546
X10.675 Y-6.406
X11.309 Y-6.301
X11.947 Y-6.225
X12.586 Y-6.169
X13.227 Y-6.129
X13.869 Y-6.101
X14.511 Y-6.08
X15.153 Y-6.066
X15.795 Y-6.055
X16.437 Y-6.048
X17.079 Y-6.043
X17.721 Y-6.04
X19.006 Y-6.036
X20.932 Y-6.034
X27.996 Y-6.033
X51.757 Y-6.032
X101.848
X151.938
X202.029
X252.119
X302.21
X304.778 Y-6.033
X305.421 Y-6.034
X306.063 Y-6.037
X306.705 Y-6.045
X307.347 Y-6.06
X307.988 Y-6.088
X308.629 Y-6.138
X309.266 Y-6.219
X309.895 Y-6.345
X310.511 Y-6.529
X311.102 Y-6.779
X311.653 Y-7.109
X312.149 Y-7.517
X312.577 Y-7.996
X312.928 Y-8.533
X313.208 Y-9.111
X313.425 Y-9.716
X313.59 Y-10.336
X313.713 Y-10.967
X313.804 Y-11.602
X313.87 Y-12.241
X313.918 Y-12.881
X313.953 Y-13.523
X313.977 Y-14.164
X313.995 Y-14.806
X314.007 Y-15.448
X314.015 Y-16.091
X314.021 Y-16.733
X314.025 Y-17.375
X314.03 Y-18.659
X314.033 Y-20.586
X314.034 Y-26.366
Y-46.915
Y-74.529
Y-75.172
X314.031 Y-75.814
X314.026 Y-76.456
X314.015 Y-77.098
X313.992 Y-77.74
X313.95 Y-78.381
X313.881 Y-79.019
X313.772 Y-79.652
X313.611 Y-80.274
X313.386 Y-80.875
X313.085 Y-81.442
X312.706 Y-81.961
X312.25 Y-82.413
X311.731 Y-82.792
X311.166 Y-83.097
X310.57 Y-83.336
X309.955 Y-83.519
X309.327 Y-83.656
X308.693 Y-83.757
X308.055 Y-83.831
X307.415 Y-83.884
X306.774 Y-83.923
X306.133 Y-83.951
X305.491 Y-83.97
X304.849 Y-83.984
X304.207 Y-83.994
X303.564 Y-84.001
X302.922 Y-84.005
X302.28 Y-84.009
X300.996 Y-84.013
X298.427 Y-84.015
X277.235 Y-84.016
X248.337
X198.246
X148.156
X98.065
X47.975
X15.223 Y-84.015
X14.581 Y-84.014
X13.939 Y-84.01
X13.297 Y-84.002
X12.655 Y-83.986
X12.013 Y-83.955
X11.373 Y-83.902
X10.737 Y-83.816
X10.11 Y-83.678
X9.516 Y-83.433
X8.997 Y-83.054
X8.575 Y-82.57
X8.247 Y-82.018
X7.997 Y-81.427
X7.811 Y-80.812
X7.673 Y-80.185
X7.572 Y-79.551
X7.498 Y-78.913
X7.443 Y-78.273
X7.404 Y-77.632
X7.375 Y-76.991
X7.355 Y-76.349
X7.34 Y-75.707
X7.329 Y-75.065
X7.321 Y-74.422
X7.316 Y-73.78
X7.312 Y-73.138
X7.309 Y-72.496
X7.306 Y-71.212
X7.303 Y-68.643
X7.302 Y-50.662
Y-22.405
X7.303 Y-15.984
X7.304 Y-15.341
X7.306 Y-14.699
X7.312 Y-14.057
X7.323 Y-13.415
X7.346 Y-12.773
X7.388 Y-12.132
X7.46 Y-11.494
X7.578 Y-10.863
X7.761 Y-10.247
X8.037 Y-9.667
X8.413 Y-9.147
X8.881 Y-8.708
X9.417 Y-8.353
X9.996 Y-8.076
X10.603 Y-7.867
X11.226 Y-7.711
X11.858 Y-7.596
X12.495 Y-7.513
X13.134 Y-7.452
X13.775 Y-7.409
X14.416 Y-7.378
X15.058 Y-7.355
X15.7 Y-7.34
X16.342 Y-7.328
X16.984 Y-7.321
X17.626 Y-7.315
X18.269 Y-7.311
X19.553 Y-7.307
X21.479 Y-7.304
X27.259 Y-7.303
X44.598 Y-7.302
X94.689
X144.779
X194.87
X244.96
X295.051
X304.041 Y-7.303
X304.683 Y-7.304
X305.326 Y-7.306
X305.968 Y-7.311
X306.61 Y-7.323
X307.252 Y-7.345
X307.893 Y-7.385
X308.531 Y-7.453
X309.163 Y-7.566
X309.779 Y-7.747
X310.363 Y-8.014
X310.887 Y-8.385
X311.334 Y-8.847
X311.694 Y-9.379
X311.974 Y-9.957
X312.187 Y-10.562
X312.346 Y-11.185
X312.463 Y-11.816
X312.549 Y-12.452
X312.611 Y-13.092
X312.656 Y-13.732
X312.688 Y-14.374
X312.711 Y-15.015
X312.727 Y-15.657
X312.738 Y-16.299
X312.746 Y-16.942
X312.752 Y-17.584
X312.756 Y-18.226
X312.76 Y-19.51
X312.763 Y-21.437
X312.764 Y-27.216
Y-41.987
Y-74.096
X312.763 Y-74.738
X312.761 Y-75.38
X312.755 Y-76.023
X312.744 Y-76.665
X312.721 Y-77.306
X312.678 Y-77.947
X312.604 Y-78.585
X312.483 Y-79.216
X312.296 Y-79.83
X312.015 Y-80.408
X311.634 Y-80.924
X311.161 Y-81.359
X310.623 Y-81.71
X310.042 Y-81.983
X309.434 Y-82.191
X308.811 Y-82.344
X308.179 Y-82.457
X307.542 Y-82.54
X306.902 Y-82.599
X306.262 Y-82.642
X305.62 Y-82.672
X304.978 Y-82.694
X304.336 Y-82.71
X303.694 Y-82.721
X303.052 Y-82.728
X302.41 Y-82.734
X301.768 Y-82.737
X301.126 Y-82.74
X299.841 Y-82.743
X297.272 Y-82.745
X251.035 Y-82.746
X200.945
X150.854
X100.764
X50.673
X15.995 Y-82.745
X15.353
X14.711 Y-82.742
X14.069 Y-82.736
X13.427 Y-82.724
X12.785 Y-82.701
X12.144 Y-82.66
X11.506 Y-82.587
X10.885 Y-82.423
X10.331 Y-82.098
X9.878 Y-81.643
X9.527 Y-81.105
X9.264 Y-80.519
X9.071 Y-79.907
X8.93 Y-79.28
X8.829 Y-78.646
X8.756 Y-78.008
X8.704 Y-77.368
X8.666 Y-76.727
X8.639 Y-76.085
X8.62 Y-75.443
X8.606 Y-74.801
X8.597 Y-74.159
X8.59 Y-73.517
X8.585 Y-72.875
X8.581 Y-72.233
X8.577 Y-70.948
X8.574 Y-69.022
X8.573 Y-63.242
Y-22.784
Y-16.363
X8.574 Y-15.72
X8.577 Y-15.078
X8.583 Y-14.436
X8.595 Y-13.794
X8.62 Y-13.152
X8.667 Y-12.512
X8.753 Y-11.875
X8.907 Y-11.252
X9.178 Y-10.67
X9.484 Y-10.282
X9.502 Y-10.258
X9.525 Y-10.224
X9.792 Y-9.861
X9.809 Y-9.842
X9.938 Y-9.718
X10.256 Y-9.495
X10.375 Y-9.412
X10.521 Y-9.316
X10.667 Y-9.226
X10.813 Y-9.152
X10.959 Y-9.098
X11.105 Y-9.056
X11.251 Y-9.025
X11.689 Y-8.938
X11.835 Y-8.917
X11.886 Y-8.911
X12.523 Y-8.829
X13.162 Y-8.762
X13.802 Y-8.711
X14.443 Y-8.673
X15.085 Y-8.645
X15.727 Y-8.624
X16.369 Y-8.609
X17.011 Y-8.598
X17.653 Y-8.591
X18.295 Y-8.585
X18.937 Y-8.581
X20.221 Y-8.577
X22.148 Y-8.574
X27.286 Y-8.573
X61.964
X112.054
X162.145
X212.235
X262.325
X303.425
X304.068 Y-8.574
X304.71 Y-8.576
X305.352 Y-8.58
X305.994 Y-8.59
X306.636 Y-8.609
X307.277 Y-8.644
X307.916 Y-8.707
X308.547 Y-8.828
X309.151 Y-9.045
X309.694 Y-9.388
X310.145 Y-9.846
X310.5 Y-10.381
X310.771 Y-10.963
X310.973 Y-11.572
X311.121 Y-12.197
X311.228 Y-12.83
X311.306 Y-13.468
X311.361 Y-14.108
X311.4 Y-14.749
X311.428 Y-15.39
X311.448 Y-16.032
X311.462 Y-16.674
X311.472 Y-17.316
X311.479 Y-17.959
X311.483 Y-18.601
X311.487 Y-19.243
X311.491 Y-20.527
X311.493 Y-22.454
X311.494 Y-28.876
X311.495 Y-61.627
X311.494 Y-73.186
X311.493 Y-74.471
X311.489 Y-75.113
X311.482 Y-75.755
X311.468 Y-76.397
X311.439 Y-77.039
X311.385 Y-77.679
X311.289 Y-78.314
X311.11 Y-78.93
X310.809 Y-79.498
X310.387 Y-79.982
X310.35 Y-80.012
X310.315 Y-80.045
X310.282 Y-80.081
X310.252 Y-80.116
X310.13 Y-80.243
X309.69 Y-80.554
X309.546 Y-80.65
X309.4 Y-80.744
X309.254 Y-80.818
X309.188 Y-80.845
X309.108 Y-80.874
X308.962 Y-80.917
X308.817 Y-80.95
X308.379 Y-81.037
X308.233 Y-81.062
X307.6 Y-81.168
X306.963 Y-81.255
X306.324 Y-81.318
X305.684 Y-81.364
X305.042 Y-81.396
X304.4 Y-81.42
X303.758 Y-81.436
X303.116 Y-81.448
X302.474 Y-81.456
X301.832 Y-81.462
X301.19 Y-81.466
X299.906 Y-81.471
X297.979 Y-81.474
X292.842 Y-81.476
X258.164
X208.073
X157.983
X107.892
X57.802
X16.702 Y-81.475
X16.06
X15.417 Y-81.473
X14.775 Y-81.468
X14.133 Y-81.459
X13.491 Y-81.441
X12.85 Y-81.406
X12.215 Y-81.311
X11.68 Y-81.061
X11.626 Y-81.038
X11.569 Y-81.02
X11.511 Y-81.006
X11.251 Y-80.954
X11.105 Y-80.922
X10.959 Y-80.881
X10.856 Y-80.845
X10.813 Y-80.827
X10.667 Y-80.755
X10.521 Y-80.663
X10.358 Y-80.554
X9.938 Y-80.261
X9.857 Y-80.189
X9.67 Y-79.97
X9.571 Y-79.824
X9.5 Y-79.716
X9.289 Y-79.386
X9.208 Y-79.245
X9.143 Y-79.094
X9.101 Y-78.949
X9.067 Y-78.803
X9.009 Y-78.511
X8.981 Y-78.365
X8.954 Y-78.219
X8.942 Y-78.073
X8.936 Y-77.927
Y-57.208
X8.939 Y-57.062
X8.95 Y-56.77
X8.958 Y-56.624
X9.099 Y-55.019
X9.112 Y-54.873
X9.131 Y-54.727
X9.208 Y-54.391
X9.232 Y-54.29
X9.466 Y-53.414
X9.601 Y-52.786
X9.703 Y-52.152
X9.761 Y-51.513
X9.795 Y-50.871
X9.815 Y-50.229
X9.826 Y-49.587
X9.833 Y-48.945
X9.837 Y-48.303
X9.841 Y-47.019
X9.842 Y-44.45
Y-27.89
X9.836 Y-27.787
X9.815 Y-27.686
X9.781 Y-27.588
X9.719 Y-27.442
X9.595 Y-27.004
X9.208 Y-25.556
X9.115 Y-25.107
X8.949 Y-23.21
X8.945 Y-23.064
X8.937 Y-22.773
X8.936 Y-22.627
Y-12.121
X8.939 Y-11.975
X8.946 Y-11.829
X8.968 Y-11.683
X8.995 Y-11.537
X9.062 Y-11.2
X9.084 Y-11.1
X9.121 Y-10.954
X9.175 Y-10.808
X9.197 Y-10.752
X9.452 Y-10.337
X9.502 Y-10.258
G3 X9.552 Y-10.008 Z-4.655 I-0.26 J0.182
G1 X9.544 Y-9.95 Z-4.631
X9.548 Y-9.891 Z-4.607
X9.563 Y-9.834 Z-4.584
X9.588 Y-9.78 Z-4.56
X9.621 Y-9.734
X9.662 Y-9.694
X9.766 Y-9.609
X10.777 Y-8.788
G2 X11.118 Y-8.749 I0.2 J-0.246
G3 X11.393 Y-8.854 I0.7 J1.419
X11.886 Y-8.911 Z-4.76 I0.425 J1.524
G1 X11.981 Y-8.904
X12.273 Y-8.902
X32.704
X32.996 Y-8.903
X33.12 Y-8.911
X33.433 Y-8.957
X33.579 Y-8.981
X33.95 Y-9.057
X34.017 Y-9.075
X34.163 Y-9.122
X34.337 Y-9.203
X34.543 Y-9.302
X34.827 Y-9.412
X35.214 Y-9.527
X35.775 Y-9.646
X36.412 Y-9.728
X37.053 Y-9.776
X37.694 Y-9.803
X38.336 Y-9.82
X38.978 Y-9.829
X39.62 Y-9.835
X40.263 Y-9.838
X41.547 Y-9.841
X44.758 Y-9.842
X46.847
X47.01 Y-9.824
X47.164 Y-9.771
X47.303 Y-9.685
X47.36 Y-9.641
X47.443 Y-9.583
X47.793 Y-9.349
X47.881 Y-9.293
X48.032 Y-9.203
X48.173 Y-9.139
X48.319 Y-9.088
X48.611 Y-9.021
X48.757 Y-8.988
X49.049 Y-8.935
X49.195 Y-8.912
X49.632 Y-8.902
X70.064
X70.508 Y-8.911
X70.939 Y-8.989
X71.377 Y-9.087
X71.523 Y-9.139
X71.66 Y-9.203
X71.669 Y-9.208
X71.802 Y-9.277
X72.068 Y-9.385
X72.425 Y-9.499
X72.933 Y-9.617
X73.569 Y-9.712
X74.208 Y-9.766
X74.85 Y-9.798
X75.492 Y-9.816
X76.134 Y-9.827
X76.776 Y-9.833
X77.418 Y-9.837
X78.703 Y-9.841
X81.271 Y-9.842
X121.729
X127.054
X127.158 Y-9.835
X127.26 Y-9.813
X127.357 Y-9.778
X127.563 Y-9.687
X128.001 Y-9.564
X129.46 Y-9.172
X129.898 Y-9.085
X130.044 Y-9.069
X131.795 Y-8.916
X131.871 Y-8.911
X132.233 Y-8.903
X132.379 Y-8.902
X132.671
X132.816 Y-8.903
X133.254 Y-8.916
X135.151 Y-9.082
X135.297 Y-9.111
X135.589 Y-9.175
X135.701 Y-9.203
X136.757 Y-9.486
X137.385 Y-9.621
X138.02 Y-9.714
X138.66 Y-9.767
X139.301 Y-9.799
X139.943 Y-9.817
X140.585 Y-9.827
X141.228 Y-9.834
X141.87 Y-9.837
X143.154 Y-9.841
X145.723 Y-9.842
X186.823
X236.913
X247.224
X247.384 Y-9.823
X247.536 Y-9.767
X247.669 Y-9.676
X247.716 Y-9.641
X247.815 Y-9.57
X248.146 Y-9.349
X248.253 Y-9.279
X248.399 Y-9.197
X248.545 Y-9.131
X248.69 Y-9.081
X249.128 Y-8.984
X249.548 Y-8.911
X249.566 Y-8.909
X250.004 Y-8.902
X270.435
X270.873 Y-8.914
X271.019 Y-8.938
X271.311 Y-8.992
X271.457 Y-9.025
X271.749 Y-9.095
X271.894 Y-9.147
X272.017 Y-9.203
X272.04 Y-9.217
X272.172 Y-9.289
X272.446 Y-9.398
X272.816 Y-9.512
X273.348 Y-9.63
X273.984 Y-9.719
X274.624 Y-9.771
X275.266 Y-9.8
X275.907 Y-9.818
X276.55 Y-9.828
X277.192 Y-9.834
X277.834 Y-9.838
X279.118 Y-9.841
X282.329 Y-9.842
X292.046
X292.148 Y-9.836
X292.248 Y-9.815
X292.343 Y-9.78
X292.472 Y-9.724
X292.909 Y-9.588
X294.369 Y-9.197
X294.807 Y-9.093
X294.953 Y-9.079
X295.39 Y-9.039
X296.704 Y-8.924
X296.85 Y-8.916
X297.142 Y-8.904
X297.288 Y-8.902
X297.725
X298.017 Y-8.906
X298.163 Y-8.908
X300.06 Y-9.074
X300.206 Y-9.099
X300.498 Y-9.152
X300.644 Y-9.188
X301.666 Y-9.461
X302.293 Y-9.596
X302.927 Y-9.7
X303.567 Y-9.76
X304.208 Y-9.797
X304.849 Y-9.822
X305.491 Y-9.843
X306.133 Y-9.868
X306.774 Y-9.906
X307.411 Y-9.987
X308.025 Y-10.176
X308.567 Y-10.521
X309.006 Y-10.989
X309.345 Y-11.534
X309.596 Y-12.126
X309.778 Y-12.741
X309.909 Y-13.37
X310.002 Y-14.005
X310.068 Y-14.644
X310.115 Y-15.285
X310.147 Y-15.926
X310.17 Y-16.568
X310.182 Y-17.06
X310.191 Y-17.159
X310.213 Y-17.256
X310.248 Y-17.35
X310.276 Y-17.412
X310.322 Y-17.52
X310.447 Y-17.958
X310.838 Y-19.417
X310.929 Y-19.854
X310.943 Y-20
X311.096 Y-21.751
X311.101 Y-21.897
X311.109 Y-22.189
X311.111 Y-22.335
Y-77.927
X311.104 Y-78.073
X311.092 Y-78.219
X311.066 Y-78.365
X311.006 Y-78.674
X310.98 Y-78.803
X310.945 Y-78.949
X310.904 Y-79.094
X310.841 Y-79.24
X310.758 Y-79.386
X310.568 Y-79.685
X310.422 Y-79.904
X310.377 Y-79.97
X310.282 Y-80.081
G3 X310.209 Y-80.324 Z-4.655 I0.241 J-0.206
G1 X310.21 Y-80.383 Z-4.631
X310.2 Y-80.442 Z-4.607
X310.18 Y-80.497 Z-4.584
X310.15 Y-80.548 Z-4.56
X310.124 Y-80.58
X310.094 Y-80.608
X309.965 Y-80.712
X309.346 Y-81.216
G2 X308.995 Y-81.25 I-0.2 J0.246
G3 X308.724 Y-81.135 I-0.748 J-1.395
X308.233 Y-81.062 Z-4.76 I-0.477 J-1.509
G1 X307.941 Y-81.075
X307.795 Y-81.077
X287.072 Y-81.076
X286.926 Y-81.071
X286.78 Y-81.056
X286.634 Y-81.029
X286.439 Y-80.991
X286.196 Y-80.942
X286.05 Y-80.909
X285.904 Y-80.864
X285.857 Y-80.845
X285.758 Y-80.799
X285.609 Y-80.729
X285.312 Y-80.619
X284.905 Y-80.503
X284.304 Y-80.384
X283.667 Y-80.309
X283.026 Y-80.266
X282.384 Y-80.241
X281.742 Y-80.227
X281.1 Y-80.218
X280.458 Y-80.213
X279.816 Y-80.21
X278.531 Y-80.207
X274.678 Y-80.206
X265.486
X265.395 Y-80.211
X265.305 Y-80.228
X265.218 Y-80.256
X265.035 Y-80.327
X264.889 Y-80.371
X263.116 Y-80.845
X262.992 Y-80.866
X262.7 Y-80.905
X262.555 Y-80.921
X260.949 Y-81.061
X260.803 Y-81.07
X260.657 Y-81.077
X259.782
X259.636 Y-81.071
X259.49 Y-81.063
X259.344 Y-81.052
X257.885 Y-80.924
X257.739 Y-80.909
X257.447 Y-80.875
X257.301 Y-80.848
X256.863 Y-80.733
X256.279 Y-80.577
X255.651 Y-80.442
X255.017 Y-80.343
X254.377 Y-80.286
X253.736 Y-80.253
X253.094 Y-80.233
X252.452 Y-80.222
X251.81 Y-80.215
X251.168 Y-80.211
X249.883 Y-80.208
X247.314 Y-80.206
X206.215
X156.124
X137.82
X137.732 Y-80.212
X137.646 Y-80.231
X137.563 Y-80.262
X137.486 Y-80.287
X137.075 Y-80.408
X135.735 Y-80.766
X135.589 Y-80.803
X135.297 Y-80.868
X135.151 Y-80.896
X133.254 Y-81.062
X132.816 Y-81.076
X132.525 Y-81.077
X132.379
X132.233 Y-81.075
X131.941 Y-81.069
X131.795 Y-81.063
X130.044 Y-80.91
X129.898 Y-80.894
X129.46 Y-80.806
X128.584 Y-80.572
X127.956 Y-80.437
X127.322 Y-80.34
X126.682 Y-80.284
X126.041 Y-80.252
X125.399 Y-80.233
X124.757 Y-80.222
X124.114 Y-80.215
X123.472 Y-80.211
X122.188 Y-80.208
X119.619 Y-80.206
X78.519
X72.753
X72.6 Y-80.222
X72.453 Y-80.269
X72.319 Y-80.346
X72.253 Y-80.394
X71.961 Y-80.59
X71.815 Y-80.686
X71.669 Y-80.771
X71.523 Y-80.839
X71.507 Y-80.845
X71.377 Y-80.891
X70.939 Y-80.99
X70.647 Y-81.045
X70.501 Y-81.068
X70.064 Y-81.076
X49.632 Y-81.077
X49.195 Y-81.066
X49.049 Y-81.046
X48.757 Y-80.99
X48.611 Y-80.958
X48.319 Y-80.89
X48.186 Y-80.845
X48.027 Y-80.773
X47.891 Y-80.71
X47.578 Y-80.598
X47.145 Y-80.482
X46.513 Y-80.366
X45.875 Y-80.299
X45.234 Y-80.26
X44.592 Y-80.238
X43.95 Y-80.225
X43.308 Y-80.217
X42.666 Y-80.212
X42.023 Y-80.21
X40.739 Y-80.207
X36.244 Y-80.206
X35.431
X35.282 Y-80.221
X35.139 Y-80.266
X35.009 Y-80.338
X34.893 Y-80.418
X34.601 Y-80.614
X34.455 Y-80.708
X34.309 Y-80.789
X34.192 Y-80.845
X34.163 Y-80.856
X34.017 Y-80.903
X33.871 Y-80.938
X33.579 Y-80.997
X33.433 Y-81.025
X33.287 Y-81.052
X33.142 Y-81.07
X32.996 Y-81.076
X31.974 Y-81.077
X12.273
X12.127 Y-81.075
X11.835 Y-81.062
X11.689 Y-81.041
X11.511 Y-81.006
G3 X11.226 Y-81.534 I-0.051 J-0.313
G1 X11.274 Y-81.586 Z-4.752
X11.32 Y-81.635 Z-4.729
X11.36 Y-81.68 Z-4.691
X11.394 Y-81.717 Z-4.64
X11.42 Y-81.745 Z-4.58
X11.436 Y-81.762 Z-4.513
X11.441 Y-81.768 Z-4.443
G0 Z5
X8.83 Y-54.306
Z-4.125
G1 Z-4.443 F300
X8.836 Y-54.301 Z-4.513
X8.853 Y-54.284 Z-4.58
X8.88 Y-54.258 Z-4.64
X8.916 Y-54.223 Z-4.691
X8.959 Y-54.181 Z-4.729
X9.007 Y-54.134 Z-4.752
X9.058 Y-54.085 Z-4.76
G3 X9.466 Y-53.414 I-1.105 J1.133
G1 X9.584 Y-52.976
X9.624 Y-52.83
X9.711 Y-52.539
X9.757 Y-52.393
X10.027 Y-51.809
X10.504 Y-50.788
X10.647 Y-50.435
X10.764 Y-50.066
X10.885 Y-49.541
X10.978 Y-48.906
X11.033 Y-48.266
X11.065 Y-47.624
X11.085 Y-46.983
X11.096 Y-46.34
X11.103 Y-45.698
X11.107 Y-45.056
X11.11 Y-43.772
X11.112 Y-41.203
X11.113 Y-30.381
X11.097 Y-30.232
X11.052 Y-30.088
X10.979 Y-29.957
X10.955 Y-29.922
X10.857 Y-29.776
X10.667 Y-29.467
X10.592 Y-29.339
X9.938 Y-27.935
X9.781 Y-27.588
G3 X9.186 Y-27.662 I-0.285 J-0.14
G1 X9.171 Y-27.731 Z-4.752
X9.157 Y-27.796 Z-4.729
X9.144 Y-27.855 Z-4.691
X9.134 Y-27.905 Z-4.64
X9.126 Y-27.942 Z-4.58
X9.121 Y-27.964 Z-4.513
X9.12 Y-27.972 Z-4.443
G0 Z5
X9.722 Y-51.555
Z-4.125
G1 Z-4.443 F300
X9.728 Y-51.551 Z-4.513
X9.748 Y-51.538 Z-4.58
X9.779 Y-51.516 Z-4.64
X9.82 Y-51.488 Z-4.691
X9.87 Y-51.454 Z-4.729
X9.926 Y-51.416 Z-4.752
X9.984 Y-51.377 Z-4.76
G3 X10.504 Y-50.788 I-0.89 J1.308
G1 X10.572 Y-50.642
X10.643 Y-50.496
X10.924 Y-50.058
X11.537 Y-49.183
X11.647 Y-49.008
X11.759 Y-48.792
X11.878 Y-48.512
X12 Y-48.143
X12.126 Y-47.628
X12.227 Y-46.994
X12.288 Y-46.355
X12.325 Y-45.714
X12.348 Y-45.072
X12.361 Y-44.43
X12.37 Y-43.788
X12.375 Y-43.146
X12.378 Y-42.503
X12.381 Y-41.219
X12.382 Y-38.008
Y-32.092
X12.359 Y-31.909
X12.292 Y-31.737
X12.184 Y-31.587
X11.981 Y-31.369
X11.874 Y-31.236
X10.979 Y-29.957
G3 X10.408 Y-30.141 I-0.254 J-0.191
G1 X10.406 Y-30.211 Z-4.752
X10.404 Y-30.278 Z-4.729
X10.403 Y-30.338 Z-4.691
X10.402 Y-30.389 Z-4.64
X10.401 Y-30.427 Z-4.58
Y-30.45 Z-4.513
Y-30.458 Z-4.443
G0 Z5
X10.634 Y-49.803
Z-4.125
G1 Z-4.443 F300
X10.641 Y-49.8 Z-4.513
X10.663 Y-49.791 Z-4.58
X10.697 Y-49.775 Z-4.64
X10.743 Y-49.754 Z-4.691
X10.798 Y-49.73 Z-4.729
X10.859 Y-49.702 Z-4.752
X10.923 Y-49.673 Z-4.76
G3 X11.537 Y-49.183 I-0.65 J1.443
G1 X11.844 Y-48.745
X11.949 Y-48.599
X12.127 Y-48.398
X12.509 Y-48.015
X12.638 Y-47.872
X12.748 Y-47.729
X12.862 Y-47.553
X12.981 Y-47.334
X13.106 Y-47.049
X13.233 Y-46.682
X13.363 Y-46.179
X13.474 Y-45.546
X13.542 Y-44.907
X13.584 Y-44.267
X13.61 Y-43.625
X13.626 Y-42.983
X13.636 Y-42.341
X13.642 Y-41.699
X13.646 Y-41.056
X13.65 Y-39.772
X13.652 Y-37.203
Y-33.37
X13.627 Y-33.176
X13.551 Y-32.996
X13.43 Y-32.841
X13.136 Y-32.549
X12.407 Y-31.819
X12.264 Y-31.673
X12.184 Y-31.587
G3 X11.644 Y-31.849 I-0.225 J-0.224
G1 X11.652 Y-31.919 Z-4.752
X11.66 Y-31.986 Z-4.729
X11.667 Y-32.045 Z-4.691
X11.673 Y-32.095 Z-4.64
X11.677 Y-32.133 Z-4.58
X11.68 Y-32.156 Z-4.513
X11.681 Y-32.164 Z-4.443
G0 Z5
X11.512 Y-48.47
Z-4.125
G1 Z-4.443 F300
X11.519 Y-48.468 Z-4.513
X11.542 Y-48.462 Z-4.58
X11.579 Y-48.453 Z-4.64
X11.628 Y-48.44 Z-4.691
X11.686 Y-48.426 Z-4.729
X11.751 Y-48.409 Z-4.752
X11.819 Y-48.392 Z-4.76
G3 X12.509 Y-48.015 I-0.39 J1.534
G1 X13.385 Y-47.14
X13.586 Y-46.945
X13.624 Y-46.916
X13.739 Y-46.819
X13.85 Y-46.698
X13.961 Y-46.555
X14.084 Y-46.369
X14.21 Y-46.141
X14.34 Y-45.851
X14.473 Y-45.477
X14.609 Y-44.967
X14.725 Y-44.335
X14.797 Y-43.697
X14.843 Y-43.057
X14.872 Y-42.415
X14.891 Y-41.773
X14.903 Y-41.131
X14.91 Y-40.489
X14.915 Y-39.847
X14.918 Y-39.205
X14.921 Y-37.92
X14.922 Y-34.709
X14.919 Y-34.316
X14.879 Y-34.086
X14.771 Y-33.879
X14.603 Y-33.717
X13.769 Y-33.132
X13.58 Y-32.986
X13.43 Y-32.841
G3 X12.903 Y-33.127 I-0.214 J-0.234
G1 X12.914 Y-33.197 Z-4.752
X12.925 Y-33.263 Z-4.729
X12.935 Y-33.322 Z-4.691
X12.943 Y-33.372 Z-4.64
X12.949 Y-33.409 Z-4.58
X12.953 Y-33.433 Z-4.513
X12.954 Y-33.44 Z-4.443
G0 Z5
X12.575 Y-47.233
Z-4.125
G1 Z-4.443 F300
X12.583 Y-47.232 Z-4.513
X12.607 Y-47.229 Z-4.58
X12.644 Y-47.225 Z-4.64
X12.694 Y-47.219 Z-4.691
X12.754 Y-47.212 Z-4.729
X12.821 Y-47.204 Z-4.752
X12.891 Y-47.196 Z-4.76
G3 X13.624 Y-46.916 I-0.181 J1.572
G1 X13.732 Y-46.834
X13.878 Y-46.727
X14.685 Y-46.163
X14.809 Y-46.066
X14.92 Y-45.964
X15.041 Y-45.834
X15.173 Y-45.666
X15.298 Y-45.477
X15.436 Y-45.229
X15.573 Y-44.926
X15.717 Y-44.527
X15.859 Y-44.002
X15.977 Y-43.371
X16.053 Y-42.733
X16.102 Y-42.093
X16.134 Y-41.452
X16.155 Y-40.81
X16.168 Y-40.168
X16.177 Y-39.526
X16.183 Y-38.883
X16.186 Y-38.241
X16.19 Y-36.957
X16.191 Y-35.672
X16.186 Y-35.094
X16.183 Y-35.064
X16.141 Y-34.876
X16.051 Y-34.705
X15.921 Y-34.563
X15.758 Y-34.46
X15.727 Y-34.446
X15.337 Y-34.221
X15.227 Y-34.154
X14.603 Y-33.717
G3 X14.164 Y-33.81 Z-4.56 I-0.173 J-0.266
X14.696 Y-34.156 I0.266 J-0.173
X14.164 Y-33.81 I-0.266 J0.173
X14.113 Y-33.969 I0.266 J-0.173
G1 X13.599 Y-46.083
G3 X13.94 Y-46.414 I0.317 J-0.013
X14.231 Y-46.364 I-0.118 J1.578
X14.685 Y-46.163 Z-4.76 I-0.408 J1.529
G1 X15.191 Y-45.808
X15.337 Y-45.715
X15.65 Y-45.535
X15.775 Y-45.469
X15.908 Y-45.399
X16.026 Y-45.304
X16.148 Y-45.189
X16.272 Y-45.053
X16.41 Y-44.873
X16.549 Y-44.659
X16.69 Y-44.397
X16.837 Y-44.063
X16.988 Y-43.63
X17.136 Y-43.06
X17.247 Y-42.428
X17.32 Y-41.79
X17.368 Y-41.15
X17.401 Y-40.508
X17.422 Y-39.866
X17.436 Y-39.224
X17.445 Y-38.582
X17.451 Y-37.94
X17.455 Y-37.298
X17.458 Y-36.656
X17.457 Y-36.013
X17.433 Y-35.666
X17.423 Y-35.602
X17.374 Y-35.427
X17.284 Y-35.269
X17.158 Y-35.137
X17.004 Y-35.041
X15.758 Y-34.46
G3 X15.342 Y-34.628 Z-4.56 I-0.124 J-0.292
G1 X15.323 Y-34.689
X15.317 Y-34.753
Y-34.873
X15.333 Y-45.056
Y-45.177
X15.34 Y-45.24
X15.359 Y-45.301
G3 X15.775 Y-45.469 Z-4.76 I0.292 J0.124
G1 X16.797 Y-44.992
X16.935 Y-44.919
X17.061 Y-44.839
X17.18 Y-44.748
X17.307 Y-44.633
X17.45 Y-44.481
X17.588 Y-44.309
X17.734 Y-44.093
X17.889 Y-43.82
X18.04 Y-43.493
X18.196 Y-43.072
X18.353 Y-42.513
X18.476 Y-41.882
X18.56 Y-41.246
X18.616 Y-40.606
X18.654 Y-39.965
X18.68 Y-39.323
X18.698 Y-38.681
X18.709 Y-38.039
X18.717 Y-37.397
X18.718 Y-36.755
X18.696 Y-36.325
X18.657 Y-36.03
X18.652 Y-36.007
X18.582 Y-35.816
X18.464 Y-35.652
X18.306 Y-35.526
X18.119 Y-35.447
X17.655 Y-35.321
X17.526 Y-35.271
X17.234 Y-35.146
X17.088 Y-35.08
X17.004 Y-35.041
G3 X16.588 Y-35.209 Z-4.56 I-0.124 J-0.292
G1 X16.569 Y-35.266
X16.562 Y-35.326
X16.56 Y-35.454
X16.358 Y-44.58
X16.355 Y-44.693
X16.361 Y-44.76
X16.38 Y-44.824
G3 X16.797 Y-44.992 Z-4.76 I0.292 J0.124
G1 X17.088 Y-44.856
X17.201 Y-44.805
X17.542 Y-44.659
X17.672 Y-44.611
X17.818 Y-44.571
X17.961 Y-44.525
X18.095 Y-44.459
X18.222 Y-44.379
X18.353 Y-44.281
X18.484 Y-44.165
X18.632 Y-44.011
X18.782 Y-43.827
X18.934 Y-43.607
X19.099 Y-43.323
X19.257 Y-42.991
X19.421 Y-42.561
X19.585 Y-41.998
X19.715 Y-41.369
X19.805 Y-40.733
X19.867 Y-40.094
X19.91 Y-39.453
X19.939 Y-38.811
X19.959 Y-38.169
X19.969 Y-37.527
X19.955 Y-36.95
X19.917 Y-36.588
X19.869 Y-36.332
X19.859 Y-36.295
X19.785 Y-36.117
X19.668 Y-35.964
X19.514 Y-35.847
X19.336 Y-35.773
X18.119 Y-35.447
G3 X17.738 Y-35.685 Z-4.56 I-0.071 J-0.309
G1 X17.73 Y-35.745
X17.724 Y-35.932
X17.434 Y-44.087
X17.428 Y-44.251
X17.43 Y-44.293
X17.437 Y-44.335
G3 X17.818 Y-44.571 Z-4.76 I0.309 J0.073
G1 X18.402 Y-44.414
X18.92 Y-44.275
X19.063 Y-44.229
X19.198 Y-44.165
X19.328 Y-44.089
X19.464 Y-43.993
X19.613 Y-43.869
X19.758 Y-43.726
X19.925 Y-43.534
X20.085 Y-43.315
X20.256 Y-43.039
X20.427 Y-42.706
X20.604 Y-42.278
X20.774 Y-41.751
X20.922 Y-41.126
X21.026 Y-40.492
X21.1 Y-39.854
X21.152 Y-39.214
X21.187 Y-38.573
X21.204 Y-37.931
X21.192 Y-37.331
X21.154 Y-36.957
X21.105 Y-36.69
X21.038 Y-36.44
X21.035 Y-36.431
X20.937 Y-36.244
X20.79 Y-36.093
X20.607 Y-35.989
X20.401 Y-35.941
X19.99 Y-35.905
X19.569 Y-35.832
X19.423 Y-35.797
X19.336 Y-35.773
G3 X18.955 Y-36.011 Z-4.56 I-0.071 J-0.309
G1 X18.948 Y-36.066
X18.938 Y-36.258
X18.54 Y-43.79
X18.531 Y-43.949
X18.532 Y-43.993
X18.539 Y-44.037
G3 X18.92 Y-44.275 Z-4.76 I0.309 J0.072
G1 X19.423 Y-44.14
X19.569 Y-44.104
X19.942 Y-44.041
X20.088 Y-44.009
X20.229 Y-43.958
X20.364 Y-43.893
X20.494 Y-43.817
X20.639 Y-43.714
X20.794 Y-43.586
X20.95 Y-43.433
X21.127 Y-43.229
X21.291 Y-43.007
X21.478 Y-42.706
X21.651 Y-42.37
X21.835 Y-41.928
X22.017 Y-41.368
X22.166 Y-40.743
X22.274 Y-40.11
X22.35 Y-39.472
X22.402 Y-38.832
X22.426 Y-38.19
X22.412 Y-37.593
X22.372 Y-37.202
X22.312 Y-36.884
X22.251 Y-36.657
X22.206 Y-36.531
X22.107 Y-36.345
X21.961 Y-36.194
X21.777 Y-36.091
X21.572 Y-36.043
X20.401 Y-35.941
G3 X20.068 Y-36.237 Z-4.561 I-0.017 J-0.317
G1 Y-36.241 Z-4.56
X20.052 Y-36.489
X19.596 Y-43.519
X19.584 Y-43.705
X19.586 Y-43.767
G3 X19.942 Y-44.041 Z-4.76 I0.315 J0.041
G1 X20.007 Y-44.03
X20.883 Y-43.954
X21.031 Y-43.933
X21.177 Y-43.898
X21.318 Y-43.847
X21.454 Y-43.784
X21.604 Y-43.699
X21.753 Y-43.597
X21.918 Y-43.464
X22.09 Y-43.301
X22.266 Y-43.105
X22.459 Y-42.851
X22.642 Y-42.566
X22.839 Y-42.198
X23.034 Y-41.749
X23.222 Y-41.2
X23.38 Y-40.578
X23.496 Y-39.946
X23.576 Y-39.309
X23.622 Y-38.669
X23.63 Y-38.029
X23.596 Y-37.527
X23.542 Y-37.168
X23.476 Y-36.881
X23.403 Y-36.655
X23.355 Y-36.536
X23.243 Y-36.349
X23.082 Y-36.202
X22.885 Y-36.109
X22.669 Y-36.077
X22.342 Y-36.076
X21.904 Y-36.072
X21.572 Y-36.043
G3 X21.24 Y-36.33 Z-4.565 I-0.016 J-0.317
G1 X21.239 Y-36.344 Z-4.56
X21.215 Y-36.591
X20.569 Y-43.406
X20.55 Y-43.606
X20.549 Y-43.653
G3 X20.883 Y-43.954 Z-4.76 I0.317 J0.017
G1 X21.904 Y-43.865
X21.949 Y-43.864
X22.098 Y-43.854
X22.245 Y-43.825
X22.388 Y-43.78
X22.527 Y-43.722
X22.671 Y-43.648
X22.835 Y-43.546
X22.995 Y-43.428
X23.179 Y-43.267
X23.357 Y-43.084
X23.556 Y-42.845
X23.748 Y-42.571
X23.958 Y-42.216
X24.151 Y-41.817
X24.35 Y-41.306
X24.535 Y-40.691
X24.67 Y-40.063
X24.764 Y-39.428
X24.819 Y-38.788
X24.827 Y-38.176
X24.792 Y-37.655
X24.736 Y-37.271
X24.661 Y-36.949
X24.588 Y-36.719
X24.498 Y-36.499
X24.461 Y-36.424
X24.334 Y-36.245
X24.16 Y-36.111
X23.954 Y-36.034
X23.735 Y-36.021
X23.364 Y-36.053
X23.218 Y-36.061
X22.926 Y-36.074
X22.78 Y-36.077
X22.669
G3 X22.364 Y-36.362 Z-4.577 I0.011 J-0.317
G1 X22.36 Y-36.405 Z-4.56
X22.335 Y-36.652
X21.662 Y-43.293
X21.639 Y-43.515
X21.638 Y-43.54
G3 X21.949 Y-43.864 Z-4.76 I0.317 J-0.007
G1 X22.342 Y-43.86
X22.78
X22.926 Y-43.863
X22.97 Y-43.865
X23.12 Y-43.864
X23.268 Y-43.841
X23.414 Y-43.804
X23.558 Y-43.752
X23.703 Y-43.686
X23.871 Y-43.592
X24.037 Y-43.481
X24.225 Y-43.333
X24.409 Y-43.162
X24.614 Y-42.938
X24.813 Y-42.683
X25.033 Y-42.348
X25.234 Y-41.981
X25.443 Y-41.512
X25.642 Y-40.951
X25.807 Y-40.33
X25.925 Y-39.699
X25.997 Y-39.061
X26.021 Y-38.441
X25.998 Y-37.891
X25.94 Y-37.418
X25.867 Y-37.064
X25.779 Y-36.761
X25.694 Y-36.538
X25.597 Y-36.334
X25.571 Y-36.289
X25.441 Y-36.123
X25.269 Y-36.001
X25.07 Y-35.932
X24.86 Y-35.922
X23.735 Y-36.021
G3 X23.458 Y-36.302 Z-4.589 I0.039 J-0.315
G1 X23.45 Y-36.374 Z-4.56
X23.423 Y-36.621
X22.705 Y-43.276
X22.68 Y-43.514
X22.679 Y-43.523
G3 X22.97 Y-43.865 Z-4.76 I0.317 J-0.025
G1 X23.218 Y-43.876
X23.364 Y-43.884
X23.947 Y-43.935
X24.097 Y-43.94
X24.247 Y-43.928
X24.394 Y-43.901
X24.539 Y-43.859
X24.684 Y-43.804
X24.852 Y-43.724
X25.023 Y-43.626
X25.212 Y-43.495
X25.401 Y-43.341
X25.609 Y-43.141
X25.815 Y-42.91
X26.042 Y-42.608
X26.252 Y-42.278
X26.477 Y-41.851
X26.69 Y-41.353
X26.875 Y-40.804
X27.03 Y-40.181
X27.136 Y-39.547
X27.194 Y-38.908
X27.202 Y-38.281
X27.166 Y-37.752
X27.098 Y-37.29
X27.01 Y-36.914
X26.917 Y-36.621
X26.823 Y-36.391
X26.723 Y-36.194
X26.648 Y-36.071
X26.494 Y-35.892
X26.291 Y-35.77
X26.06 Y-35.719
X25.824 Y-35.743
X25.699 Y-35.776
X25.261 Y-35.882
X25.115 Y-35.897
X24.86 Y-35.922
G3 X24.586 Y-36.197 Z-4.592 I0.041 J-0.315
G1 X24.576 Y-36.277 Z-4.56
X24.545 Y-36.523
X23.702 Y-43.335
X23.671 Y-43.58
Y-43.581
G3 X23.947 Y-43.935 Z-4.76 I0.315 J-0.038
G1 X24.823 Y-44.011
X25.049 Y-44.033
X25.199 Y-44.04
X25.349 Y-44.026
X25.496 Y-43.997
X25.64 Y-43.956
X25.805 Y-43.893
X25.97 Y-43.815
X26.159 Y-43.706
X26.343 Y-43.579
X26.556 Y-43.405
X26.76 Y-43.209
X26.992 Y-42.948
X27.209 Y-42.661
X27.439 Y-42.298
X27.668 Y-41.862
X27.871 Y-41.39
X28.06 Y-40.826
X28.215 Y-40.203
X28.321 Y-39.57
X28.379 Y-38.93
X28.387 Y-38.306
X28.348 Y-37.732
X28.275 Y-37.247
X28.179 Y-36.831
X28.077 Y-36.514
X27.96 Y-36.229
X27.857 Y-36.026
X27.742 Y-35.838
X27.67 Y-35.739
X27.514 Y-35.581
X27.318 Y-35.477
X27.1 Y-35.435
X26.88 Y-35.46
X25.824 Y-35.743
G3 X25.602 Y-36.012 Z-4.611 I0.093 J-0.304
G1 X25.588 Y-36.14 Z-4.56
X25.561 Y-36.386
X24.802 Y-43.43
X24.775 Y-43.677
Y-43.684 Z-4.563
G3 X25.049 Y-44.033 Z-4.76 I0.316 J-0.034
G1 X25.261 Y-44.055
X25.699 Y-44.161
X25.845 Y-44.199
X25.991 Y-44.231
X26.141 Y-44.243
X26.291 Y-44.237
X26.439 Y-44.217
X26.592 Y-44.181
X26.752 Y-44.13
X26.929 Y-44.058
X27.112 Y-43.965
X27.314 Y-43.842
X27.52 Y-43.691
X27.746 Y-43.497
X27.968 Y-43.273
X28.211 Y-42.984
X28.439 Y-42.664
X28.674 Y-42.272
X28.911 Y-41.794
X29.117 Y-41.274
X29.299 Y-40.685
X29.437 Y-40.058
X29.528 Y-39.423
X29.571 Y-38.782
X29.566 Y-38.14
X29.514 Y-37.552
X29.43 Y-37.054
X29.319 Y-36.617
X29.192 Y-36.247
X29.069 Y-35.962
X28.943 Y-35.726
X28.827 Y-35.545
X28.691 Y-35.366
X28.661 Y-35.333
X28.478 Y-35.185
X28.258 Y-35.101
X28.023 Y-35.091
X27.797 Y-35.156
X27.742 Y-35.181
X27.596 Y-35.246
X27.158 Y-35.385
X26.88 Y-35.46
G3 X26.658 Y-35.723 Z-4.614 I0.093 J-0.304
G1 X26.641 Y-35.857 Z-4.56
X26.609 Y-36.103
X25.661 Y-43.556
X25.629 Y-43.802
X25.623 Y-43.856 Z-4.582
G3 X25.845 Y-44.199 Z-4.76 I0.315 J-0.04
G1 X26.801 Y-44.455
X26.947 Y-44.487
X27.096 Y-44.503
X27.246 Y-44.502
X27.396 Y-44.487
X27.554 Y-44.456
X27.714 Y-44.412
X27.901 Y-44.343
X28.088 Y-44.258
X28.301 Y-44.138
X28.508 Y-43.998
X28.744 Y-43.81
X28.974 Y-43.595
X29.223 Y-43.32
X29.48 Y-42.988
X29.718 Y-42.621
X29.964 Y-42.168
X30.198 Y-41.637
X30.402 Y-41.053
X30.564 Y-40.432
X30.677 Y-39.8
X30.744 Y-39.161
X30.766 Y-38.519
X30.741 Y-37.877
X30.67 Y-37.271
X30.566 Y-36.753
X30.436 Y-36.296
X30.288 Y-35.899
X30.149 Y-35.602
X30.004 Y-35.349
X29.869 Y-35.151
X29.743 Y-34.994
X29.594 Y-34.837
X29.577 Y-34.822
X29.397 Y-34.703
X29.191 Y-34.641
X28.976
X28.769 Y-34.702
X27.797 Y-35.156
G3 X27.625 Y-35.401 Z-4.635 I0.144 J-0.283
G1 X27.603 Y-35.587 Z-4.56
X27.573 Y-35.833
X26.614 Y-43.812
X26.585 Y-44.058
X26.578 Y-44.114 Z-4.582
G3 X26.801 Y-44.455 Z-4.76 I0.315 J-0.038
G1 X27.158 Y-44.551
X27.596 Y-44.691
X27.676 Y-44.726
X27.816 Y-44.78
X27.963 Y-44.809
X28.113 Y-44.821
X28.263 Y-44.817
X28.412 Y-44.8
X28.578 Y-44.767
X28.752 Y-44.718
X28.947 Y-44.645
X29.149 Y-44.551
X29.372 Y-44.424
X29.603 Y-44.267
X29.842 Y-44.075
X30.104 Y-43.827
X30.352 Y-43.552
X30.622 Y-43.199
X30.893 Y-42.778
X31.137 Y-42.322
X31.375 Y-41.778
X31.584 Y-41.171
X31.744 Y-40.549
X31.859 Y-39.917
X31.932 Y-39.279
X31.962 Y-38.637
X31.948 Y-37.995
X31.888 Y-37.356
X31.785 Y-36.764
X31.648 Y-36.236
X31.487 Y-35.769
X31.32 Y-35.388
X31.142 Y-35.058
X30.989 Y-34.82
X30.827 Y-34.61
X30.689 Y-34.457
X30.53 Y-34.307
X30.524 Y-34.302
X30.322 Y-34.187
X30.094 Y-34.14
X29.863 Y-34.166
X29.651 Y-34.262
X29.595 Y-34.3
X29.493 Y-34.361
X29.007 Y-34.591
X28.769 Y-34.702
G3 X28.598 Y-34.949 Z-4.635 I0.144 J-0.283
G1 X28.576 Y-35.133 Z-4.56
X28.548 Y-35.38
X27.54 Y-44.052
X27.511 Y-44.299
X27.499 Y-44.404 Z-4.603
G3 X27.676 Y-44.726 Z-4.76 I0.315 J-0.037
G1 X27.742 Y-44.755
X28.472 Y-45.096
X28.61 Y-45.152
X28.755 Y-45.193
X28.903 Y-45.217
X29.053 Y-45.225
X29.203 Y-45.22
X29.367 Y-45.201
X29.544 Y-45.165
X29.74 Y-45.11
X29.947 Y-45.032
X30.167 Y-44.929
X30.407 Y-44.792
X30.65 Y-44.626
X30.925 Y-44.405
X31.187 Y-44.156
X31.465 Y-43.847
X31.758 Y-43.462
X32.026 Y-43.045
X32.293 Y-42.544
X32.545 Y-41.963
X32.753 Y-41.356
X32.916 Y-40.734
X33.037 Y-40.104
X33.119 Y-39.467
X33.159 Y-38.826
X33.158 Y-38.184
X33.115 Y-37.543
X33.027 Y-36.907
X32.892 Y-36.279
X32.73 Y-35.738
X32.546 Y-35.267
X32.346 Y-34.854
X32.145 Y-34.513
X31.978 Y-34.276
X31.798 Y-34.059
X31.645 Y-33.902
X31.491 Y-33.768
X31.375 Y-33.682
X31.171 Y-33.576
X30.944 Y-33.537
X30.716 Y-33.57
X30.509 Y-33.671
X29.931 Y-34.076
X29.712 Y-34.223
X29.651 Y-34.262
G3 X29.521 Y-34.483 Z-4.654 I0.184 J-0.258
G1 X29.493 Y-34.716 Z-4.56
X29.464 Y-34.962
X28.343 Y-44.418
X28.314 Y-44.664
X28.3 Y-44.775 Z-4.605
G3 X28.472 Y-45.096 Z-4.76 I0.315 J-0.037
G1 X29.1 Y-45.389
X29.408 Y-45.535
X29.546 Y-45.592
X29.691 Y-45.631
X29.839 Y-45.653
X29.989 Y-45.661
X30.142 Y-45.657
X30.317 Y-45.637
X30.503 Y-45.601
X30.712 Y-45.543
X30.925 Y-45.465
X31.169 Y-45.353
X31.409 Y-45.218
X31.685 Y-45.033
X31.959 Y-44.814
X32.243 Y-44.548
X32.55 Y-44.21
X32.842 Y-43.831
X33.135 Y-43.381
X33.424 Y-42.846
X33.684 Y-42.258
X33.898 Y-41.653
X34.07 Y-41.034
X34.203 Y-40.406
X34.297 Y-39.771
X34.352 Y-39.131
X34.368 Y-38.489
X34.346 Y-37.847
X34.284 Y-37.208
X34.183 Y-36.574
X34.038 Y-35.948
X33.85 Y-35.351
X33.638 Y-34.825
X33.423 Y-34.398
X33.199 Y-34.028
X32.978 Y-33.722
X32.782 Y-33.492
X32.588 Y-33.299
X32.428 Y-33.162
X32.246 Y-33.031
X32.213 Y-33.012
X32.012 Y-32.927
X31.794 Y-32.906
X31.58 Y-32.948
X31.388 Y-33.051
X31.279 Y-33.132
X30.509 Y-33.671
G3 X30.385 Y-33.893 Z-4.655 I0.191 J-0.254
G1 X30.361 Y-34.128 Z-4.56
X30.336 Y-34.375
X29.275 Y-44.855
X29.25 Y-45.102
X29.238 Y-45.221 Z-4.608
G3 X29.408 Y-45.535 Z-4.76 I0.316 J-0.032
G1 X29.493 Y-45.575
X29.639 Y-45.664
X29.785 Y-45.759
X29.931 Y-45.86
X30.077 Y-45.963
X30.204 Y-46.042
X30.342 Y-46.101
X30.486 Y-46.142
X30.634 Y-46.168
X30.783 Y-46.181
X30.948 Y-46.182
X31.129 Y-46.169
X31.327 Y-46.137
X31.539 Y-46.087
X31.776 Y-46.009
X32.016 Y-45.909
X32.292 Y-45.766
X32.563 Y-45.598
X32.859 Y-45.378
X33.176 Y-45.101
X33.477 Y-44.792
X33.801 Y-44.402
X34.131 Y-43.931
X34.447 Y-43.394
X34.727 Y-42.816
X34.962 Y-42.219
X35.156 Y-41.607
X35.312 Y-40.984
X35.431 Y-40.352
X35.514 Y-39.716
X35.562 Y-39.075
X35.574 Y-38.433
X35.552 Y-37.791
X35.495 Y-37.152
X35.4 Y-36.517
X35.264 Y-35.889
X35.087 Y-35.272
X34.867 Y-34.672
X34.63 Y-34.155
X34.377 Y-33.706
X34.118 Y-33.32
X33.868 Y-33.007
X33.661 Y-32.786
X33.449 Y-32.593
X33.277 Y-32.46
X33.094 Y-32.341
X32.92 Y-32.247
X32.894 Y-32.235
X32.68 Y-32.177
X32.459 Y-32.184
X32.249 Y-32.257
X32.071 Y-32.389
X31.764 Y-32.695
X31.462 Y-32.986
X31.388 Y-33.051
X31.343 Y-33.095 Z-4.735
X31.308 Y-33.147 Z-4.71
X31.283 Y-33.204 Z-4.684
X31.27 Y-33.266 Z-4.659
X31.244 Y-33.512 Z-4.56
X31.218 Y-33.759
X29.996 Y-45.258
X29.97 Y-45.505
X29.952 Y-45.676 Z-4.629
G3 X30.077 Y-45.963 Z-4.76 I0.316 J-0.034
G1 X30.871 Y-46.519
X30.998 Y-46.599
X31.136 Y-46.658
X31.28 Y-46.702
X31.427 Y-46.732
X31.585 Y-46.749
X31.753 Y-46.754
X31.944 Y-46.745
X32.148 Y-46.718
X32.374 Y-46.67
X32.619 Y-46.597
X32.878 Y-46.496
X33.167 Y-46.356
X33.451 Y-46.189
X33.767 Y-45.967
X34.106 Y-45.686
X34.431 Y-45.369
X34.782 Y-44.967
X35.136 Y-44.489
X35.476 Y-43.943
X35.771 Y-43.373
X36.024 Y-42.783
X36.237 Y-42.177
X36.413 Y-41.559
X36.553 Y-40.933
X36.66 Y-40.299
X36.734 Y-39.662
X36.776 Y-39.021
X36.786 Y-38.379
X36.764 Y-37.737
X36.709 Y-37.097
X36.619 Y-36.461
X36.493 Y-35.831
X36.329 Y-35.211
X36.125 Y-34.601
X35.88 Y-34.008
X35.601 Y-33.454
X35.324 Y-33
X35.04 Y-32.608
X34.763 Y-32.285
X34.496 Y-32.02
X34.28 Y-31.837
X34.055 Y-31.676
X33.873 Y-31.566
X33.684 Y-31.473
X33.639 Y-31.455
X33.43 Y-31.405
X33.215 Y-31.417
X33.013 Y-31.49
X32.841 Y-31.619
X32.071 Y-32.389
X32.029 Y-32.445 Z-4.732
X32.001 Y-32.508 Z-4.704
X31.987 Y-32.577 Z-4.676
X31.961 Y-32.864 Z-4.56
X31.938 Y-33.112
X30.785 Y-45.814
X30.762 Y-46.061
X30.746 Y-46.237 Z-4.631
G3 X30.871 Y-46.519 Z-4.76 I0.316 J-0.029
G1 X31.133 Y-46.702
X31.335 Y-46.848
X31.39 Y-46.888
X31.508 Y-46.994
X31.536 Y-47.021
X31.649 Y-47.119
X31.778 Y-47.196
X31.915 Y-47.257
X32.058 Y-47.303
X32.204 Y-47.336
X32.37 Y-47.359
X32.542 Y-47.368
X32.744 Y-47.363
X32.951 Y-47.341
X33.192 Y-47.296
X33.44 Y-47.228
X33.719 Y-47.127
X34.019 Y-46.991
X34.322 Y-46.822
X34.664 Y-46.594
X35.012 Y-46.32
X35.368 Y-45.989
X35.747 Y-45.575
X36.126 Y-45.088
X36.479 Y-44.552
X36.789 Y-43.99
X37.059 Y-43.407
X37.291 Y-42.808
X37.488 Y-42.197
X37.651 Y-41.576
X37.782 Y-40.947
X37.882 Y-40.313
X37.952 Y-39.674
X37.992 Y-39.033
X38.003 Y-38.391
X37.984 Y-37.749
X37.934 Y-37.109
X37.852 Y-36.472
X37.737 Y-35.841
X37.587 Y-35.216
X37.402 Y-34.601
X37.182 Y-33.998
X36.923 Y-33.41
X36.623 Y-32.842
X36.3 Y-32.331
X35.983 Y-31.91
X35.674 Y-31.561
X35.37 Y-31.269
X35.11 Y-31.057
X34.87 Y-30.891
X34.665 Y-30.773
X34.474 Y-30.682
X34.277 Y-30.607
X34.235 Y-30.595
X34.008 Y-30.565
X33.782 Y-30.607
X33.58 Y-30.716
X33.421 Y-30.881
X33.173 Y-31.236
X33.142 Y-31.279
X33.062 Y-31.381
X32.996 Y-31.46
X32.841 Y-31.619
X32.799 Y-31.675 Z-4.732
X32.77 Y-31.739 Z-4.704
X32.756 Y-31.808 Z-4.676
X32.731 Y-32.095 Z-4.56
X32.71 Y-32.342
X31.489 Y-46.299
X31.467 Y-46.547
X31.448 Y-46.772 Z-4.651
G3 X31.536 Y-47.021 Z-4.76 I0.316 J-0.028
G1 X31.682 Y-47.161
X31.974 Y-47.451
X32.158 Y-47.635
X32.269 Y-47.736
X32.393 Y-47.821
X32.526 Y-47.89
X32.665 Y-47.946
X32.81 Y-47.988
X32.966 Y-48.021
X33.148 Y-48.044
X33.339 Y-48.052
X33.563 Y-48.044
X33.791 Y-48.018
X34.058 Y-47.965
X34.332 Y-47.887
X34.634 Y-47.774
X34.969 Y-47.618
X35.298 Y-47.431
X35.668 Y-47.179
X36.065 Y-46.858
X36.444 Y-46.5
X36.843 Y-46.054
X37.233 Y-45.544
X37.582 Y-45.005
X37.892 Y-44.442
X38.166 Y-43.861
X38.405 Y-43.266
X38.612 Y-42.658
X38.787 Y-42.04
X38.931 Y-41.414
X39.045 Y-40.782
X39.131 Y-40.145
X39.188 Y-39.506
X39.218 Y-38.864
X39.221 Y-38.222
X39.195 Y-37.581
X39.141 Y-36.941
X39.058 Y-36.304
X38.944 Y-35.672
X38.8 Y-35.046
X38.623 Y-34.429
X38.412 Y-33.822
X38.167 Y-33.228
X37.887 Y-32.651
X37.569 Y-32.093
X37.211 Y-31.561
X36.854 Y-31.111
X36.514 Y-30.748
X36.182 Y-30.446
X35.868 Y-30.203
X35.611 Y-30.036
X35.36 Y-29.899
X35.151 Y-29.807
X34.96 Y-29.74
X34.834 Y-29.707
X34.611 Y-29.683
X34.391 Y-29.728
X34.194 Y-29.836
X34.039 Y-29.998
X33.421 Y-30.881
G3 X33.789 Y-31.355 I0.266 J-0.173
G1 X33.856 Y-31.332 Z-4.752
X33.92 Y-31.31 Z-4.729
X33.977 Y-31.291 Z-4.691
X34.025 Y-31.275 Z-4.64
X34.06 Y-31.263 Z-4.58
X34.083 Y-31.255 Z-4.513
X34.09 Y-31.253 Z-4.443
G0 Z5
X31.704 Y-46.638
Z-4.125
G1 Z-4.443 F300
X31.706 Y-46.646 Z-4.513
X31.711 Y-46.669 Z-4.58
X31.721 Y-46.705 Z-4.64
X31.733 Y-46.754 Z-4.691
X31.748 Y-46.813 Z-4.729
X31.764 Y-46.878 Z-4.752
X31.782 Y-46.946 Z-4.76
G3 X32.158 Y-47.635 I1.534 J0.39
G1 X32.83 Y-48.307
X32.941 Y-48.408
X33.062 Y-48.497
X33.192 Y-48.572
X33.329 Y-48.633
X33.472 Y-48.681
X33.629 Y-48.721
X33.809 Y-48.751
X34.007 Y-48.768
X34.229 Y-48.769
X34.473 Y-48.751
X34.732 Y-48.71
X35.032 Y-48.638
X35.332 Y-48.54
X35.679 Y-48.395
X36.047 Y-48.205
X36.414 Y-47.976
X36.821 Y-47.675
X37.252 Y-47.299
X37.674 Y-46.866
X38.084 Y-46.372
X38.454 Y-45.847
X38.788 Y-45.298
X39.087 Y-44.73
X39.353 Y-44.146
X39.588 Y-43.548
X39.793 Y-42.939
X39.968 Y-42.321
X40.115 Y-41.696
X40.235 Y-41.065
X40.328 Y-40.43
X40.395 Y-39.791
X40.435 Y-39.15
X40.448 Y-38.508
X40.436 Y-37.866
X40.396 Y-37.225
X40.33 Y-36.587
X40.237 Y-35.951
X40.116 Y-35.321
X39.966 Y-34.696
X39.787 Y-34.079
X39.578 Y-33.472
X39.338 Y-32.876
X39.065 Y-32.295
X38.757 Y-31.732
X38.414 Y-31.189
X38.034 Y-30.671
X37.64 Y-30.211
X37.267 Y-29.841
X36.898 Y-29.529
X36.554 Y-29.283
X36.256 Y-29.104
X35.983 Y-28.968
X35.756 Y-28.878
X35.552 Y-28.815
X35.34 Y-28.768
X35.302 Y-28.762
X35.067 Y-28.767
X34.845 Y-28.845
X34.659 Y-28.988
X34.528 Y-29.183
X34.455 Y-29.339
X34.375 Y-29.485
X34.293 Y-29.63
X34.195 Y-29.776
X34.039 Y-29.998
G3 X34.407 Y-30.472 I0.266 J-0.173
G1 X34.474 Y-30.449 Z-4.752
X34.538 Y-30.428 Z-4.729
X34.595 Y-30.408 Z-4.691
X34.642 Y-30.392 Z-4.64
X34.678 Y-30.38 Z-4.58
X34.701 Y-30.373 Z-4.513
X34.708 Y-30.37 Z-4.443
G0 Z5
X32.375 Y-47.31
Z-4.125
G1 Z-4.443 F300
X32.377 Y-47.318 Z-4.513
X32.383 Y-47.341 Z-4.58
X32.392 Y-47.377 Z-4.64
X32.405 Y-47.426 Z-4.691
X32.42 Y-47.484 Z-4.729
X32.436 Y-47.549 Z-4.752
X32.454 Y-47.618 Z-4.76
G3 X32.83 Y-48.307 I1.534 J0.39
G1 X32.85 Y-48.327
X33.097 Y-48.599
X33.142 Y-48.657
X33.337 Y-48.935
X33.429 Y-49.053
X33.538 Y-49.156
X33.659 Y-49.245
X33.788 Y-49.32
X33.925 Y-49.383
X34.08 Y-49.44
X34.245 Y-49.485
X34.438 Y-49.521
X34.645 Y-49.543
X34.882 Y-49.55
X35.141 Y-49.535
X35.422 Y-49.497
X35.741 Y-49.428
X36.062 Y-49.33
X36.424 Y-49.187
X36.826 Y-48.99
X37.221 Y-48.756
X37.653 Y-48.449
X38.109 Y-48.067
X38.567 Y-47.617
X38.987 Y-47.131
X39.371 Y-46.617
X39.721 Y-46.078
X40.037 Y-45.519
X40.322 Y-44.944
X40.577 Y-44.354
X40.803 Y-43.753
X41.002 Y-43.143
X41.174 Y-42.524
X41.32 Y-41.899
X41.441 Y-41.268
X41.536 Y-40.633
X41.607 Y-39.994
X41.653 Y-39.354
X41.674 Y-38.712
X41.671 Y-38.07
X41.642 Y-37.428
X41.587 Y-36.789
X41.508 Y-36.151
X41.403 Y-35.518
X41.272 Y-34.889
X41.115 Y-34.266
X40.931 Y-33.651
X40.719 Y-33.045
X40.478 Y-32.45
X40.208 Y-31.867
X39.907 Y-31.3
X39.573 Y-30.751
X39.206 Y-30.224
X38.805 Y-29.723
X38.369 Y-29.251
X37.956 Y-28.872
X37.557 Y-28.56
X37.178 Y-28.31
X36.832 Y-28.12
X36.558 Y-27.997
X36.288 Y-27.901
X36.071 Y-27.843
X35.872 Y-27.806
X35.725 Y-27.791
X35.497 Y-27.804
X35.284 Y-27.884
X35.106 Y-28.026
X34.979 Y-28.215
X34.528 Y-29.183
G3 X34.973 Y-29.585 I0.292 J-0.124
G1 X35.034 Y-29.551 Z-4.752
X35.093 Y-29.519 Z-4.729
X35.146 Y-29.49 Z-4.691
X35.19 Y-29.466 Z-4.64
X35.223 Y-29.448 Z-4.58
X35.244 Y-29.436 Z-4.513
X35.251 Y-29.433 Z-4.443
G0 Z5
X33.062 Y-47.874
Z-4.125
G1 Z-4.443 F300
X33.063 Y-47.882 Z-4.513
X33.064 Y-47.905 Z-4.58
X33.067 Y-47.943 Z-4.64
X33.071 Y-47.993 Z-4.691
X33.075 Y-48.053 Z-4.729
X33.08 Y-48.12 Z-4.752
X33.086 Y-48.191 Z-4.76
G3 X33.337 Y-48.935 I1.578 J0.118
G1 X33.871 Y-49.698
X33.963 Y-49.817
X34.07 Y-49.922
X34.188 Y-50.014
X34.315 Y-50.094
X34.451 Y-50.163
X34.6 Y-50.224
X34.776 Y-50.28
X34.969 Y-50.325
X35.185 Y-50.357
X35.429 Y-50.374
X35.689 Y-50.37
X35.995 Y-50.342
X36.305 Y-50.288
X36.656 Y-50.197
X37.045 Y-50.062
X37.432 Y-49.891
X37.87 Y-49.655
X38.345 Y-49.347
X38.816 Y-48.985
X39.292 Y-48.554
X39.732 Y-48.087
X40.138 Y-47.589
X40.512 Y-47.067
X40.854 Y-46.524
X41.167 Y-45.963
X41.451 Y-45.387
X41.708 Y-44.798
X41.938 Y-44.199
X42.142 Y-43.59
X42.322 Y-42.973
X42.477 Y-42.35
X42.607 Y-41.721
X42.713 Y-41.088
X42.796 Y-40.451
X42.855 Y-39.812
X42.891 Y-39.17
X42.904 Y-38.528
X42.893 Y-37.886
X42.859 Y-37.245
X42.802 Y-36.605
X42.721 Y-35.968
X42.617 Y-35.335
X42.488 Y-34.705
X42.335 Y-34.082
X42.157 Y-33.465
X41.953 Y-32.856
X41.722 Y-32.257
X41.464 Y-31.669
X41.178 Y-31.094
X40.864 Y-30.534
X40.52 Y-29.991
X40.147 Y-29.469
X39.744 Y-28.969
X39.308 Y-28.497
X38.846 Y-28.068
X38.388 Y-27.705
X37.959 Y-27.419
X37.575 Y-27.204
X37.212 Y-27.039
X36.917 Y-26.931
X36.632 Y-26.853
X36.417 Y-26.812
X36.195 Y-26.789
X36.093 Y-26.786
X35.899 Y-26.806
X35.717 Y-26.877
X35.56 Y-26.993
X35.438 Y-27.145
X35.361 Y-27.324
X35.327 Y-27.442
X35.268 Y-27.588
X35.203 Y-27.734
X34.979 Y-28.215
G3 X35.424 Y-28.618 I0.292 J-0.124
G1 X35.486 Y-28.584 Z-4.752
X35.544 Y-28.552 Z-4.729
X35.597 Y-28.523 Z-4.691
X35.641 Y-28.499 Z-4.64
X35.674 Y-28.48 Z-4.58
X35.695 Y-28.469 Z-4.513
X35.702 Y-28.465 Z-4.443
G0 Z5
X33.597 Y-48.637
Z-4.125
G1 Z-4.443 F300
Y-48.645 Z-4.513
X33.599 Y-48.669 Z-4.58
X33.602 Y-48.707 Z-4.64
X33.606 Y-48.757 Z-4.691
X33.61 Y-48.817 Z-4.729
X33.615 Y-48.884 Z-4.752
X33.62 Y-48.954 Z-4.76
G3 X33.871 Y-49.698 I1.578 J0.118
G1 X34.225 Y-50.204
X34.309 Y-50.332
X34.367 Y-50.43
X34.45 Y-50.555
X34.546 Y-50.67
X34.656 Y-50.772
X34.776 Y-50.862
X34.905 Y-50.94
X35.044 Y-51.01
X35.212 Y-51.078
X35.391 Y-51.134
X35.606 Y-51.183
X35.831 Y-51.216
X36.101 Y-51.233
X36.38 Y-51.228
X36.697 Y-51.198
X37.054 Y-51.134
X37.416 Y-51.038
X37.837 Y-50.89
X38.293 Y-50.687
X38.743 Y-50.442
X39.234 Y-50.121
X39.742 Y-49.727
X40.217 Y-49.295
X40.659 Y-48.83
X41.071 Y-48.337
X41.453 Y-47.821
X41.807 Y-47.285
X42.132 Y-46.731
X42.429 Y-46.162
X42.701 Y-45.58
X42.947 Y-44.987
X43.169 Y-44.384
X43.367 Y-43.773
X43.541 Y-43.155
X43.693 Y-42.531
X43.822 Y-41.902
X43.928 Y-41.269
X44.013 Y-40.632
X44.075 Y-39.993
X44.116 Y-39.352
X44.135 Y-38.71
X44.131 Y-38.068
X44.106 Y-37.426
X44.058 Y-36.786
X43.988 Y-36.147
X43.896 Y-35.512
X43.782 Y-34.88
X43.645 Y-34.253
X43.485 Y-33.631
X43.301 Y-33.015
X43.093 Y-32.408
X42.861 Y-31.809
X42.604 Y-31.22
X42.321 Y-30.644
X42.012 Y-30.081
X41.676 Y-29.533
X41.313 Y-29.004
X40.922 Y-28.494
X40.503 Y-28.008
X40.054 Y-27.549
X39.575 Y-27.121
X39.079 Y-26.74
X38.601 Y-26.431
X38.172 Y-26.2
X37.771 Y-26.023
X37.411 Y-25.899
X37.111 Y-25.821
X36.864 Y-25.778
X36.636 Y-25.757
X36.428 Y-25.755
X36.244 Y-25.767
X36.039 Y-25.829
X35.86 Y-25.948
X35.723 Y-26.112
X35.638 Y-26.308
X35.452 Y-27.004
X35.361 Y-27.324
G3 X35.864 Y-27.651 I0.308 J-0.076
G1 X35.92 Y-27.607 Z-4.752
X35.973 Y-27.566 Z-4.729
X36.02 Y-27.529 Z-4.691
X36.06 Y-27.498 Z-4.64
X36.09 Y-27.475 Z-4.58
X36.108 Y-27.461 Z-4.513
X36.115 Y-27.456 Z-4.443
G0 Z5
X34.175 Y-49.351
Z-4.125
G1 Z-4.443 F300
Y-49.359 Z-4.513
Y-49.383 Z-4.58
Y-49.421 Z-4.64
Y-49.471 Z-4.691
Y-49.531 Z-4.729
Y-49.598 Z-4.752
X34.174 Y-49.669 Z-4.76
G3 X34.367 Y-50.43 I1.583 J-0.005
G1 X34.406 Y-50.496
X34.475 Y-50.642
X34.717 Y-51.159
X34.787 Y-51.292
X34.871 Y-51.416
X34.97 Y-51.528
X35.081 Y-51.63
X35.2 Y-51.72
X35.334 Y-51.804
X35.487 Y-51.884
X35.662 Y-51.958
X35.862 Y-52.025
X36.084 Y-52.079
X36.342 Y-52.12
X36.61 Y-52.142
X36.927 Y-52.141
X37.265 Y-52.114
X37.637 Y-52.053
X38.056 Y-51.95
X38.491 Y-51.804
X38.952 Y-51.608
X39.461 Y-51.341
X39.993 Y-51.004
X40.507 Y-50.619
X40.991 Y-50.197
X41.445 Y-49.743
X41.871 Y-49.262
X42.268 Y-48.757
X42.637 Y-48.232
X42.98 Y-47.689
X43.298 Y-47.131
X43.591 Y-46.559
X43.86 Y-45.976
X44.105 Y-45.383
X44.328 Y-44.781
X44.529 Y-44.17
X44.707 Y-43.553
X44.864 Y-42.931
X44.999 Y-42.303
X45.113 Y-41.671
X45.206 Y-41.036
X45.278 Y-40.397
X45.329 Y-39.757
X45.359 Y-39.116
X45.369 Y-38.474
X45.358 Y-37.832
X45.326 Y-37.19
X45.273 Y-36.55
X45.2 Y-35.912
X45.106 Y-35.277
X44.991 Y-34.645
X44.854 Y-34.018
X44.696 Y-33.395
X44.516 Y-32.779
X44.314 Y-32.169
X44.089 Y-31.568
X43.84 Y-30.976
X43.567 Y-30.394
X43.271 Y-29.825
X42.95 Y-29.268
X42.604 Y-28.727
X42.234 Y-28.203
X41.838 Y-27.697
X41.416 Y-27.213
X40.969 Y-26.752
X40.494 Y-26.32
X39.991 Y-25.921
X39.471 Y-25.566
X38.973 Y-25.281
X38.5 Y-25.06
X38.077 Y-24.902
X37.696 Y-24.793
X37.36 Y-24.726
X37.09 Y-24.694
X36.846 Y-24.685
X36.646 Y-24.694
X36.536 Y-24.708
X36.315 Y-24.771
X36.124 Y-24.899
X35.982 Y-25.08
X35.901 Y-25.295
X35.88 Y-25.399
X35.843 Y-25.545
X35.638 Y-26.308
G3 X35.846 Y-26.681 I0.309 J-0.071
G1 X35.897 Y-26.689 Z-4.756
X35.947 Y-26.697 Z-4.743
X36.006 Y-26.682 Z-4.714
X36.057 Y-26.669 Z-4.674
X36.099 Y-26.659 Z-4.623
X36.125 Y-26.642 Z-4.567
X36.141 Y-26.631 Z-4.506
X36.146 Y-26.627 Z-4.443
G0 Z5
X34.63 Y-50.067
Z-4.125
G1 Z-4.443 F300
Y-50.074 Z-4.513
X34.627 Y-50.098 Z-4.58
X34.623 Y-50.135 Z-4.64
X34.618 Y-50.185 Z-4.691
X34.612 Y-50.245 Z-4.729
X34.606 Y-50.312 Z-4.752
X34.599 Y-50.382 Z-4.76
G3 X34.717 Y-51.159 I1.575 J-0.158
G1 X35.125 Y-52.035
X35.195 Y-52.168
X35.278 Y-52.293
X35.376 Y-52.407
X35.484 Y-52.51
X35.602 Y-52.603
X35.742 Y-52.696
X35.895 Y-52.781
X36.081 Y-52.866
X36.279 Y-52.937
X36.519 Y-53.002
X36.771 Y-53.05
X37.068 Y-53.081
X37.396 Y-53.089
X37.745 Y-53.069
X38.147 Y-53.014
X38.577 Y-52.92
X39.03 Y-52.781
X39.541 Y-52.579
X40.086 Y-52.31
X40.637 Y-51.981
X41.161 Y-51.61
X41.658 Y-51.203
X42.126 Y-50.764
X42.567 Y-50.297
X42.983 Y-49.807
X43.372 Y-49.297
X43.737 Y-48.769
X44.078 Y-48.224
X44.395 Y-47.666
X44.69 Y-47.095
X44.962 Y-46.513
X45.212 Y-45.922
X45.44 Y-45.322
X45.648 Y-44.714
X45.834 Y-44.099
X46 Y-43.479
X46.145 Y-42.853
X46.245 Y-42.347
X46.253 Y-42.299
X46.258 Y-42.251
X46.259 Y-42.203
Y-35.905
X46.227 Y-35.263
X46.171 Y-34.624
X46.071 Y-33.989
X45.938 Y-33.361
X45.777 Y-32.739
X45.591 Y-32.125
X45.382 Y-31.518
X45.149 Y-30.919
X44.893 Y-30.33
X44.616 Y-29.751
X44.315 Y-29.183
X43.992 Y-28.628
X43.647 Y-28.087
X43.278 Y-27.561
X42.887 Y-27.052
X42.471 Y-26.562
X42.031 Y-26.095
X41.566 Y-25.652
X41.076 Y-25.237
X40.561 Y-24.852
X40.022 Y-24.504
X39.469 Y-24.202
X38.95 Y-23.971
X38.49 Y-23.809
X38.06 Y-23.695
X37.692 Y-23.629
X37.392 Y-23.6
X37.129 Y-23.595
X36.92 Y-23.609
X36.699 Y-23.64
X36.574 Y-23.669
X36.358 Y-23.755
X36.18 Y-23.904
X36.056 Y-24.101
X36 Y-24.327
X35.932 Y-25.107
X35.91 Y-25.253
X35.901 Y-25.295
G3 X35.981 Y-25.563 Z-4.644 I0.313 J-0.052
G1 X36.123 Y-25.717 Z-4.56
X36.291 Y-25.899
X45.709 Y-36.109
X45.756 Y-36.151
X45.81 Y-36.182
X45.869 Y-36.203
X45.931 Y-36.211
G3 X46.259 Y-35.905 Z-4.76 I0.011 J0.317
G1 Y-31.673
X46.24 Y-31.288
X46.192 Y-30.924
X46.094 Y-30.462
X45.923 Y-29.893
X45.69 Y-29.294
X45.417 Y-28.713
X45.112 Y-28.148
X44.78 Y-27.598
X44.423 Y-27.064
X44.042 Y-26.547
X43.638 Y-26.048
X43.211 Y-25.568
X42.762 Y-25.11
X42.29 Y-24.674
X41.796 Y-24.264
X41.28 Y-23.882
X40.741 Y-23.532
X40.181 Y-23.219
X39.615 Y-22.957
X39.077 Y-22.758
X38.581 Y-22.618
X38.156 Y-22.535
X37.761 Y-22.49
X37.448 Y-22.48
X37.152 Y-22.494
X36.932 Y-22.523
X36.72 Y-22.567
X36.622 Y-22.596
X36.422 Y-22.69
X36.259 Y-22.838
X36.147 Y-23.028
X36.095 Y-23.242
X36 Y-24.327
G3 X36.125 Y-24.596 Z-4.636 I0.317 J-0.017
G1 X36.276 Y-24.711 Z-4.56
X36.473 Y-24.861
X45.708 Y-31.883
X45.75 Y-31.915
X45.805 Y-31.949
X45.867 Y-31.971
X45.931 Y-31.979
G3 X46.259 Y-31.673 Z-4.76 I0.011 J0.317
G1 Y-29.047
X46.243 Y-28.719
X46.208 Y-28.455
X46.143 Y-28.148
X46.031 Y-27.776
X45.865 Y-27.349
X45.612 Y-26.828
X45.286 Y-26.275
X44.922 Y-25.746
X44.527 Y-25.24
X44.106 Y-24.755
X43.661 Y-24.292
X43.194 Y-23.851
X42.705 Y-23.435
X42.195 Y-23.044
X41.664 Y-22.683
X41.113 Y-22.354
X40.542 Y-22.06
X39.952 Y-21.806
X39.366 Y-21.605
X38.84 Y-21.471
X38.362 Y-21.389
X37.926 Y-21.35
X37.564 Y-21.346
X37.262 Y-21.368
X37.012 Y-21.406
X36.805 Y-21.455
X36.596 Y-21.522
X36.568 Y-21.534
X36.382 Y-21.646
X36.236 Y-21.807
X36.143 Y-22.003
X36.111 Y-22.218
Y-22.627
X36.11 Y-22.773
X36.1 Y-23.139
X36.098 Y-23.21
X36.095 Y-23.242
G3 X36.247 Y-23.53 Z-4.623 I0.317 J-0.017
G1 X36.381 Y-23.611 Z-4.56
X36.593 Y-23.74
X45.704 Y-29.263
X45.778 Y-29.307
X45.826 Y-29.331
X45.878 Y-29.347
X45.931 Y-29.353
G3 X46.259 Y-29.047 Z-4.76 I0.011 J0.317
G1 Y-26.858
X46.247 Y-26.618
X46.218 Y-26.396
X46.168 Y-26.161
X46.081 Y-25.872
X45.956 Y-25.549
X45.765 Y-25.156
X45.507 Y-24.717
X45.146 Y-24.203
X44.736 Y-23.709
X44.293 Y-23.244
X43.825 Y-22.805
X43.333 Y-22.392
X42.82 Y-22.006
X42.287 Y-21.647
X41.735 Y-21.318
X41.166 Y-21.021
X40.579 Y-20.761
X39.975 Y-20.542
X39.379 Y-20.374
X38.825 Y-20.265
X38.315 Y-20.206
X37.876 Y-20.192
X37.487 Y-20.21
X37.199 Y-20.247
X36.93 Y-20.303
X36.728 Y-20.363
X36.585 Y-20.418
X36.392 Y-20.528
X36.241 Y-20.69
X36.144 Y-20.89
X36.111 Y-21.11
Y-22.218
G3 X36.289 Y-22.493 Z-4.622 I0.317 J0.011
G1 X36.428 Y-22.561 Z-4.56
X36.652 Y-22.669
X45.7 Y-27.082
X45.803 Y-27.132
X45.865 Y-27.155
X45.931 Y-27.164
G3 X46.259 Y-26.858 Z-4.76 I0.011 J0.317
G1 Y-24.961
X46.25 Y-24.767
X46.226 Y-24.589
X46.18 Y-24.374
X46.107 Y-24.13
X46.003 Y-23.862
X45.848 Y-23.544
X45.642 Y-23.192
X45.36 Y-22.792
X44.978 Y-22.332
X44.53 Y-21.872
X44.05 Y-21.446
X43.544 Y-21.05
X43.017 Y-20.683
X42.471 Y-20.345
X41.907 Y-20.039
X41.325 Y-19.766
X40.728 Y-19.53
X40.117 Y-19.332
X39.494 Y-19.178
X38.888 Y-19.077
X38.366 Y-19.032
X37.893 Y-19.029
X37.485 Y-19.06
X37.167 Y-19.11
X36.9 Y-19.174
X36.692 Y-19.242
X36.566 Y-19.295
X36.38 Y-19.407
X36.235 Y-19.568
X36.143 Y-19.764
X36.111 Y-19.978
Y-21.11
G3 X36.309 Y-21.393 Z-4.613 I0.317 J0.011
G1 X36.432 Y-21.443 Z-4.56
X36.663 Y-21.536
X45.696 Y-25.193
X45.823 Y-25.245
X45.876 Y-25.261
X45.931 Y-25.268
G3 X46.259 Y-24.961 Z-4.76 I0.011 J0.317
G1 Y-23.21
X46.252 Y-23.061
X46.223 Y-22.875
X46.179 Y-22.686
X46.107 Y-22.464
X46 Y-22.205
X45.862 Y-21.935
X45.662 Y-21.612
X45.407 Y-21.265
X45.068 Y-20.874
X44.622 Y-20.437
X44.129 Y-20.025
X43.609 Y-19.649
X43.067 Y-19.305
X42.506 Y-18.993
X41.928 Y-18.713
X41.334 Y-18.467
X40.727 Y-18.258
X40.108 Y-18.087
X39.479 Y-17.958
X38.847 Y-17.875
X38.302 Y-17.849
X37.813 Y-17.864
X37.404 Y-17.91
X37.085 Y-17.972
X36.828 Y-18.044
X36.618 Y-18.121
X36.541 Y-18.157
X36.365 Y-18.271
X36.228 Y-18.43
X36.141 Y-18.621
X36.111 Y-18.829
Y-19.978
G3 X36.326 Y-20.268 Z-4.606 I0.317 J0.011
G1 X36.435 Y-20.304 Z-4.56
X36.67 Y-20.384
X45.693 Y-23.45
X45.84 Y-23.5
X45.885 Y-23.512
X45.931 Y-23.517
G3 X46.259 Y-23.21 Z-4.76 I0.011 J0.317
G1 Y-21.671
X46.252 Y-21.521
X46.229 Y-21.355
X46.192 Y-21.186
X46.131 Y-20.985
X46.039 Y-20.753
X45.923 Y-20.517
X45.751 Y-20.229
X45.546 Y-19.939
X45.258 Y-19.596
X44.891 Y-19.224
X44.437 Y-18.832
X43.919 Y-18.452
X43.375 Y-18.111
X42.81 Y-17.805
X42.229 Y-17.532
X41.633 Y-17.294
X41.024 Y-17.089
X40.404 Y-16.92
X39.776 Y-16.789
X39.14 Y-16.701
X38.53 Y-16.664
X37.981 Y-16.675
X37.522 Y-16.721
X37.18 Y-16.783
X36.882 Y-16.863
X36.667 Y-16.939
X36.549 Y-16.992
X36.37 Y-17.106
X36.23 Y-17.266
X36.141 Y-17.458
X36.111 Y-17.668
Y-18.829
G3 X36.337 Y-19.122 Z-4.601 I0.317 J0.011
G1 X36.436 Y-19.152 Z-4.56
X36.674 Y-19.223
X45.691 Y-21.916
X45.851 Y-21.964
X45.891 Y-21.973
X45.931 Y-21.977
G3 X46.259 Y-21.671 Z-4.76 I0.011 J0.317
G1 Y-20.146
X46.252 Y-19.996
X46.227 Y-19.842
X46.182 Y-19.658
X46.121 Y-19.473
X46.029 Y-19.257
X45.902 Y-19.013
X45.744 Y-18.762
X45.524 Y-18.467
X45.257 Y-18.164
X44.91 Y-17.829
X44.465 Y-17.462
X43.938 Y-17.096
X43.384 Y-16.77
X42.81 Y-16.482
X42.22 Y-16.229
X41.616 Y-16.01
X41.001 Y-15.826
X40.376 Y-15.677
X39.744 Y-15.566
X39.105 Y-15.497
X38.464 Y-15.473
X37.922 Y-15.496
X37.462 Y-15.552
X37.121 Y-15.623
X36.835 Y-15.706
X36.621 Y-15.787
X36.533 Y-15.829
X36.36 Y-15.944
X36.225 Y-16.102
X36.14 Y-16.292
X36.111 Y-16.498
Y-17.668
G3 X36.348 Y-17.965 Z-4.597 I0.317 J0.011
G1 X36.437 Y-17.988 Z-4.56
X36.677 Y-18.05
X45.69 Y-20.397
X45.862 Y-20.442
X45.931 Y-20.452
G3 X46.259 Y-20.146 Z-4.76 I0.011 J0.317
G1 Y-18.753
X46.252 Y-18.603
X46.232 Y-18.454
X46.194 Y-18.287
X46.139 Y-18.111
X46.061 Y-17.916
X45.946 Y-17.686
X45.81 Y-17.46
X45.614 Y-17.188
X45.384 Y-16.916
X45.069 Y-16.6
X44.694 Y-16.281
X44.221 Y-15.939
X43.672 Y-15.606
X43.1 Y-15.314
X42.51 Y-15.06
X41.907 Y-14.841
X41.292 Y-14.656
X40.667 Y-14.505
X40.036 Y-14.389
X39.398 Y-14.311
X38.757 Y-14.276
X38.167 Y-14.287
X37.644 Y-14.339
X37.245 Y-14.411
X36.929 Y-14.495
X36.695 Y-14.578
X36.55 Y-14.643
X36.37 Y-14.756
X36.23 Y-14.916
X36.141 Y-15.109
X36.111 Y-15.319
Y-16.498
G3 X36.355 Y-16.796 Z-4.594 I0.317 J0.011
G1 X36.438 Y-16.815 Z-4.56
X36.679 Y-16.873
X45.689 Y-19.008
X45.869 Y-19.051
X45.931 Y-19.059
G3 X46.259 Y-18.753 Z-4.76 I0.011 J0.317
G1 Y-17.374
X46.252 Y-17.224
X46.231 Y-17.076
X46.197 Y-16.922
X46.144 Y-16.751
X46.065 Y-16.553
X45.966 Y-16.355
X45.825 Y-16.12
X45.654 Y-15.881
X45.424 Y-15.61
X45.147 Y-15.331
X44.781 Y-15.018
X44.344 Y-14.7
X43.805 Y-14.372
X43.231 Y-14.083
X42.639 Y-13.834
X42.034 Y-13.621
X41.417 Y-13.442
X40.791 Y-13.297
X40.158 Y-13.187
X39.521 Y-13.112
X38.879 Y-13.077
X38.251 Y-13.087
X37.698 Y-13.14
X37.283 Y-13.215
X36.95 Y-13.302
X36.712 Y-13.386
X36.551 Y-13.457
X36.371 Y-13.57
X36.231 Y-13.73
X36.142 Y-13.924
X36.111 Y-14.134
Y-15.319
G3 X36.361 Y-15.618 Z-4.591 I0.317 J0.011
G1 X36.438 Y-15.635 Z-4.56
X36.681 Y-15.687
X45.688 Y-17.633
X45.875 Y-17.673
X45.931 Y-17.68
G3 X46.259 Y-17.374 Z-4.76 I0.011 J0.317
G1 Y-16.061
X46.251 Y-15.886
X46.242 Y-15.737
X46.22 Y-15.588
X46.184 Y-15.443
X46.138 Y-15.3
X46.083 Y-15.16
X46.019 Y-15.024
X45.948 Y-14.892
X45.871 Y-14.764
X45.787 Y-14.639
X45.698 Y-14.519
X45.604 Y-14.402
X45.506 Y-14.288
X45.405 Y-14.178
X45.299 Y-14.071
X45.19 Y-13.968
X45.078 Y-13.868
X44.964 Y-13.771
X44.847 Y-13.677
X44.727 Y-13.587
X44.606 Y-13.499
X44.482 Y-13.414
X44.357 Y-13.332
X44.229 Y-13.252
X44.101 Y-13.176
X43.97 Y-13.101
X43.839 Y-13.029
X43.706 Y-12.96
X43.572 Y-12.892
X43.437 Y-12.827
X43.3 Y-12.765
X43.163 Y-12.704
X43.025 Y-12.645
X42.886 Y-12.589
X42.746 Y-12.535
X42.606 Y-12.482
X42.464 Y-12.432
X42.322 Y-12.383
X42.18 Y-12.337
X42.037 Y-12.292
X41.893 Y-12.25
X41.748 Y-12.209
X41.604 Y-12.17
X41.458 Y-12.133
X41.312 Y-12.098
X41.166 Y-12.064
X41.02 Y-12.032
X40.873 Y-12.003
X40.725 Y-11.975
X40.577 Y-11.95
X40.429 Y-11.926
X40.281 Y-11.903
X40.132 Y-11.883
X39.983 Y-11.865
X39.834 Y-11.849
X39.685 Y-11.835
X39.535 Y-11.823
X39.386 Y-11.813
X39.236 Y-11.806
X39.086 Y-11.801
X38.936 Y-11.798
X38.786 Y-11.797
X38.636 Y-11.799
X38.486 Y-11.803
X38.336 Y-11.81
X38.187 Y-11.82
X38.037 Y-11.833
X37.888 Y-11.849
X37.739 Y-11.868
X37.591 Y-11.89
X37.443 Y-11.916
X37.296 Y-11.946
X37.15 Y-11.98
X37.005 Y-12.019
X36.862 Y-12.063
X36.72 Y-12.112
X36.581 Y-12.169
X36.539 Y-12.188
X36.364 Y-12.303
X36.227 Y-12.462
X36.141 Y-12.652
X36.111 Y-12.86
Y-14.134
G3 X36.365 Y-14.434 Z-4.59 I0.317 J0.011
G1 X36.438 Y-14.449 Z-4.56
X36.681 Y-14.498
X45.687 Y-16.322
X45.879 Y-16.361
X45.931 Y-16.367
G3 X46.259 Y-16.061 Z-4.76 I0.011 J0.317
G1 Y-14.602
X46.252 Y-14.452
X46.241 Y-14.302
X46.215 Y-14.154
X46.177 Y-14.009
X46.128 Y-13.867
X46.07 Y-13.729
X46.004 Y-13.595
X45.93 Y-13.464
X45.85 Y-13.337
X45.764 Y-13.215
X45.672 Y-13.096
X45.576 Y-12.981
X45.476 Y-12.869
X45.371 Y-12.761
X45.263 Y-12.657
X45.152 Y-12.556
G3 X44.705 Y-12.594 Z-4.56 I-0.205 J-0.242
X44.67 Y-12.953 I0.242 J-0.205
G1 X45.665 Y-14.745
G3 X45.931 Y-14.908 I0.278 J0.154
X46.259 Y-14.602 Z-4.76 I0.011 J0.317
G1 Y-13.208
Y-12.121
X46.262 Y-11.975
X46.269 Y-11.829
X46.291 Y-11.683
X46.318 Y-11.537
X46.376 Y-11.246
X46.408 Y-11.1
X46.443 Y-10.954
X46.509 Y-10.774
X46.516 Y-10.758
X46.754 Y-10.37
X46.86 Y-10.206
X46.945 Y-10.078
X47.006 Y-9.998
X47.057 Y-9.932
X47.151 Y-9.822
X47.188 Y-9.787
X47.303 Y-9.685
G3 X47.342 Y-9.238 Z-4.56 I-0.204 J0.243
X47.112 Y-9.125 I-0.243 J-0.204
G1 X34.518 Y-8.616
G3 X34.236 Y-8.766 I-0.013 J-0.317
X34.337 Y-9.203 Z-4.76 I0.269 J-0.168
G1 X34.455 Y-9.271
X34.747 Y-9.462
X34.893 Y-9.561
X35.039 Y-9.663
X35.185 Y-9.793
X35.26 Y-9.863
X35.275 Y-9.88
X35.519 Y-10.224
X35.622 Y-10.374
X35.718 Y-10.516
X35.768 Y-10.603
X35.801 Y-10.662
X35.872 Y-10.808
X35.914 Y-10.918
X35.927 Y-10.954
X35.962 Y-11.1
X35.994 Y-11.246
X36.06 Y-11.578
X36.079 Y-11.683
X36.101 Y-11.829
X36.108 Y-11.975
X36.111 Y-12.121
Y-12.86
G3 X36.684 Y-13.037 I0.317 J0.011
G1 X36.726 Y-12.98 Z-4.752
X36.766 Y-12.926 Z-4.729
X36.801 Y-12.877 Z-4.691
X36.831 Y-12.837 Z-4.64
X36.854 Y-12.806 Z-4.58
X36.867 Y-12.787 Z-4.513
X36.872 Y-12.781 Z-4.443
G0 Z5
X70.974 Y-8.361
Z-4.125
G1 Z-4.443 F300
X70.978 Y-8.368 Z-4.513
X70.989 Y-8.388 Z-4.58
X71.007 Y-8.421 Z-4.64
X71.032 Y-8.465 Z-4.691
X71.061 Y-8.518 Z-4.729
X71.094 Y-8.577 Z-4.752
X71.128 Y-8.638 Z-4.76
G3 X71.669 Y-9.208 I1.382 J0.77
G1 X71.815 Y-9.293
X71.961 Y-9.389
X72.253 Y-9.584
X72.332 Y-9.641
X72.399 Y-9.692
X72.505 Y-9.787
X72.545 Y-9.825
X72.638 Y-9.932
X72.738 Y-10.045
X72.85 Y-10.144
X72.992 Y-10.251
X73.162 Y-10.359
X73.384 Y-10.476
X73.664 Y-10.596
X74.037 Y-10.721
X74.546 Y-10.847
X75.18 Y-10.952
X75.819 Y-11.015
X76.46 Y-11.053
X77.102 Y-11.076
X77.744 Y-11.09
X78.386 Y-11.099
X79.028 Y-11.104
X79.671 Y-11.108
X80.955 Y-11.111
X84.166 Y-11.112
X122.697 Y-11.113
X124.582
X124.732 Y-11.097
X124.875 Y-11.052
X125.007 Y-10.979
X125.251 Y-10.808
X125.374 Y-10.724
X125.475 Y-10.662
X125.666 Y-10.562
X127.015 Y-9.932
X127.169 Y-9.862
X127.357 Y-9.778
G3 X127.284 Y-9.182 I-0.14 J0.285
G1 X127.215 Y-9.167 Z-4.752
X127.149 Y-9.153 Z-4.729
X127.091 Y-9.141 Z-4.691
X127.041 Y-9.13 Z-4.64
X127.004 Y-9.122 Z-4.58
X126.982 Y-9.117 Z-4.513
X126.974 Y-9.116 Z-4.443
G0 Z5
X72.295 Y-8.892
Z-4.125
G1 Z-4.443 F300
X72.296 Y-8.9 Z-4.513
X72.299 Y-8.923 Z-4.58
X72.305 Y-8.96 Z-4.64
X72.312 Y-9.01 Z-4.691
X72.32 Y-9.07 Z-4.729
X72.329 Y-9.136 Z-4.752
X72.339 Y-9.206 Z-4.76
G3 X72.638 Y-9.932 I1.567 J0.22
G1 X72.69 Y-9.998
X72.748 Y-10.078
X72.846 Y-10.224
X72.94 Y-10.37
X73.169 Y-10.742
X73.176 Y-10.759
X73.239 Y-10.895
X73.329 Y-11.015
X73.43 Y-11.126
X73.551 Y-11.24
X73.71 Y-11.368
X73.904 Y-11.498
X74.134 Y-11.628
X74.434 Y-11.767
X74.806 Y-11.904
X75.305 Y-12.044
X75.936 Y-12.167
X76.573 Y-12.245
X77.213 Y-12.295
X77.855 Y-12.327
X78.497 Y-12.347
X79.139 Y-12.36
X79.781 Y-12.369
X80.423 Y-12.374
X81.065 Y-12.377
X82.349 Y-12.38
X84.918 Y-12.382
X122.807
X122.877
X123.068 Y-12.357
X123.247 Y-12.283
X123.4 Y-12.166
X123.477 Y-12.09
X123.606 Y-11.975
X123.768 Y-11.846
X125.007 Y-10.979
G3 X124.823 Y-10.408 I-0.191 J0.254
G1 X124.752 Y-10.406 Z-4.752
X124.685 Y-10.404 Z-4.729
X124.625 Y-10.403 Z-4.691
X124.575 Y-10.402 Z-4.64
X124.537 Y-10.401 Z-4.58
X124.513 Z-4.513
X124.505 Z-4.443
G0 Z5
X73.164 Y-9.663
Z-4.125
G1 Z-4.443 F300
X73.163 Y-9.671 Z-4.513
X73.159 Y-9.694 Z-4.58
X73.153 Y-9.731 Z-4.64
X73.144 Y-9.781 Z-4.691
X73.134 Y-9.84 Z-4.729
X73.123 Y-9.906 Z-4.752
X73.111 Y-9.976 Z-4.76
G3 X73.176 Y-10.759 I1.56 J-0.265
G1 X73.25 Y-10.954
X73.286 Y-11.1
X73.318 Y-11.246
X73.363 Y-11.472
X73.399 Y-11.617
X73.456 Y-11.756
X73.529 Y-11.887
X73.614 Y-12.013
X73.712 Y-12.135
X73.843 Y-12.272
X74.003 Y-12.416
X74.189 Y-12.558
X74.438 Y-12.717
X74.713 Y-12.864
X75.079 Y-13.024
X75.523 Y-13.175
X76.129 Y-13.33
X76.762 Y-13.438
X77.4 Y-13.51
X78.04 Y-13.558
X78.681 Y-13.591
X79.323 Y-13.612
X79.965 Y-13.626
X80.607 Y-13.635
X81.25 Y-13.641
X81.892 Y-13.645
X83.176 Y-13.65
X85.103 Y-13.652
X97.946 Y-13.653
X121.606
X121.799 Y-13.627
X121.978 Y-13.553
X122.132 Y-13.434
X123.4 Y-12.166
G3 X123.12 Y-11.635 I-0.232 J0.217
G1 X123.05 Y-11.646 Z-4.752
X122.984 Y-11.656 Z-4.729
X122.924 Y-11.665 Z-4.691
X122.875 Y-11.673 Z-4.64
X122.837 Y-11.679 Z-4.58
X122.814 Y-11.682 Z-4.513
X122.806 Y-11.683 Z-4.443
G0 Z5
X73.538 Y-10.39
Z-4.125
G1 Z-4.443 F300
X73.536 Y-10.398 Z-4.513
X73.528 Y-10.42 Z-4.58
X73.515 Y-10.456 Z-4.64
X73.499 Y-10.503 Z-4.691
X73.479 Y-10.56 Z-4.729
X73.456 Y-10.623 Z-4.752
X73.433 Y-10.69 Z-4.76
G3 X73.363 Y-11.472 I1.492 J-0.528
G1 X73.376 Y-11.537
X73.402 Y-11.683
X73.425 Y-11.829
X73.432 Y-11.975
X73.434 Y-12.121
Y-12.201
X73.442 Y-12.351
X73.468 Y-12.499
X73.512 Y-12.642
X73.572 Y-12.78
X73.643 Y-12.912
X73.737 Y-13.056
X73.849 Y-13.199
X73.991 Y-13.354
X74.166 Y-13.516
X74.372 Y-13.678
X74.642 Y-13.859
X74.937 Y-14.023
X75.324 Y-14.199
X75.802 Y-14.372
X76.417 Y-14.539
X77.048 Y-14.658
X77.685 Y-14.741
X78.324 Y-14.798
X78.965 Y-14.838
X79.607 Y-14.866
X80.249 Y-14.884
X80.891 Y-14.897
X81.533 Y-14.905
X82.175 Y-14.911
X82.817 Y-14.915
X84.102 Y-14.919
X86.028 Y-14.922
X95.019
X120.709
X120.924 Y-14.876
X121.116 Y-14.768
X121.268 Y-14.608
X121.886 Y-13.726
X122.017 Y-13.563
X122.132 Y-13.434
X122.164 Y-13.389
X122.187 Y-13.339
X122.201 Y-13.286
X122.206 Y-13.232
Y-13.231
X122.2 Y-13.17
X122.182 Y-13.111
X122.153 Y-13.056
X122.114 Y-13.008
X122.067 Y-12.98 Z-4.755
X122.022 Y-12.953 Z-4.741
X121.98 Y-12.927 Z-4.718
X121.93 Y-12.92 Z-4.682
X121.888 Y-12.914 Z-4.637
X121.852 Y-12.918 Z-4.577
X121.83 Y-12.92 Z-4.512
X121.822 Y-12.921 Z-4.443
G0 Z5
X73.818 Y-11.175
Z-4.125
G1 Z-4.443 F300
X73.814 Y-11.182 Z-4.513
X73.802 Y-11.202 Z-4.58
X73.783 Y-11.234 Z-4.64
X73.757 Y-11.278 Z-4.691
X73.726 Y-11.329 Z-4.729
X73.692 Y-11.387 Z-4.752
X73.656 Y-11.448 Z-4.76
G3 X73.434 Y-12.201 I1.36 J-0.809
G1 Y-13.223
X73.442 Y-13.373
X73.471 Y-13.52
X73.517 Y-13.663
X73.575 Y-13.801
X73.653 Y-13.951
X73.746 Y-14.098
X73.872 Y-14.266
X74.018 Y-14.432
X74.206 Y-14.613
X74.426 Y-14.794
X74.702 Y-14.985
X75.029 Y-15.175
X75.437 Y-15.37
X75.912 Y-15.552
X76.529 Y-15.732
X77.157 Y-15.864
X77.792 Y-15.959
X78.431 Y-16.028
X79.071 Y-16.077
X79.712 Y-16.112
X80.354 Y-16.137
X80.996 Y-16.154
X81.638 Y-16.166
X82.28 Y-16.175
X82.922 Y-16.18
X83.564 Y-16.184
X84.849 Y-16.189
X86.775 Y-16.191
X93.839 Y-16.192
X119.527
X119.889 Y-16.182
X120.09 Y-16.148
X120.274 Y-16.06
X120.428 Y-15.926
X120.539 Y-15.754
X120.6 Y-15.623
X120.704 Y-15.428
X120.763 Y-15.331
X120.996 Y-14.997
X121.268 Y-14.608
G3 X120.9 Y-14.134 I-0.266 J0.173
G1 X120.833 Y-14.157 Z-4.752
X120.77 Y-14.179 Z-4.729
X120.713 Y-14.198 Z-4.691
X120.665 Y-14.214 Z-4.64
X120.629 Y-14.226 Z-4.58
X120.607 Y-14.234 Z-4.513
X120.6 Y-14.236 Z-4.443
G0 Z5
X73.818 Y-12.196
Z-4.125
G1 Z-4.443 F300
X73.814 Y-12.203 Z-4.513
X73.802 Y-12.223 Z-4.58
X73.783 Y-12.256 Z-4.64
X73.757 Y-12.299 Z-4.691
X73.726 Y-12.351 Z-4.729
X73.692 Y-12.408 Z-4.752
X73.656 Y-12.469 Z-4.76
G3 X73.434 Y-13.223 I1.36 J-0.809
G1 Y-14.244
X73.442 Y-14.394
X73.465 Y-14.542
X73.504 Y-14.687
X73.556 Y-14.828
X73.624 Y-14.973
X73.718 Y-15.136
X73.828 Y-15.298
X73.978 Y-15.484
X74.146 Y-15.662
X74.372 Y-15.864
X74.618 Y-16.052
X74.953 Y-16.267
X75.316 Y-16.461
X75.783 Y-16.664
X76.37 Y-16.865
X76.992 Y-17.024
X77.623 Y-17.142
X78.259 Y-17.23
X78.898 Y-17.295
X79.539 Y-17.343
X80.18 Y-17.377
X80.821 Y-17.402
X81.463 Y-17.42
X82.105 Y-17.433
X82.748 Y-17.442
X83.39 Y-17.448
X84.032 Y-17.453
X85.316 Y-17.458
X87.243 Y-17.461
X92.38 Y-17.462
X118.068
X118.71
X119.185 Y-17.446
X119.37 Y-17.424
X119.554 Y-17.379
X119.72 Y-17.289
X119.858 Y-17.159
X119.959 Y-16.999
X120.539 Y-15.754
G3 X120.094 Y-15.352 I-0.292 J0.124
G1 X120.032 Y-15.386 Z-4.752
X119.973 Y-15.418 Z-4.729
X119.92 Y-15.447 Z-4.691
X119.876 Y-15.471 Z-4.64
X119.843 Y-15.489 Z-4.58
X119.822 Y-15.501 Z-4.513
X119.815 Y-15.505 Z-4.443
G0 Z5
X73.818 Y-13.218
Z-4.125
G1 Z-4.443 F300
X73.814 Y-13.225 Z-4.513
X73.802 Y-13.245 Z-4.58
X73.783 Y-13.277 Z-4.64
X73.757 Y-13.32 Z-4.691
X73.726 Y-13.372 Z-4.729
X73.692 Y-13.43 Z-4.752
X73.656 Y-13.491 Z-4.76
G3 X73.434 Y-14.244 I1.36 J-0.809
G1 Y-15.331
X73.442 Y-15.481
X73.462 Y-15.63
X73.498 Y-15.775
X73.546 Y-15.917
X73.615 Y-16.073
X73.702 Y-16.233
X73.816 Y-16.408
X73.956 Y-16.589
X74.13 Y-16.781
X74.344 Y-16.981
X74.604 Y-17.188
X74.922 Y-17.402
X75.313 Y-17.621
X75.764 Y-17.829
X76.345 Y-18.042
X76.963 Y-18.213
X77.592 Y-18.345
X78.226 Y-18.445
X78.864 Y-18.52
X79.504 Y-18.577
X80.145 Y-18.619
X80.786 Y-18.651
X81.428 Y-18.674
X82.07 Y-18.69
X82.712 Y-18.703
X83.354 Y-18.711
X83.996 Y-18.718
X84.638 Y-18.722
X85.923 Y-18.727
X87.849 Y-18.731
X92.345 Y-18.732
X117.39
X118.032 Y-18.729
X118.565 Y-18.712
X118.881 Y-18.676
X118.983 Y-18.656
X119.178 Y-18.589
X119.346 Y-18.47
X119.476 Y-18.31
X119.556 Y-18.121
X119.6 Y-17.958
X119.725 Y-17.52
X119.788 Y-17.374
X119.947 Y-17.025
X119.959 Y-16.999
G3 X119.512 Y-16.598 I-0.293 J0.123
G1 X119.45 Y-16.632 Z-4.752
X119.392 Y-16.665 Z-4.729
X119.339 Y-16.694 Z-4.691
X119.295 Y-16.718 Z-4.64
X119.262 Y-16.737 Z-4.58
X119.241 Y-16.748 Z-4.513
X119.234 Y-16.752 Z-4.443
G0 Z5
X73.818 Y-14.305
Z-4.125
G1 Z-4.443 F300
X73.814 Y-14.312 Z-4.513
X73.802 Y-14.332 Z-4.58
X73.783 Y-14.364 Z-4.64
X73.757 Y-14.407 Z-4.691
X73.726 Y-14.459 Z-4.729
X73.692 Y-14.517 Z-4.752
X73.656 Y-14.578 Z-4.76
G3 X73.434 Y-15.331 I1.36 J-0.809
G1 Y-16.498
X73.442 Y-16.648
X73.465 Y-16.796
X73.503 Y-16.942
X73.554 Y-17.083
X73.628 Y-17.246
X73.717 Y-17.408
X73.841 Y-17.595
X73.985 Y-17.778
X74.177 Y-17.986
X74.393 Y-18.186
X74.683 Y-18.412
X75.002 Y-18.623
X75.419 Y-18.853
X75.92 Y-19.079
X76.525 Y-19.295
X77.145 Y-19.462
X77.774 Y-19.592
X78.408 Y-19.693
X79.046 Y-19.77
X79.685 Y-19.829
X80.326 Y-19.874
X80.967 Y-19.908
X81.609 Y-19.933
X82.251 Y-19.952
X82.893 Y-19.966
X83.535 Y-19.976
X84.177 Y-19.984
X84.819 Y-19.989
X85.461 Y-19.993
X86.746 Y-19.998
X88.672 Y-20.001
X93.81 Y-20.002
X116.286
X116.928 Y-20.001
X117.571 Y-19.995
X118.106 Y-19.971
X118.454 Y-19.927
X118.662 Y-19.884
X118.855 Y-19.815
X119.021 Y-19.696
X119.149 Y-19.536
X119.228 Y-19.347
X119.556 Y-18.121
G3 X119.348 Y-17.748 I-0.309 J0.071
G1 X119.297 Y-17.74 Z-4.756
X119.248 Y-17.732 Z-4.743
X119.247
X119.188 Y-17.747 Z-4.714
X119.137 Y-17.76 Z-4.674
X119.095 Y-17.77 Z-4.623
X119.069 Y-17.787 Z-4.567
X119.054 Y-17.798 Z-4.506
X119.048 Y-17.802 Z-4.443
G0 Z5
X73.818 Y-15.472
Z-4.125
G1 Z-4.443 F300
X73.814 Y-15.479 Z-4.513
X73.802 Y-15.499 Z-4.58
X73.783 Y-15.532 Z-4.64
X73.757 Y-15.575 Z-4.691
X73.726 Y-15.626 Z-4.729
X73.692 Y-15.684 Z-4.752
X73.656 Y-15.745 Z-4.76
G3 X73.434 Y-16.498 I1.36 J-0.809
G1 Y-17.666
X73.442 Y-17.816
X73.465 Y-17.964
X73.504 Y-18.109
X73.555 Y-18.252
X73.629 Y-18.415
X73.722 Y-18.584
X73.843 Y-18.767
X73.997 Y-18.964
X74.183 Y-19.166
X74.42 Y-19.385
X74.7 Y-19.605
X75.049 Y-19.836
X75.478 Y-20.073
X75.975 Y-20.298
X76.579 Y-20.515
X77.198 Y-20.686
X77.826 Y-20.82
X78.46 Y-20.925
X79.097 Y-21.008
X79.736 Y-21.072
X80.376 Y-21.121
X81.017 Y-21.159
X81.659 Y-21.188
X82.3 Y-21.21
X82.942 Y-21.227
X83.584 Y-21.239
X84.227 Y-21.248
X84.869 Y-21.255
X85.511 Y-21.26
X86.795 Y-21.266
X88.722 Y-21.27
X92.575 Y-21.272
X115.694
X116.336 Y-21.271
X116.978 Y-21.263
X117.62 Y-21.236
X118.039 Y-21.189
X118.314 Y-21.135
X118.57 Y-21.063
X118.585 Y-21.058
X118.768 Y-20.959
X118.917 Y-20.813
X119.019 Y-20.631
X119.066 Y-20.427
X119.104 Y-20
X119.118 Y-19.854
X119.209 Y-19.417
X119.228 Y-19.347
X119.235 Y-19.278
Y-19.277
G3 X119.018 Y-18.976 I-0.317 J0
G1 X118.967 Y-18.968 Z-4.756
X118.918 Y-18.96 Z-4.743
X118.86 Y-18.974 Z-4.715
X118.808 Y-18.987 Z-4.675
X118.766 Y-18.998 Z-4.625
X118.74 Y-19.016 Z-4.569
X118.724 Y-19.027 Z-4.507
X118.718 Y-19.03 Z-4.443
G0 Z5
X73.818 Y-16.639
Z-4.125
G1 Z-4.443 F300
X73.814 Y-16.646 Z-4.513
X73.802 Y-16.666 Z-4.58
X73.783 Y-16.699 Z-4.64
X73.757 Y-16.742 Z-4.691
X73.726 Y-16.794 Z-4.729
X73.692 Y-16.851 Z-4.752
X73.656 Y-16.912 Z-4.76
G3 X73.434 Y-17.666 I1.36 J-0.809
G1 Y-18.833
X73.442 Y-18.983
X73.464 Y-19.131
X73.502 Y-19.276
X73.553 Y-19.422
X73.624 Y-19.583
X73.72 Y-19.76
X73.838 Y-19.941
X73.997 Y-20.148
X74.178 Y-20.348
X74.421 Y-20.575
X74.694 Y-20.793
X75.05 Y-21.032
X75.475 Y-21.271
X75.982 Y-21.504
X76.585 Y-21.725
X77.202 Y-21.902
X77.829 Y-22.042
X78.462 Y-22.153
X79.098 Y-22.241
X79.736 Y-22.311
X80.376 Y-22.365
X81.017 Y-22.408
X81.658 Y-22.441
X82.3 Y-22.466
X82.942 Y-22.486
X83.584 Y-22.5
X84.226 Y-22.511
X84.868 Y-22.52
X85.51 Y-22.526
X86.152 Y-22.53
X87.437 Y-22.536
X89.363 Y-22.54
X93.216 Y-22.542
X115.051
X115.693 Y-22.54
X116.335 Y-22.533
X116.977 Y-22.513
X117.594 Y-22.464
X117.959 Y-22.405
X118.246 Y-22.335
X118.475 Y-22.259
X118.512 Y-22.243
X118.684 Y-22.141
X118.823 Y-21.996
X118.917 Y-21.82
X118.961 Y-21.625
X119.066 Y-20.427
G3 X118.511 Y-20.201 I-0.317 J0.017
G1 X118.464 Y-20.254 Z-4.752
X118.42 Y-20.305 Z-4.729
X118.38 Y-20.35 Z-4.691
X118.347 Y-20.388 Z-4.64
X118.322 Y-20.416 Z-4.58
X118.306 Y-20.434 Z-4.513
X118.301 Y-20.44 Z-4.443
G0 Z5
X73.818 Y-17.807
Z-4.125
G1 Z-4.443 F300
X73.814 Y-17.813 Z-4.513
X73.802 Y-17.834 Z-4.58
X73.783 Y-17.866 Z-4.64
X73.757 Y-17.909 Z-4.691
X73.726 Y-17.961 Z-4.729
X73.692 Y-18.019 Z-4.752
X73.656 Y-18.079 Z-4.76
G3 X73.434 Y-18.833 I1.36 J-0.809
G1 Y-20
X73.442 Y-20.15
X73.462 Y-20.299
X73.497 Y-20.445
X73.546 Y-20.591
X73.614 Y-20.75
X73.707 Y-20.929
X73.82 Y-21.108
X73.976 Y-21.316
X74.152 Y-21.516
X74.393 Y-21.748
X74.658 Y-21.965
X75.012 Y-22.21
X75.423 Y-22.449
X75.929 Y-22.691
X76.528 Y-22.92
X77.144 Y-23.105
X77.768 Y-23.253
X78.399 Y-23.372
X79.035 Y-23.468
X79.672 Y-23.544
X80.311 Y-23.604
X80.952 Y-23.652
X81.593 Y-23.69
X82.234 Y-23.719
X82.876 Y-23.742
X83.518 Y-23.759
X84.16 Y-23.773
X84.802 Y-23.783
X85.445 Y-23.79
X86.087 Y-23.796
X86.729 Y-23.801
X88.013 Y-23.806
X89.94 Y-23.81
X93.793 Y-23.812
X114.343
X114.985 Y-23.81
X115.627 Y-23.805
X116.269 Y-23.791
X116.911 Y-23.76
X117.516 Y-23.695
X117.89 Y-23.624
X118.188 Y-23.542
X118.415 Y-23.459
X118.503 Y-23.419
X118.68 Y-23.305
X118.818 Y-23.146
X118.906 Y-22.954
X118.936 Y-22.746
Y-22.335
X118.937 Y-22.189
X118.945 Y-21.897
X118.95 Y-21.751
X118.961 Y-21.625
G3 X118.406 Y-21.399 I-0.317 J0.017
G1 X118.359 Y-21.452 Z-4.752
X118.315 Y-21.503 Z-4.729
X118.275 Y-21.548 Z-4.691
X118.242 Y-21.586 Z-4.64
X118.217 Y-21.614 Z-4.58
X118.201 Y-21.632 Z-4.513
X118.196 Y-21.638 Z-4.443
G0 Z5
X73.818 Y-18.974
Z-4.125
G1 Z-4.443 F300
X73.814 Y-18.981 Z-4.513
X73.802 Y-19.001 Z-4.58
X73.783 Y-19.033 Z-4.64
X73.757 Y-19.077 Z-4.691
X73.726 Y-19.128 Z-4.729
X73.692 Y-19.186 Z-4.752
X73.656 Y-19.247 Z-4.76
G3 X73.434 Y-20 I1.36 J-0.809
G1 Y-21.168
X73.443 Y-21.344
X73.463 Y-21.493
X73.497 Y-21.639
X73.544 Y-21.781
X73.613 Y-21.944
X73.703 Y-22.12
X73.818 Y-22.304
X73.97 Y-22.509
X74.149 Y-22.714
X74.386 Y-22.944
X74.656 Y-23.168
X75.006 Y-23.413
X75.432 Y-23.664
X75.936 Y-23.907
X76.534 Y-24.14
X77.148 Y-24.328
X77.772 Y-24.48
X78.403 Y-24.604
X79.037 Y-24.703
X79.674 Y-24.784
X80.313 Y-24.848
X80.953 Y-24.9
X81.594 Y-24.941
X82.235 Y-24.974
X82.877 Y-24.999
X83.519 Y-25.019
X84.161 Y-25.034
X84.803 Y-25.046
X85.445 Y-25.055
X86.087 Y-25.062
X86.729 Y-25.067
X88.014 Y-25.074
X89.298 Y-25.078
X91.867 Y-25.081
X99.573 Y-25.082
X113.701
X114.343 Y-25.08
X114.986 Y-25.076
X115.628 Y-25.065
X116.269 Y-25.042
X116.91 Y-24.996
X117.5 Y-24.917
X117.887 Y-24.833
X118.201 Y-24.738
X118.423 Y-24.651
X118.52 Y-24.603
X118.691 Y-24.488
X118.823 Y-24.33
X118.907 Y-24.142
X118.936 Y-23.938
Y-22.746
G3 X118.362 Y-22.569 I-0.317 J-0.011
G1 X118.32 Y-22.626 Z-4.752
X118.281 Y-22.68 Z-4.729
X118.245 Y-22.728 Z-4.691
X118.215 Y-22.769 Z-4.64
X118.193 Y-22.799 Z-4.58
X118.179 Y-22.818 Z-4.513
X118.174 Y-22.825 Z-4.443
G0 Z5
X73.818 Y-20.141
Z-4.125
G1 Z-4.443 F300
X73.814 Y-20.148 Z-4.513
X73.802 Y-20.168 Z-4.58
X73.783 Y-20.201 Z-4.64
X73.757 Y-20.244 Z-4.691
X73.726 Y-20.296 Z-4.729
X73.692 Y-20.353 Z-4.752
X73.656 Y-20.414 Z-4.76
G3 X73.434 Y-21.168 I1.36 J-0.809
G1 Y-22.415
X73.442 Y-22.565
X73.464 Y-22.713
X73.5 Y-22.859
X73.549 Y-23.004
X73.622 Y-23.172
X73.714 Y-23.347
X73.836 Y-23.538
X73.992 Y-23.744
X74.181 Y-23.956
X74.423 Y-24.187
X74.71 Y-24.421
X75.067 Y-24.665
X75.515 Y-24.922
X76.053 Y-25.177
X76.654 Y-25.403
X77.27 Y-25.587
X77.894 Y-25.737
X78.525 Y-25.859
X79.159 Y-25.959
X79.796 Y-26.039
X80.435 Y-26.105
X81.075 Y-26.158
X81.716 Y-26.2
X82.357 Y-26.234
X82.999 Y-26.261
X83.64 Y-26.282
X84.282 Y-26.298
X84.924 Y-26.311
X85.567 Y-26.321
X86.209 Y-26.329
X86.851 Y-26.335
X87.493 Y-26.339
X88.777 Y-26.345
X90.704 Y-26.35
X93.915 Y-26.352
X112.538
X113.18
X113.823 Y-26.35
X114.465 Y-26.346
X115.107 Y-26.336
X115.749 Y-26.316
X116.39 Y-26.279
X117.029 Y-26.215
X117.589 Y-26.121
X117.968 Y-26.026
X118.27 Y-25.924
X118.49 Y-25.829
X118.541 Y-25.802
X118.704 Y-25.685
X118.829 Y-25.529
X118.908 Y-25.345
X118.936 Y-25.147
Y-23.938
G3 X118.362 Y-23.761 I-0.317 J-0.011
G1 X118.32 Y-23.818 Z-4.752
X118.281 Y-23.872 Z-4.729
X118.245 Y-23.921 Z-4.691
X118.215 Y-23.961 Z-4.64
X118.193 Y-23.992 Z-4.58
X118.179 Y-24.011 Z-4.513
X118.174 Y-24.017 Z-4.443
G0 Z5
X73.818 Y-21.389
Z-4.125
G1 Z-4.443 F300
X73.814 Y-21.396 Z-4.513
X73.802 Y-21.416 Z-4.58
X73.783 Y-21.448 Z-4.64
X73.757 Y-21.491 Z-4.691
X73.726 Y-21.543 Z-4.729
X73.692 Y-21.601 Z-4.752
X73.656 Y-21.662 Z-4.76
G3 X73.434 Y-22.415 I1.36 J-0.809
G1 Y-23.648
X73.442 Y-23.798
X73.466 Y-23.946
X73.505 Y-24.093
X73.558 Y-24.243
X73.634 Y-24.412
X73.734 Y-24.594
X73.859 Y-24.785
X74.027 Y-25
X74.221 Y-25.212
X74.481 Y-25.454
X74.776 Y-25.687
X75.155 Y-25.939
X75.624 Y-26.2
X76.194 Y-26.459
X76.798 Y-26.678
X77.415 Y-26.856
X78.041 Y-27.002
X78.672 Y-27.121
X79.306 Y-27.219
X79.943 Y-27.3
X80.582 Y-27.365
X81.222 Y-27.418
X81.863 Y-27.461
X82.504 Y-27.496
X83.146 Y-27.524
X83.788 Y-27.546
X84.43 Y-27.563
X85.072 Y-27.577
X85.714 Y-27.587
X86.356 Y-27.596
X86.998 Y-27.602
X87.64 Y-27.607
X88.925 Y-27.614
X90.851 Y-27.619
X93.42 Y-27.622
X103.695
X112.043
X112.685
X113.328 Y-27.62
X113.97 Y-27.615
X114.612 Y-27.606
X115.254 Y-27.589
X115.895 Y-27.558
X116.535 Y-27.507
X117.172 Y-27.425
X117.711 Y-27.318
X118.064 Y-27.218
X118.344 Y-27.114
X118.508 Y-27.037
X118.683 Y-26.923
X118.82 Y-26.764
X118.906 Y-26.573
X118.936 Y-26.366
Y-25.147
G3 X118.362 Y-24.97 I-0.317 J-0.011
G1 X118.32 Y-25.027 Z-4.752
X118.281 Y-25.081 Z-4.729
X118.245 Y-25.13 Z-4.691
X118.215 Y-25.17 Z-4.64
X118.193 Y-25.201 Z-4.58
X118.179 Y-25.22 Z-4.513
X118.174 Y-25.226 Z-4.443
G0 Z5
X73.818 Y-22.622
Z-4.125
G1 Z-4.443 F300
X73.814 Y-22.628 Z-4.513
X73.802 Y-22.649 Z-4.58
X73.783 Y-22.681 Z-4.64
X73.757 Y-22.724 Z-4.691
X73.726 Y-22.776 Z-4.729
X73.692 Y-22.834 Z-4.752
X73.656 Y-22.895 Z-4.76
G3 X73.434 Y-23.648 I1.36 J-0.809
G1 Y-24.815
X73.442 Y-24.967
X73.461 Y-25.116
X73.495 Y-25.262
X73.546 Y-25.419
X73.612 Y-25.576
X73.706 Y-25.759
X73.822 Y-25.946
X73.973 Y-26.151
X74.164 Y-26.37
X74.398 Y-26.599
X74.69 Y-26.842
X75.05 Y-27.095
X75.472 Y-27.345
X76.013 Y-27.608
X76.611 Y-27.842
X77.224 Y-28.034
X77.846 Y-28.192
X78.475 Y-28.322
X79.108 Y-28.43
X79.744 Y-28.519
X80.382 Y-28.592
X81.021 Y-28.652
X81.662 Y-28.701
X82.303 Y-28.74
X82.944 Y-28.772
X83.586 Y-28.798
X84.228 Y-28.819
X84.87 Y-28.835
X85.512 Y-28.848
X86.154 Y-28.858
X86.796 Y-28.866
X87.438 Y-28.873
X88.08 Y-28.877
X89.365 Y-28.884
X91.291 Y-28.889
X94.502 Y-28.892
X110.557
X111.841
X112.483 Y-28.891
X113.125 Y-28.888
X113.768 Y-28.883
X114.41 Y-28.872
X115.052 Y-28.853
X115.693 Y-28.821
X116.333 Y-28.77
X116.971 Y-28.692
X117.557 Y-28.586
X117.973 Y-28.475
X118.279 Y-28.367
X118.508 Y-28.265
X118.55 Y-28.242
X118.709 Y-28.124
X118.832 Y-27.969
X118.909 Y-27.788
X118.936 Y-27.592
Y-26.366
G3 X118.362 Y-26.189 I-0.317 J-0.011
G1 X118.32 Y-26.246 Z-4.752
X118.281 Y-26.3 Z-4.729
X118.245 Y-26.349 Z-4.691
X118.215 Y-26.389 Z-4.64
X118.193 Y-26.42 Z-4.58
X118.179 Y-26.439 Z-4.513
X118.174 Y-26.445 Z-4.443
G0 Z5
X73.818 Y-23.789
Z-4.125
G1 Z-4.443 F300
X73.814 Y-23.796 Z-4.513
X73.802 Y-23.816 Z-4.58
X73.783 Y-23.848 Z-4.64
X73.757 Y-23.892 Z-4.691
X73.726 Y-23.943 Z-4.729
X73.692 Y-24.001 Z-4.752
X73.656 Y-24.062 Z-4.76
G3 X73.434 Y-24.815 I1.36 J-0.809
G1 Y-26.063
X73.442 Y-26.213
X73.464 Y-26.361
X73.501 Y-26.508
X73.551 Y-26.657
X73.625 Y-26.826
X73.722 Y-27.009
X73.844 Y-27.201
X74.005 Y-27.413
X74.196 Y-27.627
X74.45 Y-27.869
X74.74 Y-28.105
X75.112 Y-28.36
X75.577 Y-28.626
X76.145 Y-28.894
X76.746 Y-29.12
X77.36 Y-29.306
X77.984 Y-29.46
X78.613 Y-29.588
X79.246 Y-29.693
X79.883 Y-29.781
X80.521 Y-29.854
X81.16 Y-29.913
X81.8 Y-29.963
X82.441 Y-30.003
X83.083 Y-30.035
X83.724 Y-30.062
X84.366 Y-30.083
X85.008 Y-30.1
X85.65 Y-30.114
X86.292 Y-30.125
X86.934 Y-30.134
X87.577 Y-30.14
X88.219 Y-30.145
X89.503 Y-30.153
X90.787 Y-30.157
X92.714 Y-30.16
X96.567 Y-30.162
X110.695
X111.98 Y-30.161
X112.622 Y-30.158
X113.264 Y-30.153
X113.906 Y-30.144
X114.548 Y-30.128
X115.19 Y-30.101
X115.83 Y-30.059
X116.47 Y-29.997
X117.106 Y-29.908
X117.69 Y-29.788
X118.058 Y-29.68
X118.349 Y-29.569
X118.514 Y-29.491
X118.687 Y-29.376
X118.821 Y-29.217
X118.906 Y-29.028
X118.936 Y-28.822
Y-27.592
G3 X118.362 Y-27.415 I-0.317 J-0.011
G1 X118.32 Y-27.472 Z-4.752
X118.281 Y-27.526 Z-4.729
X118.245 Y-27.575 Z-4.691
X118.215 Y-27.615 Z-4.64
X118.193 Y-27.646 Z-4.58
X118.179 Y-27.664 Z-4.513
X118.174 Y-27.671 Z-4.443
G0 Z5
X73.818 Y-25.036
Z-4.125
G1 Z-4.443 F300
X73.814 Y-25.043 Z-4.513
X73.802 Y-25.064 Z-4.58
X73.783 Y-25.096 Z-4.64
X73.757 Y-25.139 Z-4.691
X73.726 Y-25.191 Z-4.729
X73.692 Y-25.249 Z-4.752
X73.656 Y-25.309 Z-4.76
G3 X73.434 Y-26.063 I1.36 J-0.809
G1 Y-27.296
X73.442 Y-27.446
X73.465 Y-27.594
X73.502 Y-27.739
X73.556 Y-27.894
X73.629 Y-28.06
X73.73 Y-28.249
X73.852 Y-28.437
X74.021 Y-28.658
X74.213 Y-28.87
X74.477 Y-29.12
X74.77 Y-29.354
X75.158 Y-29.617
X75.627 Y-29.883
X76.203 Y-30.151
X76.805 Y-30.374
X77.42 Y-30.558
X78.044 Y-30.711
X78.673 Y-30.839
X79.306 Y-30.945
X79.942 Y-31.034
X80.58 Y-31.108
X81.219 Y-31.169
X81.86 Y-31.219
X82.5 Y-31.261
X83.142 Y-31.295
X83.783 Y-31.323
X84.425 Y-31.346
X85.067 Y-31.364
X85.709 Y-31.379
X86.351 Y-31.39
X86.993 Y-31.4
X87.635 Y-31.407
X88.278 Y-31.413
X88.92 Y-31.417
X90.204 Y-31.424
X92.131 Y-31.429
X95.342 Y-31.432
X108.827
X110.754
X111.396 Y-31.431
X112.038 Y-31.429
X112.681 Y-31.425
X113.323 Y-31.417
X113.965 Y-31.404
X114.607 Y-31.382
X115.248 Y-31.35
X115.888 Y-31.302
X116.527 Y-31.235
X117.162 Y-31.139
X117.731 Y-31.014
X118.108 Y-30.899
X118.37 Y-30.795
X118.522 Y-30.72
X118.692 Y-30.605
X118.824 Y-30.447
X118.907 Y-30.259
X118.936 Y-30.056
Y-28.822
G3 X118.362 Y-28.645 I-0.317 J-0.011
G1 X118.32 Y-28.702 Z-4.752
X118.281 Y-28.756 Z-4.729
X118.245 Y-28.805 Z-4.691
X118.215 Y-28.845 Z-4.64
X118.193 Y-28.876 Z-4.58
X118.179 Y-28.895 Z-4.513
X118.174 Y-28.901 Z-4.443
G0 Z5
X73.818 Y-26.269
Z-4.125
G1 Z-4.443 F300
X73.814 Y-26.276 Z-4.513
X73.802 Y-26.296 Z-4.58
X73.783 Y-26.329 Z-4.64
X73.757 Y-26.372 Z-4.691
X73.726 Y-26.424 Z-4.729
X73.692 Y-26.482 Z-4.752
X73.656 Y-26.542 Z-4.76
G3 X73.434 Y-27.296 I1.36 J-0.809
G1 Y-28.543
X73.442 Y-28.693
X73.467 Y-28.841
X73.507 Y-28.988
X73.564 Y-29.146
X73.64 Y-29.314
X73.748 Y-29.508
X73.874 Y-29.699
X74.05 Y-29.923
X74.25 Y-30.139
X74.524 Y-30.392
X74.828 Y-30.629
X75.229 Y-30.893
X75.721 Y-31.164
X76.307 Y-31.427
X76.911 Y-31.645
X77.528 Y-31.825
X78.152 Y-31.975
X78.782 Y-32.101
X79.415 Y-32.206
X80.051 Y-32.294
X80.689 Y-32.368
X81.329 Y-32.429
X81.969 Y-32.481
X82.61 Y-32.523
X83.251 Y-32.558
X83.892 Y-32.586
X84.534 Y-32.61
X85.176 Y-32.629
X85.818 Y-32.644
X86.46 Y-32.657
X87.102 Y-32.666
X87.744 Y-32.674
X88.386 Y-32.681
X89.029 Y-32.686
X90.313 Y-32.692
X90.816 Y-32.694
X90.924 Y-32.687
X91.03 Y-32.663
X91.131 Y-32.625
X91.516 Y-32.445
X91.623 Y-32.403
X91.954 Y-32.294
X92.076 Y-32.257
X93.559 Y-31.86
X93.851 Y-31.783
X93.997 Y-31.753
X94.289 Y-31.72
X94.435 Y-31.704
X95.894 Y-31.577
X96.186 Y-31.554
X96.332 Y-31.545
X96.77 Y-31.573
X98.229 Y-31.701
X98.667 Y-31.745
X98.813 Y-31.773
X99.251 Y-31.889
X100.564 Y-32.24
X100.623 Y-32.257
X100.71 Y-32.283
X101.333 Y-32.44
X101.966 Y-32.55
X102.605 Y-32.614
X103.246 Y-32.651
X103.888 Y-32.672
X104.53 Y-32.685
X105.172 Y-32.692
X105.814 Y-32.696
X106.456 Y-32.699
X107.741 Y-32.701
X109.667 Y-32.702
X110.952 Y-32.701
X111.594 Y-32.699
X112.236 Y-32.695
X112.878 Y-32.688
X113.52 Y-32.676
X114.162 Y-32.657
X114.804 Y-32.629
X115.445 Y-32.588
X116.084 Y-32.531
X116.722 Y-32.452
X117.354 Y-32.341
X117.846 Y-32.22
X118.199 Y-32.102
X118.439 Y-32
X118.539 Y-31.947
X118.702 Y-31.831
X118.829 Y-31.675
X118.908 Y-31.49
X118.936 Y-31.291
Y-30.056
G3 X118.362 Y-29.879 I-0.317 J-0.011
G1 X118.32 Y-29.936 Z-4.752
X118.281 Y-29.99 Z-4.729
X118.245 Y-30.039 Z-4.691
X118.215 Y-30.079 Z-4.64
X118.193 Y-30.11 Z-4.58
X118.179 Y-30.129 Z-4.513
X118.174 Y-30.135 Z-4.443
G0 Z5
X99.84 Y-31.617
Z-4.125
G1 Z-4.443 F300
X99.846 Y-31.623 Z-4.513
X99.861 Y-31.641 Z-4.58
X99.887 Y-31.669 Z-4.64
X99.921 Y-31.706 Z-4.691
X99.961 Y-31.75 Z-4.729
X100.006 Y-31.8 Z-4.752
X100.054 Y-31.852 Z-4.76
G3 X100.71 Y-32.283 I1.17 J1.066
G1 X101.002 Y-32.372
X101.09 Y-32.403
X101.732 Y-32.7
X102.972 Y-33.278
X103.045 Y-33.318
X103.246 Y-33.415
X103.54 Y-33.529
X103.94 Y-33.648
X104.517 Y-33.77
X105.154 Y-33.853
X105.794 Y-33.901
X106.435 Y-33.93
X107.077 Y-33.947
X107.72 Y-33.957
X108.362 Y-33.963
X109.004 Y-33.967
X109.646 Y-33.969
X110.288
X110.93 Y-33.968
X111.573 Y-33.966
X112.215 Y-33.961
X112.857 Y-33.952
X113.499 Y-33.938
X114.141 Y-33.916
X114.782 Y-33.885
X115.423 Y-33.842
X116.062 Y-33.782
X116.699 Y-33.702
X117.332 Y-33.591
X117.849 Y-33.461
X118.198 Y-33.344
X118.443 Y-33.239
X118.541 Y-33.187
X118.704 Y-33.07
X118.829 Y-32.914
X118.908 Y-32.73
X118.936 Y-32.532
Y-31.291
G3 X118.362 Y-31.115 I-0.317 J-0.011
G1 X118.32 Y-31.172 Z-4.752
X118.281 Y-31.226 Z-4.729
X118.245 Y-31.274 Z-4.691
X118.215 Y-31.315 Z-4.64
X118.193 Y-31.345 Z-4.58
X118.179 Y-31.364 Z-4.513
X118.174 Y-31.371 Z-4.443
G0 Z5
X102.329 Y-32.489
Z-4.125
G1 Z-4.443 F300
X102.333 Y-32.496 Z-4.513
X102.345 Y-32.516 Z-4.58
X102.364 Y-32.548 Z-4.64
X102.389 Y-32.592 Z-4.691
X102.42 Y-32.644 Z-4.729
X102.454 Y-32.701 Z-4.752
X102.49 Y-32.762 Z-4.76
G3 X103.045 Y-33.318 I1.362 J0.806
G1 X103.191 Y-33.397
X103.232 Y-33.424
X103.483 Y-33.599
X104.651 Y-34.416
X104.783 Y-34.5
X105.005 Y-34.615
X105.285 Y-34.734
X105.659 Y-34.858
X106.177 Y-34.984
X106.811 Y-35.086
X107.45 Y-35.147
X108.091 Y-35.184
X108.733 Y-35.207
X109.375 Y-35.22
X110.017 Y-35.228
X110.659 Y-35.231
X111.302
X111.944 Y-35.227
X112.586 Y-35.219
X113.228 Y-35.206
X113.87 Y-35.186
X114.511 Y-35.156
X115.152 Y-35.116
X115.792 Y-35.06
X116.43 Y-34.986
X117.064 Y-34.885
X117.669 Y-34.754
X118.062 Y-34.635
X118.355 Y-34.52
X118.52 Y-34.44
X118.691 Y-34.324
X118.823 Y-34.166
X118.907 Y-33.978
X118.936 Y-33.774
Y-32.532
G3 X118.362 Y-32.355 I-0.317 J-0.011
G1 X118.32 Y-32.412 Z-4.752
X118.281 Y-32.466 Z-4.729
X118.245 Y-32.515 Z-4.691
X118.215 Y-32.555 Z-4.64
X118.193 Y-32.586 Z-4.58
X118.179 Y-32.604 Z-4.513
X118.174 Y-32.611 Z-4.443
G0 Z5
X104.03 Y-33.513
Z-4.125
G1 Z-4.443 F300
X104.033 Y-33.52 Z-4.513
X104.043 Y-33.542 Z-4.58
X104.058 Y-33.576 Z-4.64
X104.079 Y-33.622 Z-4.691
X104.104 Y-33.677 Z-4.729
X104.131 Y-33.738 Z-4.752
X104.16 Y-33.803 Z-4.76
G3 X104.651 Y-34.416 I1.443 J0.65
G1 X104.901 Y-34.591
X104.943 Y-34.624
X105.234 Y-34.885
X105.389 Y-35.029
X105.757 Y-35.396
X105.868 Y-35.497
X106.014 Y-35.608
X106.197 Y-35.725
X106.42 Y-35.844
X106.713 Y-35.971
X107.088 Y-36.098
X107.607 Y-36.23
X108.24 Y-36.337
X108.879 Y-36.403
X109.52 Y-36.443
X110.161 Y-36.467
X110.803 Y-36.48
X111.445 Y-36.485
X112.088 Y-36.483
X112.73 Y-36.475
X113.372 Y-36.46
X114.014 Y-36.436
X114.655 Y-36.403
X115.295 Y-36.356
X115.935 Y-36.295
X116.572 Y-36.213
X117.205 Y-36.105
X117.774 Y-35.97
X118.148 Y-35.848
X118.404 Y-35.742
X118.533 Y-35.676
X118.699 Y-35.56
X118.827 Y-35.403
X118.908 Y-35.217
X118.936 Y-35.017
Y-33.774
G3 X118.607 Y-33.468 Z-4.56 I-0.317 J-0.011
G1 X118.583 Y-33.469
X118.36 Y-33.494
X105.998 Y-34.859
X105.954 Y-34.864
X105.888 Y-34.879
X105.826 Y-34.907
X105.772 Y-34.948
G3 X105.671 Y-35.179 Z-4.664 I0.217 J-0.232
G1 Y-35.18
X105.677 Y-35.239 Z-4.688
X105.693 Y-35.296 Z-4.712
X105.72 Y-35.349 Z-4.736
X105.757 Y-35.396 Z-4.76
X106.41 Y-36.051
X106.694 Y-36.347
X106.817 Y-36.488
X106.916 Y-36.601
X107.041 Y-36.715
X107.186 Y-36.827
X107.375 Y-36.95
X107.61 Y-37.077
X107.904 Y-37.207
X108.287 Y-37.34
X108.806 Y-37.475
X109.438 Y-37.586
X110.077 Y-37.655
X110.717 Y-37.696
X111.359 Y-37.719
X112.001 Y-37.728
X112.644 Y-37.727
X113.286 Y-37.715
X113.927 Y-37.693
X114.569 Y-37.661
X115.209 Y-37.616
X115.849 Y-37.555
X116.486 Y-37.475
X117.119 Y-37.369
X117.705 Y-37.236
X118.095 Y-37.114
X118.374 Y-37.001
X118.526 Y-36.925
X118.695 Y-36.809
X118.825 Y-36.652
X118.907 Y-36.465
X118.936 Y-36.263
Y-35.017
G3 X118.607 Y-34.71 Z-4.56 I-0.317 J-0.011
G1 X118.583 Y-34.712
X118.361 Y-34.737
X107.148 Y-35.989
X107.048 Y-36
X107 Y-36.009
X106.953 Y-36.026
X106.91 Y-36.049
G3 X106.766 Y-36.315 Z-4.686 I0.173 J-0.266
G1 Z-4.687
X106.772 Y-36.376 Z-4.711
X106.789 Y-36.434 Z-4.736
X106.817 Y-36.488 Z-4.76
X107.532 Y-37.51
X107.653 Y-37.664
X107.754 Y-37.775
X107.882 Y-37.894
X108.051 Y-38.026
X108.241 Y-38.153
X108.485 Y-38.288
X108.789 Y-38.426
X109.181 Y-38.566
X109.686 Y-38.703
X110.318 Y-38.821
X110.956 Y-38.894
X111.597 Y-38.937
X112.238 Y-38.958
X112.881 Y-38.962
X113.523 Y-38.953
X114.164 Y-38.93
X114.806 Y-38.895
X115.446 Y-38.844
X116.084 Y-38.776
X116.72 Y-38.686
X117.351 Y-38.567
X117.86 Y-38.436
X118.216 Y-38.313
X118.457 Y-38.207
X118.546 Y-38.159
X118.707 Y-38.043
X118.831 Y-37.887
X118.909 Y-37.704
X118.936 Y-37.507
Y-36.263
G3 X118.607 Y-35.956 Z-4.56 I-0.317 J-0.011
G1 X118.587 Y-35.958
X118.36 Y-35.98
X107.863 Y-37.011
X107.768 Y-37.021
X107.718 Y-37.03
X107.67 Y-37.047
X107.625 Y-37.071
G3 X107.532 Y-37.51 Z-4.76 I0.173 J-0.266
G1 X107.838 Y-37.947
X108.126 Y-38.385
X108.153 Y-38.437
X108.198 Y-38.531
X108.268 Y-38.664
X108.352 Y-38.788
X108.452 Y-38.909
X108.565 Y-39.025
X108.709 Y-39.151
X108.899 Y-39.292
X109.111 Y-39.425
X109.386 Y-39.567
X109.72 Y-39.708
X110.157 Y-39.851
X110.727 Y-39.989
X111.361 Y-40.089
X112.001 Y-40.149
X112.642 Y-40.18
X113.284 Y-40.188
X113.926 Y-40.179
X114.568 Y-40.153
X115.209 Y-40.11
X115.848 Y-40.05
X116.485 Y-39.968
X117.118 Y-39.861
X117.714 Y-39.724
X118.098 Y-39.603
X118.382 Y-39.488
X118.527 Y-39.415
X118.695 Y-39.299
X118.825 Y-39.142
X118.907 Y-38.955
X118.936 Y-38.753
Y-37.507
G3 X118.607 Y-37.201 Z-4.56 I-0.317 J-0.011
G1 X118.59 Y-37.202
X118.36 Y-37.222
X108.61 Y-38.078
X108.462 Y-38.091
X108.413 Y-38.099
X108.366 Y-38.115
G3 X108.198 Y-38.531 Z-4.76 I0.124 J-0.292
G1 X108.737 Y-39.687
X108.807 Y-39.819
X108.892 Y-39.943
X108.992 Y-40.066
X109.114 Y-40.193
X109.276 Y-40.337
X109.462 Y-40.476
X109.69 Y-40.621
X109.979 Y-40.773
X110.32 Y-40.919
X110.753 Y-41.064
X111.315 Y-41.204
X111.949 Y-41.308
X112.588 Y-41.369
X113.229 Y-41.399
X113.871 Y-41.405
X114.513 Y-41.389
X115.155 Y-41.353
X115.794 Y-41.298
X116.432 Y-41.221
X117.066 Y-41.118
X117.667 Y-40.984
X118.072 Y-40.86
X118.358 Y-40.746
X118.523 Y-40.664
X118.693 Y-40.549
X118.824 Y-40.391
X118.907 Y-40.203
X118.936 Y-40
Y-38.753
G3 X118.607 Y-38.447 Z-4.56 I-0.317 J-0.011
G1 X118.592 Y-38.448
X118.36 Y-38.467
X109.149 Y-39.234
X109.003 Y-39.246
X108.953 Y-39.255
X108.905 Y-39.271
G3 X108.737 Y-39.687 Z-4.76 I0.124 J-0.292
G1 X109.029 Y-40.313
X109.077 Y-40.428
X109.126 Y-40.574
X109.149 Y-40.654
X109.197 Y-40.796
X109.263 Y-40.931
X109.341 Y-41.059
X109.439 Y-41.189
X109.554 Y-41.319
X109.697 Y-41.456
X109.885 Y-41.61
X110.09 Y-41.752
X110.36 Y-41.908
X110.675 Y-42.058
X111.082 Y-42.213
X111.563 Y-42.354
X112.192 Y-42.484
X112.829 Y-42.563
X113.47 Y-42.604
X114.112 Y-42.616
X114.754 Y-42.603
X115.395 Y-42.567
X116.035 Y-42.509
X116.672 Y-42.425
X117.304 Y-42.312
X117.829 Y-42.18
X118.191 Y-42.058
X118.436 Y-41.953
X118.541 Y-41.898
X118.703 Y-41.781
X118.829 Y-41.625
X118.908 Y-41.441
X118.936 Y-41.243
Y-40
G3 X118.607 Y-39.694 Z-4.56 I-0.317 J-0.011
G1 X118.599
X118.36 Y-39.709
X109.628 Y-40.25
X109.438 Y-40.261
X109.381 Y-40.27
G3 X109.149 Y-40.654 Z-4.76 I0.076 J-0.308
G1 X109.175 Y-40.747
X109.441 Y-41.741
X109.487 Y-41.884
X109.551 Y-42.02
X109.626 Y-42.149
X109.723 Y-42.286
X109.841 Y-42.426
X109.984 Y-42.572
X110.168 Y-42.731
X110.374 Y-42.882
X110.651 Y-43.052
X110.95 Y-43.205
X111.345 Y-43.369
X111.802 Y-43.515
X112.384 Y-43.652
X113.019 Y-43.749
X113.659 Y-43.802
X114.301 Y-43.822
X114.943 Y-43.814
X115.585 Y-43.779
X116.224 Y-43.719
X116.86 Y-43.632
X117.491 Y-43.509
X117.937 Y-43.388
X118.27 Y-43.267
X118.501 Y-43.163
X118.555 Y-43.133
X118.712 Y-43.015
X118.833 Y-42.861
X118.909 Y-42.68
X118.936 Y-42.485
Y-41.243
