(rackInner_v5)
(T9 D=3.175 CR=0 - ZMIN=-5.76 - flat end mill)
G90 G94
G17
G21
G28 G91 Z0
G90

(2D Contour3)
T9
S18000 M3
G17 G90 G94
G54
G0 X217.46 Y-124.2
Z15
G0 Z5
G1 Z1 F25
Z-5.443
G18 G2 X217.777 Z-5.76 I0.317 K0 F50
G1 X218.095
G17 G3 X218.413 Y-123.882 I0 J0.317
G1 Y-53.662 F75
G3 X215.221 Y-50.47 I-3.192 J0
G1 X214.779
G3 X211.587 Y-53.662 I0 J-3.192
G1 Y-124.103
G3 X214.779 Y-127.295 I3.192 J0
G1 X215.221
G3 X218.413 Y-124.103 I0 J3.192
G1 Y-123.882
G3 X218.095 Y-123.564 I-0.318 J0
G1 X217.777
G18 G3 X217.46 Z-5.443 I0 K0.318
G0 Z5
X220.295 Y-142.799
G1 Z1 F25
Z-5.443
G2 X220.613 Z-5.76 I0.318 K0 F50
G1 X220.93
G17 G3 X221.247 Y-142.482 I0 J0.318
G1 Y-141.982 F75
G3 X220.835 Y-141.57 I-0.412 J0
G1 X214.835
G3 X214.423 Y-141.982 I0 J-0.412
G1 Y-142.982
G3 X214.835 Y-143.395 I0.413 J0
G1 X220.835
G3 X221.247 Y-142.982 I0 J0.413
G1 Y-142.482
G3 X220.93 Y-142.165 I-0.318 J0
G1 X220.613
G18 G3 X220.295 Z-5.443 I0 K0.318
G0 Z5
X200.295 Y-142.799
G1 Z1 F25
Z-5.443
G2 X200.613 Z-5.76 I0.318 K0 F50
G1 X200.93
G17 G3 X201.247 Y-142.482 I0 J0.318
G1 Y-141.982 F75
G3 X200.835 Y-141.57 I-0.412 J0
G1 X194.835
G3 X194.423 Y-141.982 I0 J-0.412
G1 Y-142.982
G3 X194.835 Y-143.395 I0.413 J0
G1 X200.835
G3 X201.247 Y-142.982 I0 J0.413
G1 Y-142.482
G3 X200.93 Y-142.165 I-0.318 J0
G1 X200.613
G18 G3 X200.295 Z-5.443 I0 K0.318
G0 Z5
X192.46 Y-56.2
G1 Z1 F25
Z-5.443
G2 X192.777 Z-5.76 I0.317 K0 F50
G1 X193.095
G17 G3 X193.413 Y-55.882 I0 J0.318
G1 Y-55.662 F75
G3 X190.221 Y-52.47 I-3.192 J0
G1 X189.779
G3 X186.587 Y-55.662 I0 J-3.192
G1 Y-122.103
G3 X189.779 Y-125.295 I3.192 J0
G1 X190.221
G3 X193.413 Y-122.103 I0 J3.192
G1 Y-55.882
G3 X193.095 Y-55.565 I-0.318 J0
G1 X192.777
G18 G3 X192.46 Z-5.443 I0 K0.318
G0 Z5
X200.295 Y-35.6
G1 Z1 F25
Z-5.443
G2 X200.613 Z-5.76 I0.318 K0 F50
G1 X200.93
G17 G3 X201.247 Y-35.283 I0 J0.318
G1 Y-34.783 F75
G3 X200.835 Y-34.37 I-0.412 J0
G1 X194.835
G3 X194.423 Y-34.783 I0 J-0.413
G1 Y-35.783
G3 X194.835 Y-36.195 I0.413 J0
G1 X200.835
G3 X201.247 Y-35.783 I0 J0.412
G1 Y-35.283
G3 X200.93 Y-34.965 I-0.318 J0
G1 X200.613
G18 G3 X200.295 Z-5.443 I0 K0.318
G0 Z5
X215.018 Y-35.243
G1 Z1 F25
Z-5.443
G19 G2 Y-35.56 Z-5.76 J-0.318 K0 F50
G1 Y-35.878
G17 G3 X215.335 Y-36.195 I0.318 J0
G1 X220.835 F75
G3 X221.247 Y-35.783 I0 J0.412
G1 Y-34.783
G3 X220.835 Y-34.37 I-0.412 J0
G1 X214.835
G3 X214.423 Y-34.783 I0 J-0.413
G1 Y-35.783
G3 X214.835 Y-36.195 I0.413 J0
G1 X215.335
G3 X215.652 Y-35.878 I0 J0.317
G1 Y-35.56
G19 G3 Y-35.243 Z-5.443 J0 K0.318
G0 Z5
X271.604 Y-31.131
G1 Z1 F25
Z-5.443
X271.612 Y-31.13 Z-5.513 F50
X271.635 Y-31.127 Z-5.58
X271.672 Y-31.122 Z-5.64
X271.722 Y-31.115 Z-5.691
X271.782 Y-31.107 Z-5.729
X271.848 Y-31.098 Z-5.752
X271.918 Y-31.089 Z-5.76
X272.233 Y-31.047
G17 G3 X272.506 Y-30.691 I-0.042 J0.315
G1 X272.243 Y-28.709 F75
G3 X270.658 Y-27.494 I-1.4 J-0.185
G1 X256.78 Y-29.333
G3 X255.565 Y-30.919 I0.185 J-1.4
G1 X256.09 Y-34.884
G3 X257.675 Y-36.099 I1.4 J0.186
G1 X271.554 Y-34.26
G3 X272.769 Y-32.674 I-0.185 J1.4
G1 X272.506 Y-30.691
G3 X272.15 Y-30.418 I-0.315 J-0.042
G1 X271.835 Y-30.459
X271.765 Y-30.469 Z-5.752
X271.698 Y-30.478 Z-5.729
X271.639 Y-30.486 Z-5.691
X271.589 Y-30.492 Z-5.64
X271.551 Y-30.497 Z-5.58
X271.528 Y-30.5 Z-5.513
X271.52 Y-30.501 Z-5.443
G0 Z5
X261.697 Y-51.321
G1 Z1 F25
Z-5.443
X261.698 Y-51.328 Z-5.513 F50
X261.701 Y-51.352 Z-5.58
X261.706 Y-51.389 Z-5.64
X261.712 Y-51.439 Z-5.691
X261.72 Y-51.499 Z-5.729
X261.729 Y-51.565 Z-5.752
X261.738 Y-51.635 Z-5.76
X261.78 Y-51.95
G3 X262.137 Y-52.223 I0.315 J0.042
G1 X274.032 Y-50.646 F75
G3 X275.247 Y-49.061 I-0.185 J1.4
G1 X274.722 Y-45.095
G3 X273.136 Y-43.881 I-1.4 J-0.186
G1 X259.258 Y-45.72
G3 X258.043 Y-47.306 I0.185 J-1.4
G1 X258.568 Y-51.271
G3 X260.154 Y-52.486 I1.4 J0.186
G1 X262.137 Y-52.223
G3 X262.41 Y-51.867 I-0.042 J0.315
G1 X262.368 Y-51.552
X262.359 Y-51.482 Z-5.752
X262.35 Y-51.415 Z-5.729
X262.342 Y-51.356 Z-5.691
X262.335 Y-51.306 Z-5.64
X262.33 Y-51.268 Z-5.58
X262.327 Y-51.245 Z-5.513
X262.326 Y-51.237 Z-5.443
G0 Z5
X301.35 Y-46.065
G1 Z1 F25
Z-5.443
X301.351 Y-46.073 Z-5.513 F50
X301.354 Y-46.096 Z-5.58
X301.359 Y-46.134 Z-5.64
X301.366 Y-46.184 Z-5.691
X301.374 Y-46.243 Z-5.729
X301.383 Y-46.31 Z-5.752
X301.392 Y-46.38 Z-5.76
X301.434 Y-46.695
G3 X301.79 Y-46.968 I0.315 J0.042
G1 X313.685 Y-45.391 F75
G3 X314.9 Y-43.805 I-0.185 J1.4
G1 X314.375 Y-39.84
G3 X312.79 Y-38.625 I-1.4 J-0.186
G1 X298.911 Y-40.465
G3 X297.696 Y-42.051 I0.185 J-1.4
G1 X298.222 Y-46.016
G3 X299.807 Y-47.231 I1.4 J0.185
G1 X301.79 Y-46.968
G3 X302.063 Y-46.611 I-0.042 J0.315
G1 X302.021 Y-46.297
X302.012 Y-46.227 Z-5.752
X302.003 Y-46.16 Z-5.729
X301.995 Y-46.1 Z-5.691
X301.989 Y-46.051 Z-5.64
X301.984 Y-46.013 Z-5.58
X301.981 Y-45.99 Z-5.513
X301.98 Y-45.982 Z-5.443
G0 Z5
X298.872 Y-29.678
G1 Z1 F25
Z-5.443
X298.873 Y-29.686 Z-5.513 F50
X298.876 Y-29.71 Z-5.58
X298.881 Y-29.747 Z-5.64
X298.888 Y-29.797 Z-5.691
X298.896 Y-29.857 Z-5.729
X298.905 Y-29.923 Z-5.752
X298.914 Y-29.993 Z-5.76
X298.956 Y-30.308
G3 X299.312 Y-30.581 I0.315 J0.042
G1 X311.207 Y-29.004 F75
G3 X312.422 Y-27.419 I-0.185 J1.4
G1 X311.897 Y-23.453
G3 X310.312 Y-22.239 I-1.4 J-0.186
G1 X296.433 Y-24.078
G3 X295.218 Y-25.664 I0.185 J-1.4
G1 X295.744 Y-29.629
G3 X297.329 Y-30.844 I1.4 J0.185
G1 X299.312 Y-30.581
G3 X299.585 Y-30.225 I-0.042 J0.315
G1 X299.543 Y-29.91
X299.534 Y-29.84 Z-5.752
X299.525 Y-29.773 Z-5.729
X299.517 Y-29.714 Z-5.691
X299.511 Y-29.664 Z-5.64
X299.506 Y-29.626 Z-5.58
X299.503 Y-29.603 Z-5.513
X299.502 Y-29.595 Z-5.443
G0 Z5
X338.525 Y-24.423
G1 Z1 F25
Z-5.443
X338.526 Y-24.431 Z-5.513 F50
X338.529 Y-24.454 Z-5.58
X338.534 Y-24.492 Z-5.64
X338.541 Y-24.542 Z-5.691
X338.549 Y-24.601 Z-5.729
X338.558 Y-24.668 Z-5.752
X338.567 Y-24.738 Z-5.76
X338.609 Y-25.053
G3 X338.965 Y-25.326 I0.315 J0.042
G1 X350.861 Y-23.749 F75
G3 X352.075 Y-22.163 I-0.186 J1.4
G1 X351.55 Y-18.198
G3 X349.965 Y-16.983 I-1.4 J-0.186
G1 X336.086 Y-18.823
G3 X334.871 Y-20.408 I0.185 J-1.4
G1 X335.397 Y-24.374
G3 X336.982 Y-25.589 I1.4 J0.185
G1 X338.965 Y-25.326
G3 X339.238 Y-24.969 I-0.042 J0.315
G1 X339.196 Y-24.655
X339.187 Y-24.585 Z-5.752
X339.178 Y-24.518 Z-5.729
X339.17 Y-24.458 Z-5.691
X339.164 Y-24.409 Z-5.64
X339.159 Y-24.371 Z-5.58
X339.156 Y-24.348 Z-5.513
X339.155 Y-24.34 Z-5.443
G0 Z5
X353.389 Y-37.007
G1 Z1 F25
Z-5.443
X353.397 Y-37.006 Z-5.513 F50
X353.42 Y-37.003 Z-5.58
X353.457 Y-36.998 Z-5.64
X353.507 Y-36.991 Z-5.691
X353.567 Y-36.984 Z-5.729
X353.633 Y-36.975 Z-5.752
X353.703 Y-36.965 Z-5.76
X354.018 Y-36.924
G3 X354.291 Y-36.567 I-0.042 J0.315
G1 X354.028 Y-34.585 F75
G3 X352.443 Y-33.37 I-1.4 J-0.185
G1 X338.564 Y-35.21
G3 X337.349 Y-36.795 I0.185 J-1.4
G1 X337.875 Y-40.761
G3 X339.46 Y-41.975 I1.4 J0.185
G1 X353.339 Y-40.136
G3 X354.554 Y-38.55 I-0.185 J1.4
G1 X354.291 Y-36.567
G3 X353.935 Y-36.294 I-0.315 J-0.042
G1 X353.62 Y-36.336
X353.55 Y-36.345 Z-5.752
X353.483 Y-36.354 Z-5.729
X353.424 Y-36.362 Z-5.691
X353.374 Y-36.369 Z-5.64
X353.336 Y-36.374 Z-5.58
X353.313 Y-36.377 Z-5.513
X353.305 Y-36.378 Z-5.443
G0 Z5
X393.042 Y-31.752
G1 Z1 F25
Z-5.443
X393.05 Y-31.751 Z-5.513 F50
X393.073 Y-31.748 Z-5.58
X393.11 Y-31.743 Z-5.64
X393.16 Y-31.736 Z-5.691
X393.22 Y-31.728 Z-5.729
X393.286 Y-31.72 Z-5.752
X393.356 Y-31.71 Z-5.76
X393.671 Y-31.669
G3 X393.944 Y-31.312 I-0.042 J0.315
G1 X393.681 Y-29.33 F75
G3 X392.096 Y-28.115 I-1.4 J-0.185
G1 X378.218 Y-29.954
G3 X377.003 Y-31.54 I0.185 J-1.4
G1 X377.528 Y-35.506
G3 X379.113 Y-36.72 I1.4 J0.186
G1 X392.992 Y-34.881
G3 X394.207 Y-33.295 I-0.185 J1.4
G1 X393.944 Y-31.312
G3 X393.588 Y-31.039 I-0.315 J-0.042
G1 X393.273 Y-31.081
X393.203 Y-31.09 Z-5.752
X393.136 Y-31.099 Z-5.729
X393.077 Y-31.107 Z-5.691
X393.027 Y-31.113 Z-5.64
X392.989 Y-31.118 Z-5.58
X392.966 Y-31.121 Z-5.513
X392.958 Y-31.123 Z-5.443
G0 Z5
X390.564 Y-15.365
G1 Z1 F25
Z-5.443
X390.572 Y-15.364 Z-5.513 F50
X390.595 Y-15.361 Z-5.58
X390.632 Y-15.356 Z-5.64
X390.682 Y-15.349 Z-5.691
X390.742 Y-15.342 Z-5.729
X390.808 Y-15.333 Z-5.752
X390.878 Y-15.323 Z-5.76
X391.193 Y-15.282
G3 X391.466 Y-14.925 I-0.042 J0.315
G1 X391.203 Y-12.943 F75
G3 X389.618 Y-11.728 I-1.4 J-0.185
G1 X375.739 Y-13.568
G3 X374.525 Y-15.153 I0.186 J-1.4
G1 X375.05 Y-19.119
G3 X376.635 Y-20.333 I1.4 J0.186
G1 X390.514 Y-18.494
G3 X391.729 Y-16.908 I-0.185 J1.4
G1 X391.466 Y-14.925
G3 X391.11 Y-14.652 I-0.315 J-0.042
G1 X390.795 Y-14.694
X390.725 Y-14.703 Z-5.752
X390.658 Y-14.712 Z-5.729
X390.599 Y-14.72 Z-5.691
X390.549 Y-14.727 Z-5.64
X390.511 Y-14.732 Z-5.58
X390.488 Y-14.735 Z-5.513
X390.48 Y-14.736 Z-5.443
G0 Z5
X422.347 Y-13.761
G1 Z1 F25
Z-5.443
G18 G2 X422.664 Z-5.76 I0.318 K0 F50
G1 X422.982
G17 G3 X423.299 Y-13.444 I0 J0.318
X411.474 Y-13.444 I-5.913 J0 F75
X423.299 Y-13.444 I5.913 J0
X422.982 Y-13.126 I-0.318 J0
G1 X422.664
G18 G3 X422.347 Z-5.443 I0 K0.318
G0 Z5
X436.13 Y-50.274
G1 Z1 F25
Z-5.443
G2 X436.448 Z-5.76 I0.318 K0 F50
G1 X436.765
G17 G3 X437.082 Y-49.956 I0 J0.318
X425.258 Y-49.956 I-5.912 J0 F75
X437.082 Y-49.956 I5.912 J0
X436.765 Y-49.639 I-0.317 J0
G1 X436.448
G18 G3 X436.13 Z-5.443 I0 K0.318
G0 Z5
X438.189 Y-80.2
G1 Z1 F25
Z-5.443
G2 X438.507 Z-5.76 I0.318 K0 F50
G1 X438.824
G17 G3 X439.142 Y-79.882 I0 J0.317
G1 Y-78.882 F75
G3 X436.729 Y-76.47 I-2.413 J0
G1 X434.729
G3 X432.316 Y-78.882 I0 J-2.412
G1 Y-98.882
G3 X434.729 Y-101.295 I2.412 J0
G1 X436.729
G3 X439.142 Y-98.882 I0 J2.412
G1 Y-79.882
G3 X438.824 Y-79.565 I-0.318 J0
G1 X438.507
G18 G3 X438.189 Z-5.443 I0 K0.318
G0 Z5
X436.13 Y-128.126
G1 Z1 F25
Z-5.443
G2 X436.448 Z-5.76 I0.318 K0 F50
G1 X436.765
G17 G3 X437.082 Y-127.809 I0 J0.317
X425.258 Y-127.809 I-5.912 J0 F75
X437.082 Y-127.809 I5.912 J0
X436.765 Y-127.492 I-0.317 J0
G1 X436.448
G18 G3 X436.13 Z-5.443 I0 K0.318
G0 Z5
X422.347 Y-164.639
G1 Z1 F25
Z-5.443
G2 X422.664 Z-5.76 I0.318 K0 F50
G1 X422.982
G17 G3 X423.299 Y-164.321 I0 J0.318
X411.474 Y-164.321 I-5.913 J0 F75
X423.299 Y-164.321 I5.913 J0
X422.982 Y-164.003 I-0.318 J0
G1 X422.664
G18 G3 X422.347 Z-5.443 I0 K0.318
G0 Z5
X378.808 Y-158.68
G1 Z1 F25
Z-5.443
X378.809 Y-158.673 Z-5.513 F50
X378.812 Y-158.649 Z-5.58
X378.817 Y-158.612 Z-5.64
X378.824 Y-158.562 Z-5.691
X378.832 Y-158.502 Z-5.729
X378.84 Y-158.436 Z-5.752
X378.85 Y-158.366 Z-5.76
X378.891 Y-158.051
G17 G3 X378.618 Y-157.694 I-0.315 J0.042
G1 X376.635 Y-157.432 F75
G3 X375.05 Y-158.646 I-0.185 J-1.4
G1 X374.525 Y-162.611
G3 X375.739 Y-164.197 I1.4 J-0.186
G1 X389.618 Y-166.036
G3 X391.203 Y-164.822 I0.186 J1.4
G1 X391.729 Y-160.856
G3 X390.514 Y-159.271 I-1.4 J0.185
G1 X378.618 Y-157.694
G3 X378.262 Y-157.968 I-0.042 J-0.315
G1 X378.22 Y-158.282
X378.211 Y-158.352 Z-5.752
X378.202 Y-158.419 Z-5.729
X378.194 Y-158.479 Z-5.691
X378.187 Y-158.528 Z-5.64
X378.183 Y-158.566 Z-5.58
X378.179 Y-158.589 Z-5.513
X378.178 Y-158.597 Z-5.443
G0 Z5
X392.958 Y-146.642
G1 Z1 F25
Z-5.443
X392.966 Y-146.643 Z-5.513 F50
X392.989 Y-146.647 Z-5.58
X393.027 Y-146.651 Z-5.64
X393.077 Y-146.658 Z-5.691
X393.136 Y-146.666 Z-5.729
X393.203 Y-146.675 Z-5.752
X393.273 Y-146.684 Z-5.76
X393.588 Y-146.726
G3 X393.944 Y-146.453 I0.042 J0.315
G1 X394.207 Y-144.469 F75
G3 X392.992 Y-142.884 I-1.4 J0.185
G1 X379.113 Y-141.045
G3 X377.528 Y-142.259 I-0.185 J-1.4
G1 X377.003 Y-146.224
G3 X378.217 Y-147.81 I1.4 J-0.186
G1 X392.096 Y-149.65
G3 X393.681 Y-148.436 I0.185 J1.4
G1 X393.944 Y-146.453
G3 X393.671 Y-146.096 I-0.315 J0.042
G1 X393.356 Y-146.055
X393.286 Y-146.045 Z-5.752
X393.22 Y-146.037 Z-5.729
X393.16 Y-146.029 Z-5.691
X393.11 Y-146.022 Z-5.64
X393.073 Y-146.017 Z-5.58
X393.05 Y-146.014 Z-5.513
X393.042 Y-146.013 Z-5.443
G0 Z5
X341.632 Y-137.038
G1 Z1 F25
Z-5.443
X341.633 Y-137.03 Z-5.513 F50
X341.637 Y-137.007 Z-5.58
X341.642 Y-136.97 Z-5.64
X341.648 Y-136.92 Z-5.691
X341.656 Y-136.86 Z-5.729
X341.665 Y-136.794 Z-5.752
X341.674 Y-136.724 Z-5.76
X341.716 Y-136.409
G3 X341.443 Y-136.052 I-0.315 J0.042
G1 X339.46 Y-135.79 F75
G3 X337.875 Y-137.004 I-0.185 J-1.4
G1 X337.349 Y-140.97
G3 X338.564 Y-142.555 I1.4 J-0.185
G1 X352.443 Y-144.394
G3 X354.028 Y-143.18 I0.185 J1.4
G1 X354.554 Y-139.214
G3 X353.34 Y-137.629 I-1.4 J0.185
G1 X341.443 Y-136.052
G3 X341.086 Y-136.325 I-0.042 J-0.315
G1 X341.045 Y-136.64
X341.035 Y-136.71 Z-5.752
X341.027 Y-136.777 Z-5.729
X341.019 Y-136.836 Z-5.691
X341.012 Y-136.886 Z-5.64
X341.007 Y-136.924 Z-5.58
X341.004 Y-136.947 Z-5.513
X341.003 Y-136.955 Z-5.443
G0 Z5
X339.154 Y-153.425
G1 Z1 F25
Z-5.443
X339.155 Y-153.417 Z-5.513 F50
X339.158 Y-153.394 Z-5.58
X339.163 Y-153.357 Z-5.64
X339.17 Y-153.307 Z-5.691
X339.178 Y-153.247 Z-5.729
X339.187 Y-153.181 Z-5.752
X339.196 Y-153.111 Z-5.76
X339.238 Y-152.796
G3 X338.965 Y-152.439 I-0.315 J0.042
G1 X336.982 Y-152.177 F75
G3 X335.397 Y-153.391 I-0.186 J-1.4
G1 X334.871 Y-157.357
G3 X336.085 Y-158.942 I1.4 J-0.185
G1 X349.965 Y-160.781
G3 X351.55 Y-159.567 I0.185 J1.4
G1 X352.075 Y-155.602
G3 X350.861 Y-154.016 I-1.4 J0.186
G1 X338.965 Y-152.439
G3 X338.608 Y-152.712 I-0.042 J-0.315
G1 X338.567 Y-153.027
X338.557 Y-153.097 Z-5.752
X338.548 Y-153.164 Z-5.729
X338.541 Y-153.223 Z-5.691
X338.534 Y-153.273 Z-5.64
X338.529 Y-153.311 Z-5.58
X338.526 Y-153.334 Z-5.513
X338.525 Y-153.342 Z-5.443
G0 Z5
X299.502 Y-148.17
G1 Z1 F25
Z-5.443
X299.503 Y-148.162 Z-5.513 F50
X299.506 Y-148.138 Z-5.58
X299.511 Y-148.101 Z-5.64
X299.518 Y-148.051 Z-5.691
X299.526 Y-147.991 Z-5.729
X299.535 Y-147.925 Z-5.752
X299.544 Y-147.855 Z-5.76
X299.586 Y-147.54
G3 X299.313 Y-147.184 I-0.315 J0.042
G1 X297.329 Y-146.921 F75
G3 X295.744 Y-148.135 I-0.185 J-1.4
G1 X295.218 Y-152.102
G3 X296.432 Y-153.687 I1.4 J-0.185
G1 X310.311 Y-155.526
G3 X311.897 Y-154.312 I0.186 J1.4
G1 X312.422 Y-150.347
G3 X311.208 Y-148.761 I-1.4 J0.186
G1 X299.313 Y-147.184
G3 X298.956 Y-147.457 I-0.042 J-0.315
G1 X298.914 Y-147.771
X298.905 Y-147.841 Z-5.752
X298.896 Y-147.908 Z-5.729
X298.888 Y-147.968 Z-5.691
X298.882 Y-148.018 Z-5.64
X298.877 Y-148.055 Z-5.58
X298.874 Y-148.078 Z-5.513
X298.873 Y-148.086 Z-5.443
G0 Z5
X301.979 Y-131.783
G1 Z1 F25
Z-5.443
X301.98 Y-131.775 Z-5.513 F50
X301.983 Y-131.752 Z-5.58
X301.988 Y-131.715 Z-5.64
X301.995 Y-131.665 Z-5.691
X302.003 Y-131.605 Z-5.729
X302.012 Y-131.539 Z-5.752
X302.021 Y-131.469 Z-5.76
X302.063 Y-131.154
G3 X301.79 Y-130.797 I-0.315 J0.042
G1 X299.807 Y-130.535 F75
G3 X298.222 Y-131.749 I-0.186 J-1.4
G1 X297.696 Y-135.715
G3 X298.91 Y-137.3 I1.4 J-0.185
G1 X312.79 Y-139.139
G3 X314.375 Y-137.925 I0.185 J1.4
G1 X314.9 Y-133.96
G3 X313.686 Y-132.374 I-1.4 J0.186
G1 X301.79 Y-130.797
G3 X301.433 Y-131.07 I-0.042 J-0.315
G1 X301.392 Y-131.385
X301.382 Y-131.455 Z-5.752
X301.373 Y-131.522 Z-5.729
X301.366 Y-131.581 Z-5.691
X301.359 Y-131.631 Z-5.64
X301.354 Y-131.669 Z-5.58
X301.351 Y-131.692 Z-5.513
X301.35 Y-131.7 Z-5.443
G0 Z5
X262.327 Y-126.528
G1 Z1 F25
Z-5.443
X262.328 Y-126.52 Z-5.513 F50
X262.331 Y-126.496 Z-5.58
X262.336 Y-126.459 Z-5.64
X262.342 Y-126.409 Z-5.691
X262.35 Y-126.349 Z-5.729
X262.359 Y-126.283 Z-5.752
X262.368 Y-126.213 Z-5.76
X262.41 Y-125.898
G3 X262.137 Y-125.542 I-0.315 J0.042
G1 X260.154 Y-125.279 F75
G3 X258.568 Y-126.493 I-0.186 J-1.4
G1 X258.043 Y-130.459
G3 X259.258 Y-132.045 I1.4 J-0.186
G1 X273.136 Y-133.884
G3 X274.722 Y-132.67 I0.186 J1.4
G1 X275.247 Y-128.705
G3 X274.033 Y-127.119 I-1.4 J0.186
G1 X262.137 Y-125.542
G3 X261.781 Y-125.815 I-0.042 J-0.315
G1 X261.739 Y-126.129
X261.73 Y-126.199 Z-5.752
X261.721 Y-126.266 Z-5.729
X261.713 Y-126.326 Z-5.691
X261.706 Y-126.375 Z-5.64
X261.701 Y-126.413 Z-5.58
X261.698 Y-126.436 Z-5.513
X261.697 Y-126.444 Z-5.443
G0 Z5
X259.848 Y-142.915
G1 Z1 F25
Z-5.443
X259.849 Y-142.907 Z-5.513 F50
X259.853 Y-142.883 Z-5.58
X259.858 Y-142.846 Z-5.64
X259.864 Y-142.796 Z-5.691
X259.872 Y-142.736 Z-5.729
X259.881 Y-142.67 Z-5.752
X259.89 Y-142.6 Z-5.76
X259.932 Y-142.285
G3 X259.659 Y-141.929 I-0.315 J0.042
G1 X257.675 Y-141.666 F75
G3 X256.09 Y-142.88 I-0.185 J-1.4
G1 X255.565 Y-146.845
G3 X256.779 Y-148.432 I1.4 J-0.187
G1 X270.658 Y-150.271
G3 X272.243 Y-149.057 I0.185 J1.4
G1 X272.769 Y-145.091
G3 X271.555 Y-143.506 I-1.4 J0.185
G1 X259.659 Y-141.929
G3 X259.302 Y-142.202 I-0.042 J-0.315
G1 X259.261 Y-142.516
X259.251 Y-142.586 Z-5.752
X259.243 Y-142.653 Z-5.729
X259.235 Y-142.713 Z-5.691
X259.228 Y-142.763 Z-5.64
X259.223 Y-142.8 Z-5.58
X259.22 Y-142.823 Z-5.513
X259.219 Y-142.831 Z-5.443
G0 Z5
X170.295 Y-142.799
G1 Z1 F25
Z-5.443
G18 G2 X170.613 Z-5.76 I0.318 K0 F50
G1 X170.93
G17 G3 X171.247 Y-142.482 I0 J0.318
G1 Y-141.982 F75
G3 X170.835 Y-141.57 I-0.412 J0
G1 X164.835
G3 X164.423 Y-141.982 I0 J-0.412
G1 Y-142.982
G3 X164.835 Y-143.395 I0.413 J0
G1 X170.835
G3 X171.247 Y-142.982 I0 J0.413
G1 Y-142.482
G3 X170.93 Y-142.165 I-0.318 J0
G1 X170.613
G18 G3 X170.295 Z-5.443 I0 K0.318
G0 Z5
X167.46 Y-58.2
G1 Z1 F25
Z-5.443
G2 X167.777 Z-5.76 I0.317 K0 F50
G1 X168.095
G17 G3 X168.413 Y-57.882 I0 J0.318
G1 Y-57.662 F75
G3 X165.221 Y-54.47 I-3.192 J0
G1 X164.779
G3 X161.587 Y-57.662 I0 J-3.192
G1 Y-120.103
G3 X164.779 Y-123.295 I3.192 J0
G1 X165.221
G3 X168.413 Y-120.103 I0 J3.192
G1 Y-57.882
G3 X168.095 Y-57.565 I-0.318 J0
G1 X167.777
G18 G3 X167.46 Z-5.443 I0 K0.318
G0 Z5
X170.295 Y-35.6
G1 Z1 F25
Z-5.443
G2 X170.613 Z-5.76 I0.318 K0 F50
G1 X170.93
G17 G3 X171.247 Y-35.283 I0 J0.318
G1 Y-34.783 F75
G3 X170.835 Y-34.37 I-0.412 J0
G1 X164.835
G3 X164.423 Y-34.783 I0 J-0.413
G1 Y-35.783
G3 X164.835 Y-36.195 I0.413 J0
G1 X170.835
G3 X171.247 Y-35.783 I0 J0.412
G1 Y-35.283
G3 X170.93 Y-34.965 I-0.318 J0
G1 X170.613
G18 G3 X170.295 Z-5.443 I0 K0.318
G0 Z5
X140.295 Y-35.6
G1 Z1 F25
Z-5.443
G2 X140.613 Z-5.76 I0.318 K0 F50
G1 X140.93
G17 G3 X141.247 Y-35.283 I0 J0.318
G1 Y-34.783 F75
G3 X140.835 Y-34.37 I-0.412 J0
G1 X134.835
G3 X134.423 Y-34.783 I0 J-0.413
G1 Y-35.783
G3 X134.835 Y-36.195 I0.413 J0
G1 X140.835
G3 X141.247 Y-35.783 I0 J0.412
G1 Y-35.283
G3 X140.93 Y-34.965 I-0.318 J0
G1 X140.613
G18 G3 X140.295 Z-5.443 I0 K0.318
G0 Z5
X115.018 Y-35.243
G1 Z1 F25
Z-5.443
G19 G2 Y-35.56 Z-5.76 J-0.318 K0 F50
G1 Y-35.878
G17 G3 X115.335 Y-36.195 I0.317 J0
G1 X120.835 F75
G3 X121.247 Y-35.783 I0 J0.412
G1 Y-34.783
G3 X120.835 Y-34.37 I-0.412 J0
G1 X114.835
G3 X114.423 Y-34.783 I0 J-0.413
G1 Y-35.783
G3 X114.835 Y-36.195 I0.412 J0
G1 X115.335
G3 X115.653 Y-35.878 I0 J0.317
G1 Y-35.56
G19 G3 Y-35.243 Z-5.443 J0 K0.318
G0 Z5
X94.403 Y-48.19
G1 Z1 F25
Z-5.443
X94.408 Y-48.195 Z-5.513 F50
X94.425 Y-48.212 Z-5.58
X94.452 Y-48.239 Z-5.64
X94.487 Y-48.274 Z-5.691
X94.53 Y-48.317 Z-5.729
X94.577 Y-48.364 Z-5.752
X94.627 Y-48.414 Z-5.76
X94.852 Y-48.639
G17 G3 X95.301 Y-48.639 I0.224 J0.225
G1 X99.189 Y-44.75 F75
G3 X99.19 Y-44.166 I-0.291 J0.292
G1 X98.483 Y-43.459
G3 X97.899 Y-43.459 I-0.292 J-0.292
G1 X93.657 Y-47.702
G3 X93.657 Y-48.285 I0.292 J-0.292
G1 X94.364 Y-48.992
G3 X94.947 Y-48.992 I0.292 J0.292
G1 X95.301 Y-48.639
G3 X95.301 Y-48.19 I-0.225 J0.224
G1 X95.076 Y-47.965
X95.026 Y-47.915 Z-5.752
X94.979 Y-47.868 Z-5.729
X94.936 Y-47.825 Z-5.691
X94.901 Y-47.79 Z-5.64
X94.874 Y-47.763 Z-5.58
X94.857 Y-47.746 Z-5.513
X94.852 Y-47.741 Z-5.443
G0 Z5
X117.46 Y-62.2
G1 Z1 F25
Z-5.443
G18 G2 X117.777 Z-5.76 I0.317 K0 F50
G1 X118.095
G17 G3 X118.412 Y-61.882 I0 J0.318
G1 Y-61.662 F75
G3 X115.221 Y-58.47 I-3.192 J0
G1 X114.779
G3 X111.588 Y-61.662 I0 J-3.192
G1 Y-116.103
G3 X114.779 Y-119.295 I3.191 J0
G1 X115.221
G3 X118.412 Y-116.103 I0 J3.192
G1 Y-61.882
G3 X118.095 Y-61.565 I-0.317 J0
G1 X117.777
G18 G3 X117.46 Z-5.443 I0 K0.318
G0 Z5
X142.46 Y-118.2
G1 Z1 F25
Z-5.443
G2 X142.777 Z-5.76 I0.317 K0 F50
G1 X143.095
G17 G3 X143.413 Y-117.882 I0 J0.317
G1 Y-59.662 F75
G3 X140.221 Y-56.47 I-3.192 J0
G1 X139.779
G3 X136.587 Y-59.662 I0 J-3.192
G1 Y-118.103
G3 X139.779 Y-121.295 I3.192 J0
G1 X140.221
G3 X143.413 Y-118.103 I0 J3.192
G1 Y-117.882
G3 X143.095 Y-117.564 I-0.318 J0
G1 X142.777
G18 G3 X142.46 Z-5.443 I0 K0.318
G0 Z5
X140.295 Y-142.799
G1 Z1 F25
Z-5.443
G2 X140.613 Z-5.76 I0.318 K0 F50
G1 X140.93
G17 G3 X141.247 Y-142.482 I0 J0.318
G1 Y-141.982 F75
G3 X140.835 Y-141.57 I-0.412 J0
G1 X134.835
G3 X134.423 Y-141.982 I0 J-0.412
G1 Y-142.982
G3 X134.835 Y-143.395 I0.413 J0
G1 X140.835
G3 X141.247 Y-142.982 I0 J0.413
G1 Y-142.482
G3 X140.93 Y-142.165 I-0.318 J0
G1 X140.613
G18 G3 X140.295 Z-5.443 I0 K0.318
G0 Z5
X115.018 Y-142.442
G1 Z1 F25
Z-5.443
G19 G2 Y-142.76 Z-5.76 J-0.318 K0 F50
G1 Y-143.077
G17 G3 X115.335 Y-143.395 I0.317 J0
G1 X120.835 F75
G3 X121.247 Y-142.982 I0 J0.413
G1 Y-141.982
G3 X120.835 Y-141.57 I-0.412 J0
G1 X114.835
G3 X114.423 Y-141.982 I0 J-0.412
G1 Y-142.982
G3 X114.835 Y-143.395 I0.412 J0
G1 X115.335
G3 X115.653 Y-143.077 I0 J0.318
G1 Y-142.76
G19 G3 Y-142.442 Z-5.443 J0 K0.318
G0 Z5
X94.852 Y-130.024
G1 Z1 F25
Z-5.443
X94.857 Y-130.019 Z-5.513 F50
X94.874 Y-130.002 Z-5.58
X94.901 Y-129.975 Z-5.64
X94.936 Y-129.94 Z-5.691
X94.979 Y-129.897 Z-5.729
X95.026 Y-129.85 Z-5.752
X95.076 Y-129.8 Z-5.76
X95.301 Y-129.575
G17 G3 X95.301 Y-129.126 I-0.224 J0.225
G1 X94.947 Y-128.772 F75
G3 X94.364 Y-128.772 I-0.292 J-0.292
G1 X93.657 Y-129.48
G3 X93.657 Y-130.063 I0.292 J-0.292
G1 X97.899 Y-134.305
G3 X98.483 Y-134.306 I0.292 J0.291
G1 X99.189 Y-133.599
G3 X99.19 Y-133.016 I-0.291 J0.292
G1 X95.301 Y-129.126
G3 X94.852 Y-129.126 I-0.225 J-0.224
G1 X94.627 Y-129.351
X94.577 Y-129.401 Z-5.752
X94.53 Y-129.448 Z-5.729
X94.487 Y-129.491 Z-5.691
X94.452 Y-129.526 Z-5.64
X94.425 Y-129.553 Z-5.58
X94.408 Y-129.57 Z-5.513
X94.403 Y-129.575 Z-5.443
G0 Z5
X58.934 Y-114.841
G1 Z1 F25
Z-5.443
G19 G2 Y-115.159 Z-5.76 J-0.317 K0 F50
G1 Y-115.476
G17 G3 X59.252 Y-115.794 I0.318 J0
G1 X64.752 F75
G3 X65.164 Y-115.381 I0 J0.413
G1 Y-114.381
G3 X64.752 Y-113.968 I-0.412 J0
G1 X58.752
G3 X58.339 Y-114.381 I0 J-0.412
G1 Y-115.381
G3 X58.752 Y-115.794 I0.413 J0
G1 X59.252
G3 X59.569 Y-115.476 I0 J0.318
G1 Y-115.159
G19 G3 Y-114.841 Z-5.443 J0 K0.318
G0 Z5
X39.212 Y-115.199
G1 Z1 F25
Z-5.443
G18 G2 X39.529 Z-5.76 I0.318 K0 F50
G1 X39.847
G17 G3 X40.164 Y-114.881 I0 J0.318
G1 Y-114.381 F75
G3 X39.752 Y-113.968 I-0.412 J0
G1 X33.752
G3 X33.339 Y-114.381 I0 J-0.412
G1 Y-115.381
G3 X33.752 Y-115.794 I0.413 J0
G1 X39.752
G3 X40.164 Y-115.381 I0 J0.413
G1 Y-114.881
G3 X39.847 Y-114.563 I-0.318 J0
G1 X39.529
G18 G3 X39.212 Z-5.443 I0 K0.318
G0 Z5
X8.934 Y-114.841
G1 Z1 F25
Z-5.443
G19 G2 Y-115.159 Z-5.76 J-0.317 K0 F50
G1 Y-115.476
G17 G3 X9.252 Y-115.794 I0.318 J0
G1 X14.752 F75
G3 X15.164 Y-115.381 I0 J0.413
G1 Y-114.381
G3 X14.752 Y-113.968 I-0.412 J0
G1 X8.752
G3 X8.339 Y-114.381 I0 J-0.412
G1 Y-115.381
G3 X8.752 Y-115.794 I0.413 J0
G1 X9.252
G3 X9.569 Y-115.476 I0 J0.318
G1 Y-115.159
G19 G3 Y-114.841 Z-5.443 J0 K0.318
G0 Z5
X14.212 Y-63.201
G1 Z1 F25
Z-5.443
G18 G2 X14.529 Z-5.76 I0.317 K0 F50
G1 X14.847
G17 G3 X15.164 Y-62.884 I0 J0.318
G1 Y-62.384 F75
G3 X14.752 Y-61.971 I-0.412 J0
G1 X8.752
G3 X8.339 Y-62.384 I0 J-0.412
G1 Y-63.384
G3 X8.752 Y-63.796 I0.413 J0
G1 X14.752
G3 X15.164 Y-63.384 I0 J0.412
G1 Y-62.884
G3 X14.847 Y-62.566 I-0.318 J0
G1 X14.529
G18 G3 X14.212 Z-5.443 I0 K0.318
G0 Z5
X39.212 Y-63.201
G1 Z1 F25
Z-5.443
G2 X39.529 Z-5.76 I0.318 K0 F50
G1 X39.847
G17 G3 X40.164 Y-62.884 I0 J0.318
G1 Y-62.384 F75
G3 X39.752 Y-61.971 I-0.412 J0
G1 X33.752
G3 X33.339 Y-62.384 I0 J-0.412
G1 Y-63.384
G3 X33.752 Y-63.796 I0.413 J0
G1 X39.752
G3 X40.164 Y-63.384 I0 J0.412
G1 Y-62.884
G3 X39.847 Y-62.566 I-0.318 J0
G1 X39.529
G18 G3 X39.212 Z-5.443 I0 K0.318
G0 Z5
X64.212 Y-63.201
G1 Z1 F25
Z-5.443
G2 X64.529 Z-5.76 I0.317 K0 F50
G1 X64.847
G17 G3 X65.164 Y-62.884 I0 J0.318
G1 Y-62.384 F75
G3 X64.752 Y-61.971 I-0.412 J0
G1 X58.752
G3 X58.339 Y-62.384 I0 J-0.412
G1 Y-63.384
G3 X58.752 Y-63.796 I0.413 J0
G1 X64.752
G3 X65.164 Y-63.384 I0 J0.412
G1 Y-62.884
G3 X64.847 Y-62.566 I-0.317 J0
G1 X64.529
G18 G3 X64.212 Z-5.443 I0 K0.318
G0 Z15
G17
G28 G91 Z0
G90
G28 G91 X0 Y0
G90
M5
M30
