(rackinner fix_v3)
(T9 D=3.175 CR=0 - ZMIN=-6.26 - flat end mill)
G90 G94
G17
G21
G28 G91 Z0
G90

(2D Contour3 2)
T9
S18000 M3
G17 G90 G94
G54
G0 X120.295 Y-35.6
Z15
G0 Z5
G1 Z1 F16.7
Z-5.943
G18 G2 X120.613 Z-6.26 I0.318 K0 F50
G1 X120.93
G17 G3 X121.247 Y-35.283 I0 J0.318
G1 Y-34.783
G3 X120.835 Y-34.37 I-0.412 J0
G1 X114.835
G3 X114.423 Y-34.783 I0 J-0.413
G1 Y-35.783
G3 X114.835 Y-36.195 I0.412 J0
G1 X120.835
G3 X121.247 Y-35.783 I0 J0.412
G1 Y-35.283
G3 X120.93 Y-34.965 I-0.317 J0
G1 X120.613
G18 G3 X120.295 Z-5.943 I0 K0.318
G0 Z5
X94.403 Y-48.19
G1 Z1 F16.7
Z-5.943
X94.408 Y-48.195 Z-6.013 F50
X94.425 Y-48.212 Z-6.08
X94.452 Y-48.239 Z-6.14
X94.487 Y-48.274 Z-6.191
X94.53 Y-48.317 Z-6.229
X94.577 Y-48.364 Z-6.252
X94.627 Y-48.414 Z-6.26
X94.852 Y-48.639
G17 G3 X95.301 Y-48.639 I0.224 J0.225
G1 X99.189 Y-44.75
G3 X99.19 Y-44.166 I-0.291 J0.292
G1 X98.483 Y-43.459
G3 X97.899 Y-43.459 I-0.292 J-0.292
G1 X93.657 Y-47.702
G3 X93.657 Y-48.285 I0.292 J-0.292
G1 X94.364 Y-48.992
G3 X94.947 Y-48.992 I0.292 J0.292
G1 X95.301 Y-48.639
G3 X95.301 Y-48.19 I-0.225 J0.224
G1 X95.076 Y-47.965
X95.026 Y-47.915 Z-6.252
X94.979 Y-47.868 Z-6.229
X94.936 Y-47.825 Z-6.191
X94.901 Y-47.79 Z-6.14
X94.874 Y-47.763 Z-6.08
X94.857 Y-47.746 Z-6.013
X94.852 Y-47.741 Z-5.943
G0 Z5
X64.212 Y-63.201
G1 Z1 F16.7
Z-5.943
G18 G2 X64.529 Z-6.26 I0.317 K0 F50
G1 X64.847
G17 G3 X65.164 Y-62.884 I0 J0.318
G1 Y-62.384
G3 X64.752 Y-61.971 I-0.412 J0
G1 X58.752
G3 X58.339 Y-62.384 I0 J-0.412
G1 Y-63.384
G3 X58.752 Y-63.796 I0.413 J0
G1 X64.752
G3 X65.164 Y-63.384 I0 J0.412
G1 Y-62.884
G3 X64.847 Y-62.566 I-0.317 J0
G1 X64.529
G18 G3 X64.212 Z-5.943 I0 K0.318
G0 Z5
X33.934 Y-62.844
G1 Z1 F16.7
Z-5.943
G19 G2 Y-63.161 Z-6.26 J-0.318 K0 F50
G1 Y-63.479
G17 G3 X34.252 Y-63.796 I0.318 J0
G1 X39.752
G3 X40.164 Y-63.384 I0 J0.412
G1 Y-62.384
G3 X39.752 Y-61.971 I-0.412 J0
G1 X33.752
G3 X33.339 Y-62.384 I0 J-0.412
G1 Y-63.384
G3 X33.752 Y-63.796 I0.413 J0
G1 X34.252
G3 X34.569 Y-63.479 I0 J0.317
G1 Y-63.161
G19 G3 Y-62.844 Z-5.943 J0 K0.318
G0 Z5
X8.934
G1 Z1 F16.7
Z-5.943
G2 Y-63.161 Z-6.26 J-0.318 K0 F50
G1 Y-63.479
G17 G3 X9.252 Y-63.796 I0.318 J0
G1 X14.752
G3 X15.164 Y-63.384 I0 J0.412
G1 Y-62.384
G3 X14.752 Y-61.971 I-0.412 J0
G1 X8.752
G3 X8.339 Y-62.384 I0 J-0.412
G1 Y-63.384
G3 X8.752 Y-63.796 I0.413 J0
G1 X9.252
G3 X9.569 Y-63.479 I0 J0.317
G1 Y-63.161
G19 G3 Y-62.844 Z-5.943 J0 K0.318
G0 Z5
X422.357 Y-13.464
G1 Z1 F16.7
Z-5.943
X422.365 Z-6.013 F50
X422.389 Y-13.462 Z-6.08
X422.426 Y-13.46 Z-6.14
X422.476 Y-13.457 Z-6.191
X422.537 Y-13.453 Z-6.229
X422.604 Y-13.449 Z-6.252
X422.674 Y-13.445 Z-6.26
X422.991 Y-13.426
G17 G3 X423.289 Y-13.09 I-0.019 J0.317
X411.485 Y-13.797 I-5.902 J-0.354
X423.289 Y-13.09 I5.902 J0.354
X422.953 Y-12.792 I-0.317 J-0.019
G1 X422.636 Y-12.811
X422.566 Y-12.815 Z-6.252
X422.499 Y-12.819 Z-6.229
X422.438 Y-12.823 Z-6.191
X422.388 Y-12.826 Z-6.14
X422.351 Y-12.828 Z-6.08
X422.327 Y-12.83 Z-6.013
X422.319 Z-5.943
G0 Z5
X436.13 Y-50.274
G1 Z1 F16.7
Z-5.943
G18 G2 X436.448 Z-6.26 I0.318 K0 F50
G1 X436.765
G17 G3 X437.082 Y-49.956 I0 J0.318
X425.258 Y-49.956 I-5.912 J0
X437.082 Y-49.956 I5.912 J0
X436.765 Y-49.639 I-0.317 J0
G1 X436.448
G18 G3 X436.13 Z-5.943 I0 K0.318
G0 Z5
X438.189 Y-80.2
G1 Z1 F16.7
Z-5.943
G2 X438.507 Z-6.26 I0.318 K0 F50
G1 X438.824
G17 G3 X439.142 Y-79.882 I0 J0.317
G1 Y-78.882
G3 X436.729 Y-76.47 I-2.413 J0
G1 X434.729
G3 X432.316 Y-78.882 I0 J-2.412
G1 Y-98.882
G3 X434.729 Y-101.295 I2.412 J0
G1 X436.729
G3 X439.142 Y-98.882 I0 J2.412
G1 Y-79.882
G3 X438.824 Y-79.565 I-0.318 J0
G1 X438.507
G18 G3 X438.189 Z-5.943 I0 K0.318
G0 Z5
X436.13 Y-128.126
G1 Z1 F16.7
Z-5.943
G2 X436.448 Z-6.26 I0.318 K0 F50
G1 X436.765
G17 G3 X437.082 Y-127.809 I0 J0.317
X425.258 Y-127.809 I-5.912 J0
X437.082 Y-127.809 I5.912 J0
X436.765 Y-127.492 I-0.317 J0
G1 X436.448
G18 G3 X436.13 Z-5.943 I0 K0.318
G0 Z15
G17
G28 G91 Z0
G90
G28 G91 X0 Y0
G90
M5
M30
