(rackAdapter)
(T1 D=3.175 CR=0 - ZMIN=-13.7 - flat end mill)
G90 G94
G17
G21
G28 G91 Z0
G90

(2D Contour2)
T1
S18000 M3
G17 G90 G94
G54
M8
G0 X-2.477 Y-3.276
Z15
G0 Z5
G1 Z1 F8.3
Z-13.383
X-2.469 Z-13.453 F25
X-2.446 Y-3.273 Z-13.52
X-2.409 Y-3.269 Z-13.58
X-2.359 Y-3.263 Z-13.631
X-2.299 Y-3.256 Z-13.669
X-2.232 Y-3.248 Z-13.692
X-2.162 Y-3.24 Z-13.7
X-1.847 Y-3.204
G3 X-1.567 Y-2.852 I-0.036 J0.315
G2 X-1.587 Y-2.5 I3.067 J0.352
G1 Y-1.5
G2 X1.5 Y1.587 I3.087 J0
G1 X27
G2 X29.587 Y-1 I0 J-2.587
G1 Y-24.753
G2 X27 Y-27.34 I-2.587 J0
G1 X22
G2 X19.413 Y-24.753 I0 J2.587
G1 Y-14.8
G3 X19 Y-14.387 I-0.413 J0
G1 X1.5
G2 X-1.587 Y-11.3 I0 J3.087
G1 Y-10.3
G2 X1.5 Y-7.213 I3.087 J0
G1 X21
G3 X21.413 Y-6.8 I0 J0.412
G1 Y-6
G3 X21 Y-5.588 I-0.413 J0
G1 X1.5
G2 X-1.567 Y-2.852 I0 J3.088
G3 X-1.919 Y-2.573 I-0.315 J-0.036
G1 X-2.234 Y-2.609
X-2.305 Y-2.617 Z-13.692
X-2.371 Y-2.625 Z-13.669
X-2.431 Y-2.632 Z-13.631
X-2.481 Y-2.638 Z-13.58
X-2.519 Y-2.642 Z-13.52
X-2.542 Y-2.645 Z-13.453
X-2.55 Y-2.646 Z-13.383
G0 Z15
M9
G28 G91 Z0
G90
G28 G91 X0 Y0
G90
M5
M30
