(rackInner_ fix)
(T9 D=3.175 CR=0 - ZMIN=-6.56 - flat end mill)
G90 G94
G17
G21
G28 G91 Z0
G90

(2D Contour3 2)
T9
S18000 M3
G17 G90 G94
G54
G0 X436.13 Y-50.274
Z15
G0 Z5
G1 Z1 F16.7
Z-6.243
G18 G2 X436.448 Z-6.56 I0.318 K0 F50
G1 X436.765
G17 G3 X437.082 Y-49.956 I0 J0.318
X425.258 Y-49.956 I-5.912 J0
X437.082 Y-49.956 I5.912 J0
X436.765 Y-49.639 I-0.317 J0
G1 X436.448
G18 G3 X436.13 Z-6.243 I0 K0.318
G0 Z5
X438.189 Y-80.2
G1 Z1 F16.7
Z-6.243
G2 X438.507 Z-6.56 I0.318 K0 F50
G1 X438.824
G17 G3 X439.142 Y-79.882 I0 J0.317
G1 Y-78.882
G3 X436.729 Y-76.47 I-2.413 J0
G1 X434.729
G3 X432.316 Y-78.882 I0 J-2.412
G1 Y-98.882
G3 X434.729 Y-101.295 I2.412 J0
G1 X436.729
G3 X439.142 Y-98.882 I0 J2.412
G1 Y-79.882
G3 X438.824 Y-79.565 I-0.318 J0
G1 X438.507
G18 G3 X438.189 Z-6.243 I0 K0.318
G0 Z5
X422.347 Y-13.761
G1 Z1 F16.7
Z-6.243
G2 X422.664 Z-6.56 I0.318 K0 F50
G1 X422.982
G17 G3 X423.299 Y-13.444 I0 J0.318
X411.474 Y-13.444 I-5.913 J0
X423.299 Y-13.444 I5.913 J0
X422.982 Y-13.126 I-0.318 J0
G1 X422.664
G18 G3 X422.347 Z-6.243 I0 K0.318
G0 Z15
G17
G28 G91 Z0
G90
G28 G91 X0 Y0
G90
M5
M30
