(1001)
(T1  D=6.35 CR=0 - ZMIN=-24.5 - flat end mill)
G90 G94
G17
G21
G28 G91 Z0
G90

(2D Contour5)
T1
S18000 M3
G54
M8
G0 X34.195 Y-30.205
Z15
Z5
G1 Z3.135 F2286
X34.193 Y-30.213 Z3.036 F1000
X34.187 Y-30.235 Z2.939
X34.178 Y-30.272 Z2.847
X34.165 Y-30.323 Z2.762
X34.149 Y-30.385 Z2.686
X34.13 Y-30.459 Z2.621
X34.109 Y-30.541 Z2.569
X34.087 Y-30.63 Z2.531
X34.063 Y-30.724 Z2.508
X34.039 Y-30.821 Z2.5
X33.883 Y-31.436
G3 X34.342 Y-32.208 I0.616 J-0.156
X35.282 Y-32.325 Z2.467 I0.94 J3.708 F2286
G1 X64.647 Z1.441
G2 X70.428 Y-34.719 Z1.217 I0 J-8.175
G1 X87.499 Y-51.79 Z0.374
G2 X89.893 Y-57.571 Z0.15 I-5.781 J-5.781
G1 Y-90.5 Z-1
Y-123.429 F1000
G2 X87.499 Y-129.209 I-8.175 J0
G1 X70.428 Y-146.281
G2 X64.647 Y-148.675 I-5.78 J5.781
G1 X35.282
G3 X31.457 Y-152.5 I0 J-3.825
G1 Y-164.5
G2 X27.282 Y-168.675 I-4.175 J0
G1 X18.782
G2 X16.537 Y-167.745 I0 J3.175
G1 X16.037 Y-167.245
G2 X15.107 Y-165 I2.245 J2.245
G1 Y-135.915
G2 X19.174 Y-131.741 I4.175 J0
G3 X19.174 Y-49.259 I-1.063 J41.241
G2 X15.107 Y-45.085 I0.107 J4.174
G1 Y-16
G2 X16.037 Y-13.755 I3.175 J0
G1 X16.537 Y-13.255
G2 X18.782 Y-12.325 I2.245 J-2.245
G1 X27.282
G2 X31.457 Y-16.5 I0 J-4.175
G1 Y-28.5
G3 X35.282 Y-32.325 I3.825 J0
G1 X64.647
G2 X70.428 Y-34.719 I0 J-8.175
G1 X87.499 Y-51.79
G2 X89.893 Y-57.571 I-5.781 J-5.781
G1 Y-90.5
Y-119.136 Z-2 F2286
Y-123.429 F1000
G2 X87.499 Y-129.209 I-8.175 J0
G1 X70.428 Y-146.281
G2 X64.647 Y-148.675 I-5.78 J5.781
G1 X35.282
G3 X31.457 Y-152.5 I0 J-3.825
G1 Y-164.5
G2 X27.282 Y-168.675 I-4.175 J0
G1 X18.782
G2 X16.537 Y-167.745 I0 J3.175
G1 X16.037 Y-167.245
G2 X15.107 Y-165 I2.245 J2.245
G1 Y-135.915
G2 X19.174 Y-131.741 I4.175 J0
G3 X19.174 Y-49.259 I-1.063 J41.241
G2 X15.107 Y-45.085 I0.107 J4.174
G1 Y-16
G2 X16.037 Y-13.755 I3.175 J0
G1 X16.537 Y-13.255
G2 X18.782 Y-12.325 I2.245 J-2.245
G1 X27.282
G2 X31.457 Y-16.5 I0 J-4.175
G1 Y-28.5
G3 X35.282 Y-32.325 I3.825 J0
G1 X64.647
G2 X70.428 Y-34.719 I0 J-8.175
G1 X87.499 Y-51.79
G2 X89.893 Y-57.571 I-5.781 J-5.781
G1 Y-90.5
Y-119.136
Y-123.429 Z-2.15 F2286
G2 X87.499 Y-129.209 Z-2.374 I-8.175 J0
G1 X74.825 Y-141.883 Z-3
X70.428 Y-146.281 F1000
G2 X64.647 Y-148.675 I-5.78 J5.781
G1 X35.282
G3 X31.457 Y-152.5 I0 J-3.825
G1 Y-164.5
G2 X27.282 Y-168.675 I-4.175 J0
G1 X18.782
G2 X16.537 Y-167.745 I0 J3.175
G1 X16.037 Y-167.245
G2 X15.107 Y-165 I2.245 J2.245
G1 Y-135.915
G2 X19.174 Y-131.741 I4.175 J0
G3 X19.174 Y-49.259 I-1.063 J41.241
G2 X15.107 Y-45.085 I0.107 J4.174
G1 Y-16
G2 X16.037 Y-13.755 I3.175 J0
G1 X16.537 Y-13.255
G2 X18.782 Y-12.325 I2.245 J-2.245
G1 X27.282
G2 X31.457 Y-16.5 I0 J-4.175
G1 Y-28.5
G3 X35.282 Y-32.325 I3.825 J0
G1 X64.647
G2 X70.428 Y-34.719 I0 J-8.175
G1 X87.499 Y-51.79
G2 X89.893 Y-57.571 I-5.781 J-5.781
G1 Y-119.136
Y-123.429
G2 X87.499 Y-129.209 I-8.175 J0
G1 X74.825 Y-141.883
X70.428 Y-146.281 Z-3.217 F2286
G2 X64.647 Y-148.675 Z-3.441 I-5.78 J5.781
G1 X48.651 Z-4
X35.282 F1000
G3 X31.457 Y-152.5 I0 J-3.825
G1 Y-164.5
G2 X27.282 Y-168.675 I-4.175 J0
G1 X18.782
G2 X16.537 Y-167.745 I0 J3.175
G1 X16.037 Y-167.245
G2 X15.107 Y-165 I2.245 J2.245
G1 Y-135.915
G2 X19.174 Y-131.741 I4.175 J0
G3 X19.174 Y-49.259 I-1.063 J41.241
G2 X15.107 Y-45.085 I0.107 J4.174
G1 Y-16
G2 X16.037 Y-13.755 I3.175 J0
G1 X16.537 Y-13.255
G2 X18.782 Y-12.325 I2.245 J-2.245
G1 X27.282
G2 X31.457 Y-16.5 I0 J-4.175
G1 Y-28.5
G3 X35.282 Y-32.325 I3.825 J0
G1 X64.647
G2 X70.428 Y-34.719 I0 J-8.175
G1 X87.499 Y-51.79
G2 X89.893 Y-57.571 I-5.781 J-5.781
G1 Y-123.429
G2 X87.499 Y-129.209 I-8.175 J0
G1 X74.825 Y-141.883
X70.428 Y-146.281
G2 X64.647 Y-148.675 I-5.78 J5.781
G1 X48.651
X35.282 Z-4.467 F2286
G3 X31.457 Y-152.5 Z-4.677 I0 J-3.825
G1 Y-161.759 Z-5
Y-164.5 F1000
G2 X27.282 Y-168.675 I-4.175 J0
G1 X18.782
G2 X16.537 Y-167.745 I0 J3.175
G1 X16.037 Y-167.245
G2 X15.107 Y-165 I2.245 J2.245
G1 Y-135.915
G2 X19.174 Y-131.741 I4.175 J0
G3 X19.174 Y-49.259 I-1.063 J41.241
G2 X15.107 Y-45.085 I0.107 J4.174
G1 Y-16
G2 X16.037 Y-13.755 I3.175 J0
G1 X16.537 Y-13.255
G2 X18.782 Y-12.325 I2.245 J-2.245
G1 X27.282
G2 X31.457 Y-16.5 I0 J-4.175
G1 Y-28.5
G3 X35.282 Y-32.325 I3.825 J0
G1 X64.647
G2 X70.428 Y-34.719 I0 J-8.175
G1 X87.499 Y-51.79
G2 X89.893 Y-57.571 I-5.781 J-5.781
G1 Y-123.429
G2 X87.499 Y-129.209 I-8.175 J0
G1 X70.428 Y-146.281
G2 X64.647 Y-148.675 I-5.78 J5.781
G1 X48.651
X35.282
G3 X31.457 Y-152.5 I0 J-3.825
G1 Y-161.759
Y-164.5 Z-5.096 F2286
G2 X27.282 Y-168.675 Z-5.325 I-4.175 J0
G1 X18.782 Z-5.622
G2 X16.537 Y-167.745 Z-5.709 I0 J3.175
G1 X16.037 Y-167.245 Z-5.733
G2 X15.107 Y-165 Z-5.82 I2.245 J2.245
G1 Y-159.857 Z-6
Y-135.915 F1000
G2 X19.174 Y-131.741 I4.175 J0
G3 X19.174 Y-49.259 I-1.063 J41.241
G2 X15.107 Y-45.085 I0.107 J4.174
G1 Y-16
G2 X16.037 Y-13.755 I3.175 J0
G1 X16.537 Y-13.255
G2 X18.782 Y-12.325 I2.245 J-2.245
G1 X27.282
G2 X31.457 Y-16.5 I0 J-4.175
G1 Y-28.5
G3 X35.282 Y-32.325 I3.825 J0
G1 X64.647
G2 X70.428 Y-34.719 I0 J-8.175
G1 X87.499 Y-51.79
G2 X89.893 Y-57.571 I-5.781 J-5.781
G1 Y-123.429
G2 X87.499 Y-129.209 I-8.175 J0
G1 X70.428 Y-146.281
G2 X64.647 Y-148.675 I-5.78 J5.781
G1 X35.282
G3 X31.457 Y-152.5 I0 J-3.825
G1 Y-161.759
Y-164.5
G2 X27.282 Y-168.675 I-4.175 J0
G1 X18.782
G2 X16.537 Y-167.745 I0 J3.175
G1 X16.037 Y-167.245
G2 X15.107 Y-165 I2.245 J2.245
G1 Y-159.857
Y-135.915 Z-6.836 F2286
G2 X17.479 Y-132.149 Z-7 I4.175 J0
X19.174 Y-131.741 I1.803 J-3.766 F1000
G3 X19.174 Y-49.259 I-1.063 J41.241
G2 X15.107 Y-45.085 I0.107 J4.174
G1 Y-16
G2 X16.037 Y-13.755 I3.175 J0
G1 X16.537 Y-13.255
G2 X18.782 Y-12.325 I2.245 J-2.245
G1 X27.282
G2 X31.457 Y-16.5 I0 J-4.175
G1 Y-28.5
G3 X35.282 Y-32.325 I3.825 J0
G1 X64.647
G2 X70.428 Y-34.719 I0 J-8.175
G1 X87.499 Y-51.79
G2 X89.893 Y-57.571 I-5.781 J-5.781
G1 Y-123.429
G2 X87.499 Y-129.209 I-8.175 J0
G1 X70.428 Y-146.281
G2 X64.647 Y-148.675 I-5.78 J5.781
G1 X35.282
G3 X31.457 Y-152.5 I0 J-3.825
G1 Y-164.5
G2 X27.282 Y-168.675 I-4.175 J0
G1 X18.782
G2 X16.537 Y-167.745 I0 J3.175
G1 X16.037 Y-167.245
G2 X15.107 Y-165 I2.245 J2.245
G1 Y-135.915
G2 X17.479 Y-132.149 I4.175 J0
X19.174 Y-131.741 Z-7.061 I1.803 J-3.766 F2286
G3 X43.966 Y-122.648 Z-8 I-1.063 J41.241
X19.174 Y-49.259 I-25.855 J32.148 F1000
G2 X15.107 Y-45.085 I0.107 J4.174
G1 Y-16
G2 X16.037 Y-13.755 I3.175 J0
G1 X16.537 Y-13.255
G2 X18.782 Y-12.325 I2.245 J-2.245
G1 X27.282
G2 X31.457 Y-16.5 I0 J-4.175
G1 Y-28.5
G3 X35.282 Y-32.325 I3.825 J0
G1 X64.647
G2 X70.428 Y-34.719 I0 J-8.175
G1 X87.499 Y-51.79
G2 X89.893 Y-57.571 I-5.781 J-5.781
G1 Y-123.429
G2 X87.499 Y-129.209 I-8.175 J0
G1 X70.428 Y-146.281
G2 X64.647 Y-148.675 I-5.78 J5.781
G1 X35.282
G3 X31.457 Y-152.5 I0 J-3.825
G1 Y-164.5
G2 X27.282 Y-168.675 I-4.175 J0
G1 X18.782
G2 X16.537 Y-167.745 I0 J3.175
G1 X16.037 Y-167.245
G2 X15.107 Y-165 I2.245 J2.245
G1 Y-135.915
G2 X19.174 Y-131.741 I4.175 J0
G3 X43.966 Y-122.648 I-1.063 J41.241
X58.549 Y-98.669 Z-9 I-25.855 J32.148 F2286
X19.174 Y-49.259 I-40.438 J8.169 F1000
G2 X15.107 Y-45.085 I0.107 J4.174
G1 Y-16
G2 X16.037 Y-13.755 I3.175 J0
G1 X16.537 Y-13.255
G2 X18.782 Y-12.325 I2.245 J-2.245
G1 X27.282
G2 X31.457 Y-16.5 I0 J-4.175
G1 Y-28.5
G3 X35.282 Y-32.325 I3.825 J0
G1 X64.647
G2 X70.428 Y-34.719 I0 J-8.175
G1 X87.499 Y-51.79
G2 X89.893 Y-57.571 I-5.781 J-5.781
G1 Y-123.429
G2 X87.499 Y-129.209 I-8.175 J0
G1 X70.428 Y-146.281
G2 X64.647 Y-148.675 I-5.78 J5.781
G1 X35.282
G3 X31.457 Y-152.5 I0 J-3.825
G1 Y-164.5
G2 X27.282 Y-168.675 I-4.175 J0
G1 X18.782
G2 X16.537 Y-167.745 I0 J3.175
G1 X16.037 Y-167.245
G2 X15.107 Y-165 I2.245 J2.245
G1 Y-135.915
G2 X19.174 Y-131.741 I4.175 J0
G3 X58.549 Y-98.669 I-1.063 J41.241
X54.419 Y-70.91 Z-10 I-40.438 J8.169 F2286
X19.174 Y-49.259 I-36.307 J-19.59 F1000
G2 X15.107 Y-45.085 I0.107 J4.174
G1 Y-16
G2 X16.037 Y-13.755 I3.175 J0
G1 X16.537 Y-13.255
G2 X18.782 Y-12.325 I2.245 J-2.245
G1 X27.282
G2 X31.457 Y-16.5 I0 J-4.175
G1 Y-28.5
G3 X35.282 Y-32.325 I3.825 J0
G1 X64.647
G2 X70.428 Y-34.719 I0 J-8.175
G1 X87.499 Y-51.79
G2 X89.893 Y-57.571 I-5.781 J-5.781
G1 Y-123.429
G2 X87.499 Y-129.209 I-8.175 J0
G1 X70.428 Y-146.281
G2 X64.647 Y-148.675 I-5.78 J5.781
G1 X35.282
G3 X31.457 Y-152.5 I0 J-3.825
G1 Y-164.5
G2 X27.282 Y-168.675 I-4.175 J0
G1 X18.782
G2 X16.537 Y-167.745 I0 J3.175
G1 X16.037 Y-167.245
G2 X15.107 Y-165 I2.245 J2.245
G1 Y-135.915
G2 X19.174 Y-131.741 I4.175 J0
G3 X54.419 Y-70.91 I-1.063 J41.241
X33.486 Y-52.217 Z-11 I-36.307 J-19.59 F2286
X19.174 Y-49.259 I-15.374 J-38.283 F1000
G2 X15.107 Y-45.085 I0.107 J4.174
G1 Y-16
G2 X16.037 Y-13.755 I3.175 J0
G1 X16.537 Y-13.255
G2 X18.782 Y-12.325 I2.245 J-2.245
G1 X27.282
G2 X31.457 Y-16.5 I0 J-4.175
G1 Y-28.5
G3 X35.282 Y-32.325 I3.825 J0
G1 X64.647
G2 X70.428 Y-34.719 I0 J-8.175
G1 X87.499 Y-51.79
G2 X89.893 Y-57.571 I-5.781 J-5.781
G1 Y-123.429
G2 X87.499 Y-129.209 I-8.175 J0
G1 X70.428 Y-146.281
G2 X64.647 Y-148.675 I-5.78 J5.781
G1 X35.282
G3 X31.457 Y-152.5 I0 J-3.825
G1 Y-164.5
G2 X27.282 Y-168.675 I-4.175 J0
G1 X18.782
G2 X16.537 Y-167.745 I0 J3.175
G1 X16.037 Y-167.245
G2 X15.107 Y-165 I2.245 J2.245
G1 Y-135.915
G2 X19.174 Y-131.741 I4.175 J0
G3 X33.486 Y-52.217 I-1.063 J41.241
X19.174 Y-49.259 Z-11.513 I-15.374 J-38.283 F2286
G2 X15.107 Y-45.085 Z-11.738 I0.107 J4.174
G1 Y-37.591 Z-12
Y-16 F1000
G2 X16.037 Y-13.755 I3.175 J0
G1 X16.537 Y-13.255
G2 X18.782 Y-12.325 I2.245 J-2.245
G1 X27.282
G2 X31.457 Y-16.5 I0 J-4.175
G1 Y-28.5
G3 X35.282 Y-32.325 I3.825 J0
G1 X64.647
G2 X70.428 Y-34.719 I0 J-8.175
G1 X87.499 Y-51.79
G2 X89.893 Y-57.571 I-5.781 J-5.781
G1 Y-123.429
G2 X87.499 Y-129.209 I-8.175 J0
G1 X70.428 Y-146.281
G2 X64.647 Y-148.675 I-5.78 J5.781
G1 X35.282
G3 X31.457 Y-152.5 I0 J-3.825
G1 Y-164.5
G2 X27.282 Y-168.675 I-4.175 J0
G1 X18.782
G2 X16.537 Y-167.745 I0 J3.175
G1 X16.037 Y-167.245
G2 X15.107 Y-165 I2.245 J2.245
G1 Y-135.915
G2 X19.174 Y-131.741 I4.175 J0
G3 X19.174 Y-49.259 I-1.063 J41.241
G2 X15.107 Y-45.085 I0.107 J4.174
G1 Y-37.591
Y-16 Z-12.754 F2286
G2 X16.037 Y-13.755 Z-12.841 I3.175 J0
G1 X16.537 Y-13.255 Z-12.866
G2 X18.782 Y-12.325 Z-12.953 I2.245 J-2.245
G1 X20.133 Z-13
X27.282 F1000
G2 X31.457 Y-16.5 I0 J-4.175
G1 Y-28.5
G3 X35.282 Y-32.325 I3.825 J0
G1 X64.647
G2 X70.428 Y-34.719 I0 J-8.175
G1 X87.499 Y-51.79
G2 X89.893 Y-57.571 I-5.781 J-5.781
G1 Y-123.429
G2 X87.499 Y-129.209 I-8.175 J0
G1 X70.428 Y-146.281
G2 X64.647 Y-148.675 I-5.78 J5.781
G1 X35.282
G3 X31.457 Y-152.5 I0 J-3.825
G1 Y-164.5
G2 X27.282 Y-168.675 I-4.175 J0
G1 X18.782
G2 X16.537 Y-167.745 I0 J3.175
G1 X16.037 Y-167.245
G2 X15.107 Y-165 I2.245 J2.245
G1 Y-135.915
G2 X19.174 Y-131.741 I4.175 J0
G3 X19.174 Y-49.259 I-1.063 J41.241
G2 X15.107 Y-45.085 I0.107 J4.174
G1 Y-16
G2 X16.037 Y-13.755 I3.175 J0
G1 X16.537 Y-13.255
G2 X18.782 Y-12.325 I2.245 J-2.245
G1 X20.133
X27.282 Z-13.25 F2286
G2 X31.457 Y-16.5 Z-13.479 I0 J-4.175
G1 Y-28.5 Z-13.898
G3 X32.525 Y-31.151 Z-14 I3.825 J0
X35.282 Y-32.325 I2.757 J2.651 F1000
G1 X64.647
G2 X70.428 Y-34.719 I0 J-8.175
G1 X87.499 Y-51.79
G2 X89.893 Y-57.571 I-5.781 J-5.781
G1 Y-123.429
G2 X87.499 Y-129.209 I-8.175 J0
G1 X70.428 Y-146.281
G2 X64.647 Y-148.675 I-5.78 J5.781
G1 X35.282
G3 X31.457 Y-152.5 I0 J-3.825
G1 Y-164.5
G2 X27.282 Y-168.675 I-4.175 J0
G1 X18.782
G2 X16.537 Y-167.745 I0 J3.175
G1 X16.037 Y-167.245
G2 X15.107 Y-165 I2.245 J2.245
G1 Y-135.915
G2 X19.174 Y-131.741 I4.175 J0
G3 X19.174 Y-49.259 I-1.063 J41.241
G2 X15.107 Y-45.085 I0.107 J4.174
G1 Y-16
G2 X16.037 Y-13.755 I3.175 J0
G1 X16.537 Y-13.255
G2 X18.782 Y-12.325 I2.245 J-2.245
G1 X27.282
G2 X31.457 Y-16.5 I0 J-4.175
G1 Y-28.5
G3 X32.525 Y-31.151 I3.825 J0
X35.282 Y-32.325 Z-14.108 I2.757 J2.651 F2286
G1 X60.839 Z-15
X64.647 F1000
G2 X70.428 Y-34.719 I0 J-8.175
G1 X87.499 Y-51.79
G2 X89.893 Y-57.571 I-5.781 J-5.781
G1 Y-123.429
G2 X87.499 Y-129.209 I-8.175 J0
G1 X70.428 Y-146.281
G2 X64.647 Y-148.675 I-5.78 J5.781
G1 X35.282
G3 X31.457 Y-152.5 I0 J-3.825
G1 Y-164.5
G2 X27.282 Y-168.675 I-4.175 J0
G1 X18.782
G2 X16.537 Y-167.745 I0 J3.175
G1 X16.037 Y-167.245
G2 X15.107 Y-165 I2.245 J2.245
G1 Y-135.915
G2 X19.174 Y-131.741 I4.175 J0
G3 X19.174 Y-49.259 I-1.063 J41.241
G2 X15.107 Y-45.085 I0.107 J4.174
G1 Y-16
G2 X16.037 Y-13.755 I3.175 J0
G1 X16.537 Y-13.255
G2 X18.782 Y-12.325 I2.245 J-2.245
G1 X27.282
G2 X31.457 Y-16.5 I0 J-4.175
G1 Y-28.5
G3 X35.282 Y-32.325 I3.825 J0
G1 X60.839
X64.647 Z-15.133 F2286
G2 X70.428 Y-34.719 Z-15.357 I0 J-8.175
G1 X83.444 Y-47.736 Z-16
X87.499 Y-51.79 F1000
G2 X89.893 Y-57.571 I-5.781 J-5.781
G1 Y-123.429
G2 X87.499 Y-129.209 I-8.175 J0
G1 X70.428 Y-146.281
G2 X64.647 Y-148.675 I-5.78 J5.781
G1 X35.282
G3 X31.457 Y-152.5 I0 J-3.825
G1 Y-164.5
G2 X27.282 Y-168.675 I-4.175 J0
G1 X18.782
G2 X16.537 Y-167.745 I0 J3.175
G1 X16.037 Y-167.245
G2 X15.107 Y-165 I2.245 J2.245
G1 Y-135.915
G2 X19.174 Y-131.741 I4.175 J0
G3 X19.174 Y-49.259 I-1.063 J41.241
G2 X15.107 Y-45.085 I0.107 J4.174
G1 Y-16
G2 X16.037 Y-13.755 I3.175 J0
G1 X16.537 Y-13.255
G2 X18.782 Y-12.325 I2.245 J-2.245
G1 X27.282
G2 X31.457 Y-16.5 I0 J-4.175
G1 Y-28.5
G3 X35.282 Y-32.325 I3.825 J0
G1 X60.839
X64.647
G2 X70.428 Y-34.719 I0 J-8.175
G1 X83.444 Y-47.736
X87.499 Y-51.79 Z-16.2 F2286
G2 X89.893 Y-57.571 Z-16.424 I-5.781 J-5.781
G1 Y-74.052 Z-17
Y-123.429 F1000
G2 X87.499 Y-129.209 I-8.175 J0
G1 X70.428 Y-146.281
G2 X64.647 Y-148.675 I-5.78 J5.781
G1 X35.282
G3 X31.457 Y-152.5 I0 J-3.825
G1 Y-164.5
G2 X27.282 Y-168.675 I-4.175 J0
G1 X18.782
G2 X16.537 Y-167.745 I0 J3.175
G1 X16.037 Y-167.245
G2 X15.107 Y-165 I2.245 J2.245
G1 Y-135.915
G2 X19.174 Y-131.741 I4.175 J0
G3 X19.174 Y-49.259 I-1.063 J41.241
G2 X15.107 Y-45.085 I0.107 J4.174
G1 Y-16
G2 X16.037 Y-13.755 I3.175 J0
G1 X16.537 Y-13.255
G2 X18.782 Y-12.325 I2.245 J-2.245
G1 X27.282
G2 X31.457 Y-16.5 I0 J-4.175
G1 Y-28.5
G3 X35.282 Y-32.325 I3.825 J0
G1 X64.647
G2 X70.428 Y-34.719 I0 J-8.175
G1 X83.444 Y-47.736
X87.499 Y-51.79
G2 X89.893 Y-57.571 I-5.781 J-5.781
G1 Y-74.052
Y-102.689 Z-18 F2286
Y-123.429 F1000
G2 X87.499 Y-129.209 I-8.175 J0
G1 X70.428 Y-146.281
G2 X64.647 Y-148.675 I-5.78 J5.781
G1 X35.282
G3 X31.457 Y-152.5 I0 J-3.825
G1 Y-164.5
G2 X27.282 Y-168.675 I-4.175 J0
G1 X18.782
G2 X16.537 Y-167.745 I0 J3.175
G1 X16.037 Y-167.245
G2 X15.107 Y-165 I2.245 J2.245
G1 Y-135.915
G2 X19.174 Y-131.741 I4.175 J0
G3 X19.174 Y-49.259 I-1.063 J41.241
G2 X15.107 Y-45.085 I0.107 J4.174
G1 Y-16
G2 X16.037 Y-13.755 I3.175 J0
G1 X16.537 Y-13.255
G2 X18.782 Y-12.325 I2.245 J-2.245
G1 X27.282
G2 X31.457 Y-16.5 I0 J-4.175
G1 Y-28.5
G3 X35.282 Y-32.325 I3.825 J0
G1 X64.647
G2 X70.428 Y-34.719 I0 J-8.175
G1 X87.499 Y-51.79
G2 X89.893 Y-57.571 I-5.781 J-5.781
G1 Y-102.689
Y-123.429 Z-18.724 F2286
G2 X87.499 Y-129.209 Z-18.948 I-8.175 J0
G1 X86.455 Y-130.253 Z-19
X70.428 Y-146.281 F1000
G2 X64.647 Y-148.675 I-5.78 J5.781
G1 X35.282
G3 X31.457 Y-152.5 I0 J-3.825
G1 Y-164.5
G2 X27.282 Y-168.675 I-4.175 J0
G1 X18.782
G2 X16.537 Y-167.745 I0 J3.175
G1 X16.037 Y-167.245
G2 X15.107 Y-165 I2.245 J2.245
G1 Y-135.915
G2 X19.174 Y-131.741 I4.175 J0
G3 X19.174 Y-49.259 I-1.063 J41.241
G2 X15.107 Y-45.085 I0.107 J4.174
G1 Y-16
G2 X16.037 Y-13.755 I3.175 J0
G1 X16.537 Y-13.255
G2 X18.782 Y-12.325 I2.245 J-2.245
G1 X27.282
G2 X31.457 Y-16.5 I0 J-4.175
G1 Y-28.5
G3 X35.282 Y-32.325 I3.825 J0
G1 X64.647
G2 X70.428 Y-34.719 I0 J-8.175
G1 X87.499 Y-51.79
G2 X89.893 Y-57.571 I-5.781 J-5.781
G1 Y-102.689
Y-123.429
G2 X87.499 Y-129.209 I-8.175 J0
G1 X86.455 Y-130.253
X70.428 Y-146.281 Z-19.792 F2286
G2 X65.098 Y-148.663 Z-20 I-5.78 J5.781
X64.647 Y-148.675 I-0.451 J8.163 F1000
G1 X35.282
G3 X31.457 Y-152.5 I0 J-3.825
G1 Y-164.5
G2 X27.282 Y-168.675 I-4.175 J0
G1 X18.782
G2 X16.537 Y-167.745 I0 J3.175
G1 X16.037 Y-167.245
G2 X15.107 Y-165 I2.245 J2.245
G1 Y-135.915
G2 X19.174 Y-131.741 I4.175 J0
G3 X19.174 Y-49.259 I-1.063 J41.241
G2 X15.107 Y-45.085 I0.107 J4.174
G1 Y-16
G2 X16.037 Y-13.755 I3.175 J0
G1 X16.537 Y-13.255
G2 X18.782 Y-12.325 I2.245 J-2.245
G1 X27.282
G2 X31.457 Y-16.5 I0 J-4.175
G1 Y-28.5
G3 X35.282 Y-32.325 I3.825 J0
G1 X64.647
G2 X70.428 Y-34.719 I0 J-8.175
G1 X87.499 Y-51.79
G2 X89.893 Y-57.571 I-5.781 J-5.781
G1 Y-123.429
G2 X87.499 Y-129.209 I-8.175 J0
G1 X70.428 Y-146.281
G2 X65.098 Y-148.663 I-5.78 J5.781
X64.647 Y-148.675 Z-20.016 I-0.451 J8.163 F2286
G1 X36.462 Z-21
X35.282 F1000
G3 X31.457 Y-152.5 I0 J-3.825
G1 Y-164.5
G2 X27.282 Y-168.675 I-4.175 J0
G1 X18.782
G2 X16.537 Y-167.745 I0 J3.175
G1 X16.037 Y-167.245
G2 X15.107 Y-165 I2.245 J2.245
G1 Y-135.915
G2 X19.174 Y-131.741 I4.175 J0
G3 X19.174 Y-49.259 I-1.063 J41.241
G2 X15.107 Y-45.085 I0.107 J4.174
G1 Y-16
G2 X16.037 Y-13.755 I3.175 J0
G1 X16.537 Y-13.255
G2 X18.782 Y-12.325 I2.245 J-2.245
G1 X27.282
G2 X31.457 Y-16.5 I0 J-4.175
G1 Y-28.5
G3 X35.282 Y-32.325 I3.825 J0
G1 X64.647
G2 X70.428 Y-34.719 I0 J-8.175
G1 X87.499 Y-51.79
G2 X89.893 Y-57.571 I-5.781 J-5.781
G1 Y-123.429
G2 X87.499 Y-129.209 I-8.175 J0
G1 X70.428 Y-146.281
G2 X64.647 Y-148.675 I-5.78 J5.781
G1 X36.462
X35.282 Z-21.041 F2286
G3 X31.457 Y-152.5 Z-21.251 I0 J-3.825
G1 Y-164.5 Z-21.67
G2 X27.282 Y-168.675 Z-21.899 I-4.175 J0
G1 X24.392 Z-22
X18.782 F1000
G2 X16.537 Y-167.745 I0 J3.175
G1 X16.037 Y-167.245
G2 X15.107 Y-165 I2.245 J2.245
G1 Y-135.915
G2 X19.174 Y-131.741 I4.175 J0
G3 X19.174 Y-49.259 I-1.063 J41.241
G2 X15.107 Y-45.085 I0.107 J4.174
G1 Y-16
G2 X16.037 Y-13.755 I3.175 J0
G1 X16.537 Y-13.255
G2 X18.782 Y-12.325 I2.245 J-2.245
G1 X27.282
G2 X31.457 Y-16.5 I0 J-4.175
G1 Y-28.5
G3 X35.282 Y-32.325 I3.825 J0
G1 X64.647
G2 X70.428 Y-34.719 I0 J-8.175
G1 X87.499 Y-51.79
G2 X89.893 Y-57.571 I-5.781 J-5.781
G1 Y-123.429
G2 X87.499 Y-129.209 I-8.175 J0
G1 X70.428 Y-146.281
G2 X64.647 Y-148.675 I-5.78 J5.781
G1 X36.462
X35.282
G3 X31.457 Y-152.5 I0 J-3.825
G1 Y-164.5
G2 X27.282 Y-168.675 I-4.175 J0
G1 X24.392
X18.782 Z-22.196 F2286
G2 X16.537 Y-167.745 Z-22.283 I0 J3.175
G1 X16.037 Y-167.245 Z-22.308
G2 X15.107 Y-165 Z-22.395 I2.245 J2.245
G1 Y-147.668 Z-23
Y-135.915 F1000
G2 X19.174 Y-131.741 I4.175 J0
G3 X19.174 Y-49.259 I-1.063 J41.241
G2 X15.107 Y-45.085 I0.107 J4.174
G1 Y-16
G2 X16.037 Y-13.755 I3.175 J0
G1 X16.537 Y-13.255
G2 X18.782 Y-12.325 I2.245 J-2.245
G1 X27.282
G2 X31.457 Y-16.5 I0 J-4.175
G1 Y-28.5
G3 X35.282 Y-32.325 I3.825 J0
G1 X64.647
G2 X70.428 Y-34.719 I0 J-8.175
G1 X87.499 Y-51.79
G2 X89.893 Y-57.571 I-5.781 J-5.781
G1 Y-123.429
G2 X87.499 Y-129.209 I-8.175 J0
G1 X70.428 Y-146.281
G2 X64.647 Y-148.675 I-5.78 J5.781
G1 X35.282
G3 X31.457 Y-152.5 I0 J-3.825
G1 Y-164.5
G2 X27.282 Y-168.675 I-4.175 J0
G1 X18.782
G2 X16.537 Y-167.745 I0 J3.175
G1 X16.037 Y-167.245
G2 X15.107 Y-165 I2.245 J2.245
G1 Y-147.668
Y-135.915 Z-23.41 F2286
G2 X19.174 Y-131.741 Z-23.636 I4.175 J0
G3 X29.459 Y-130.164 Z-24 I-1.063 J41.241
X19.174 Y-49.259 I-11.347 J39.664 F1000
G2 X15.107 Y-45.085 I0.107 J4.174
G1 Y-16
G2 X16.037 Y-13.755 I3.175 J0
G1 X16.537 Y-13.255
G2 X18.782 Y-12.325 I2.245 J-2.245
G1 X27.282
G2 X31.457 Y-16.5 I0 J-4.175
G1 Y-28.5
G3 X35.282 Y-32.325 I3.825 J0
G1 X64.647
G2 X70.428 Y-34.719 I0 J-8.175
G1 X87.499 Y-51.79
G2 X89.893 Y-57.571 I-5.781 J-5.781
G1 Y-123.429
G2 X87.499 Y-129.209 I-8.175 J0
G1 X70.428 Y-146.281
G2 X64.647 Y-148.675 I-5.78 J5.781
G1 X35.282
G3 X31.457 Y-152.5 I0 J-3.825
G1 Y-164.5
G2 X27.282 Y-168.675 I-4.175 J0
G1 X18.782
G2 X16.537 Y-167.745 I0 J3.175
G1 X16.037 Y-167.245
G2 X15.107 Y-165 I2.245 J2.245
G1 Y-147.668
Y-135.915
G2 X19.174 Y-131.741 I4.175 J0
G3 X29.459 Y-130.164 I-1.063 J41.241
X42.273 Y-123.939 Z-24.5 I-11.347 J39.664 F2286
X19.174 Y-49.259 I-24.162 J33.439 F1000
G2 X15.107 Y-45.085 I0.107 J4.174
G1 Y-16
G2 X16.037 Y-13.755 I3.175 J0
G1 X16.537 Y-13.255
G2 X18.782 Y-12.325 I2.245 J-2.245
G1 X27.282
G2 X31.457 Y-16.5 I0 J-4.175
G1 Y-28.5
G3 X35.282 Y-32.325 I3.825 J0
G1 X64.647
G2 X70.428 Y-34.719 I0 J-8.175
G1 X87.499 Y-51.79
G2 X89.893 Y-57.571 I-5.781 J-5.781
G1 Y-123.429
G2 X87.499 Y-129.209 I-8.175 J0
G1 X70.428 Y-146.281
G2 X64.647 Y-148.675 I-5.78 J5.781
G1 X35.282
G3 X31.457 Y-152.5 I0 J-3.825
G1 Y-164.5
G2 X27.282 Y-168.675 I-4.175 J0
G1 X18.782
G2 X16.537 Y-167.745 I0 J3.175
G1 X16.037 Y-167.245
G2 X15.107 Y-165 I2.245 J2.245
G1 Y-135.915
G2 X19.174 Y-131.741 I4.175 J0
G3 X42.273 Y-123.939 I-1.063 J41.241
X42.416 Y-123.052 I-0.372 J0.515
G1 X42.044 Y-122.538
X41.986 Y-122.457 Z-24.492
X41.929 Y-122.379 Z-24.469
X41.875 Y-122.304 Z-24.431
X41.825 Y-122.235 Z-24.379
X41.781 Y-122.174 Z-24.314
X41.743 Y-122.121 Z-24.238
X41.713 Y-122.079 Z-24.153
X41.69 Y-122.048 Z-24.061
X41.677 Y-122.029 Z-23.964
X41.672 Y-122.023 Z-23.865
G0 Z15
M9
G28 G91 Z0
G90
G28 G91 X0 Y0
G90
M5
M30
