(1001)
(T1  D=6.35 CR=0 - ZMIN=-27.481 - flat end mill)
G90 G94
G17
G21
G28 G91 Z0
G90

(2D Contour5)
T1
S18000 M3
G54
M8
G0 X29.209 Y-170.301
Z15
Z5
G1 Z1 F2286
Z-26.846
X29.207 Y-170.294 Z-26.946 F300
X29.202 Y-170.271 Z-27.043
X29.194 Y-170.234 Z-27.135
X29.183 Y-170.183 Z-27.22
X29.169 Y-170.12 Z-27.295
X29.153 Y-170.046 Z-27.36
X29.134 Y-169.963 Z-27.412
X29.115 Y-169.873 Z-27.45
X29.094 Y-169.778 Z-27.474
X29.072 Y-169.681 Z-27.481
X28.936 Y-169.061
G3 X28.179 Y-168.577 I-0.62 J-0.136
G2 X27.282 Y-168.675 I-0.897 J4.077
G1 X18.782
G2 X16.537 Y-167.745 I0 J3.175
G1 X16.037 Y-167.245
G2 X15.107 Y-165 I2.245 J2.245
G1 Y-135.915
G2 X19.174 Y-131.741 I4.175 J0
G3 X19.174 Y-49.259 I-1.063 J41.241
G2 X15.107 Y-45.085 I0.107 J4.174
G1 Y-16
G2 X16.037 Y-13.755 I3.175 J0
G1 X16.537 Y-13.255
G2 X18.782 Y-12.325 I2.245 J-2.245
G1 X27.282
G2 X31.457 Y-16.5 I0 J-4.175
G1 Y-28.5
G3 X35.282 Y-32.325 I3.825 J0
G1 X64.647
G2 X70.428 Y-34.719 I0 J-8.175
G1 X87.499 Y-51.79
G2 X89.893 Y-57.571 I-5.781 J-5.781
G1 Y-123.429
G2 X87.499 Y-129.209 I-8.175 J0
G1 X70.428 Y-146.281
G2 X64.647 Y-148.675 I-5.78 J5.781
G1 X35.282
G3 X31.457 Y-152.5 I0 J-3.825
G1 Y-164.5
G2 X28.179 Y-168.577 I-4.175 J0
G3 X27.696 Y-169.334 I0.136 J-0.62
G1 X27.832 Y-169.954
X27.853 Y-170.051 Z-27.474
X27.874 Y-170.146 Z-27.45
X27.894 Y-170.236 Z-27.412
X27.912 Y-170.319 Z-27.36
X27.929 Y-170.393 Z-27.295
X27.943 Y-170.456 Z-27.22
X27.954 Y-170.507 Z-27.135
X27.962 Y-170.544 Z-27.043
X27.967 Y-170.567 Z-26.946
X27.969 Y-170.574 Z-26.846
G0 Z15
M9
G28 G91 Z0
G90
G28 G91 X0 Y0
G90
M5
M30
