(1001)
(T1  D=6.35 CR=0 - ZMIN=-24.5 - flat end mill)
G90 G94
G17
G21
G28 G91 Z0
G90

(2D Contour5)
T1
S18000 M3
G54
M8
G0 X29.209 Y-170.301
Z15
Z5
G1 Z2 F2286
Z-0.365
X29.207 Y-170.294 Z-0.464 F1000
X29.202 Y-170.271 Z-0.561
X29.194 Y-170.234 Z-0.653
X29.183 Y-170.183 Z-0.738
X29.169 Y-170.12 Z-0.814
X29.153 Y-170.046 Z-0.879
X29.134 Y-169.963 Z-0.931
X29.115 Y-169.873 Z-0.969
X29.094 Y-169.778 Z-0.992
X29.072 Y-169.681 Z-1
X28.936 Y-169.061
G3 X28.179 Y-168.577 I-0.62 J-0.136
G2 X27.282 Y-168.675 I-0.897 J4.077
G1 X18.782
G2 X16.537 Y-167.745 I0 J3.175
G1 X16.037 Y-167.245
G2 X15.107 Y-165 I2.245 J2.245
G1 Y-135.915
G2 X19.174 Y-131.741 I4.175 J0
G3 X19.174 Y-49.259 I-1.063 J41.241
G2 X15.107 Y-45.085 I0.107 J4.174
G1 Y-16
G2 X16.037 Y-13.755 I3.175 J0
G1 X16.537 Y-13.255
G2 X18.782 Y-12.325 I2.245 J-2.245
G1 X27.282
G2 X31.457 Y-16.5 I0 J-4.175
G1 Y-28.5
G3 X35.282 Y-32.325 I3.825 J0
G1 X64.647
G2 X70.428 Y-34.719 I0 J-8.175
G1 X87.499 Y-51.79
G2 X89.893 Y-57.571 I-5.781 J-5.781
G1 Y-123.429
G2 X87.499 Y-129.209 I-8.175 J0
G1 X70.428 Y-146.281
G2 X64.647 Y-148.675 I-5.78 J5.781
G1 X35.282
G3 X31.457 Y-152.5 I0 J-3.825
G1 Y-164.5
G2 X28.179 Y-168.577 I-4.175 J0
G3 X27.696 Y-169.334 I0.136 J-0.62
G1 X27.832 Y-169.954
X27.853 Y-170.051 Z-0.992
X27.874 Y-170.146 Z-0.969
X27.894 Y-170.236 Z-0.931
X27.912 Y-170.319 Z-0.879
X27.929 Y-170.393 Z-0.814
X27.943 Y-170.456 Z-0.738
X27.954 Y-170.507 Z-0.653
X27.962 Y-170.544 Z-0.561
X27.967 Y-170.567 Z-0.464
X27.969 Y-170.574 Z-0.365
G0 Z5
X29.209 Y-170.301
G1 Z1 F2286
Z-1.365
X29.207 Y-170.294 Z-1.464 F1000
X29.202 Y-170.271 Z-1.561
X29.194 Y-170.234 Z-1.653
X29.183 Y-170.183 Z-1.738
X29.169 Y-170.12 Z-1.814
X29.153 Y-170.046 Z-1.879
X29.134 Y-169.963 Z-1.931
X29.115 Y-169.873 Z-1.969
X29.094 Y-169.778 Z-1.992
X29.072 Y-169.681 Z-2
X28.936 Y-169.061
G3 X28.179 Y-168.577 I-0.62 J-0.136
G2 X27.282 Y-168.675 I-0.897 J4.077
G1 X18.782
G2 X16.537 Y-167.745 I0 J3.175
G1 X16.037 Y-167.245
G2 X15.107 Y-165 I2.245 J2.245
G1 Y-135.915
G2 X19.174 Y-131.741 I4.175 J0
G3 X19.174 Y-49.259 I-1.063 J41.241
G2 X15.107 Y-45.085 I0.107 J4.174
G1 Y-16
G2 X16.037 Y-13.755 I3.175 J0
G1 X16.537 Y-13.255
G2 X18.782 Y-12.325 I2.245 J-2.245
G1 X27.282
G2 X31.457 Y-16.5 I0 J-4.175
G1 Y-28.5
G3 X35.282 Y-32.325 I3.825 J0
G1 X64.647
G2 X70.428 Y-34.719 I0 J-8.175
G1 X87.499 Y-51.79
G2 X89.893 Y-57.571 I-5.781 J-5.781
G1 Y-123.429
G2 X87.499 Y-129.209 I-8.175 J0
G1 X70.428 Y-146.281
G2 X64.647 Y-148.675 I-5.78 J5.781
G1 X35.282
G3 X31.457 Y-152.5 I0 J-3.825
G1 Y-164.5
G2 X28.179 Y-168.577 I-4.175 J0
G3 X27.696 Y-169.334 I0.136 J-0.62
G1 X27.832 Y-169.954
X27.853 Y-170.051 Z-1.992
X27.874 Y-170.146 Z-1.969
X27.894 Y-170.236 Z-1.931
X27.912 Y-170.319 Z-1.879
X27.929 Y-170.393 Z-1.814
X27.943 Y-170.456 Z-1.738
X27.954 Y-170.507 Z-1.653
X27.962 Y-170.544 Z-1.561
X27.967 Y-170.567 Z-1.464
X27.969 Y-170.574 Z-1.365
G0 Z5
X29.209 Y-170.301
G1 Z0 F2286
Z-2.365
X29.207 Y-170.294 Z-2.464 F1000
X29.202 Y-170.271 Z-2.561
X29.194 Y-170.234 Z-2.653
X29.183 Y-170.183 Z-2.738
X29.169 Y-170.12 Z-2.814
X29.153 Y-170.046 Z-2.879
X29.134 Y-169.963 Z-2.931
X29.115 Y-169.873 Z-2.969
X29.094 Y-169.778 Z-2.992
X29.072 Y-169.681 Z-3
X28.936 Y-169.061
G3 X28.179 Y-168.577 I-0.62 J-0.136
G2 X27.282 Y-168.675 I-0.897 J4.077
G1 X18.782
G2 X16.537 Y-167.745 I0 J3.175
G1 X16.037 Y-167.245
G2 X15.107 Y-165 I2.245 J2.245
G1 Y-135.915
G2 X19.174 Y-131.741 I4.175 J0
G3 X19.174 Y-49.259 I-1.063 J41.241
G2 X15.107 Y-45.085 I0.107 J4.174
G1 Y-16
G2 X16.037 Y-13.755 I3.175 J0
G1 X16.537 Y-13.255
G2 X18.782 Y-12.325 I2.245 J-2.245
G1 X27.282
G2 X31.457 Y-16.5 I0 J-4.175
G1 Y-28.5
G3 X35.282 Y-32.325 I3.825 J0
G1 X64.647
G2 X70.428 Y-34.719 I0 J-8.175
G1 X87.499 Y-51.79
G2 X89.893 Y-57.571 I-5.781 J-5.781
G1 Y-123.429
G2 X87.499 Y-129.209 I-8.175 J0
G1 X70.428 Y-146.281
G2 X64.647 Y-148.675 I-5.78 J5.781
G1 X35.282
G3 X31.457 Y-152.5 I0 J-3.825
G1 Y-164.5
G2 X28.179 Y-168.577 I-4.175 J0
G3 X27.696 Y-169.334 I0.136 J-0.62
G1 X27.832 Y-169.954
X27.853 Y-170.051 Z-2.992
X27.874 Y-170.146 Z-2.969
X27.894 Y-170.236 Z-2.931
X27.912 Y-170.319 Z-2.879
X27.929 Y-170.393 Z-2.814
X27.943 Y-170.456 Z-2.738
X27.954 Y-170.507 Z-2.653
X27.962 Y-170.544 Z-2.561
X27.967 Y-170.567 Z-2.464
X27.969 Y-170.574 Z-2.365
G0 Z5
X29.209 Y-170.301
G1 Z-1 F2286
Z-3.365
X29.207 Y-170.294 Z-3.464 F1000
X29.202 Y-170.271 Z-3.561
X29.194 Y-170.234 Z-3.653
X29.183 Y-170.183 Z-3.738
X29.169 Y-170.12 Z-3.814
X29.153 Y-170.046 Z-3.879
X29.134 Y-169.963 Z-3.931
X29.115 Y-169.873 Z-3.969
X29.094 Y-169.778 Z-3.992
X29.072 Y-169.681 Z-4
X28.936 Y-169.061
G3 X28.179 Y-168.577 I-0.62 J-0.136
G2 X27.282 Y-168.675 I-0.897 J4.077
G1 X18.782
G2 X16.537 Y-167.745 I0 J3.175
G1 X16.037 Y-167.245
G2 X15.107 Y-165 I2.245 J2.245
G1 Y-135.915
G2 X19.174 Y-131.741 I4.175 J0
G3 X19.174 Y-49.259 I-1.063 J41.241
G2 X15.107 Y-45.085 I0.107 J4.174
G1 Y-16
G2 X16.037 Y-13.755 I3.175 J0
G1 X16.537 Y-13.255
G2 X18.782 Y-12.325 I2.245 J-2.245
G1 X27.282
G2 X31.457 Y-16.5 I0 J-4.175
G1 Y-28.5
G3 X35.282 Y-32.325 I3.825 J0
G1 X64.647
G2 X70.428 Y-34.719 I0 J-8.175
G1 X87.499 Y-51.79
G2 X89.893 Y-57.571 I-5.781 J-5.781
G1 Y-123.429
G2 X87.499 Y-129.209 I-8.175 J0
G1 X70.428 Y-146.281
G2 X64.647 Y-148.675 I-5.78 J5.781
G1 X35.282
G3 X31.457 Y-152.5 I0 J-3.825
G1 Y-164.5
G2 X28.179 Y-168.577 I-4.175 J0
G3 X27.696 Y-169.334 I0.136 J-0.62
G1 X27.832 Y-169.954
X27.853 Y-170.051 Z-3.992
X27.874 Y-170.146 Z-3.969
X27.894 Y-170.236 Z-3.931
X27.912 Y-170.319 Z-3.879
X27.929 Y-170.393 Z-3.814
X27.943 Y-170.456 Z-3.738
X27.954 Y-170.507 Z-3.653
X27.962 Y-170.544 Z-3.561
X27.967 Y-170.567 Z-3.464
X27.969 Y-170.574 Z-3.365
G0 Z5
X29.209 Y-170.301
G1 Z-2 F2286
Z-4.365
X29.207 Y-170.294 Z-4.464 F1000
X29.202 Y-170.271 Z-4.561
X29.194 Y-170.234 Z-4.653
X29.183 Y-170.183 Z-4.738
X29.169 Y-170.12 Z-4.814
X29.153 Y-170.046 Z-4.879
X29.134 Y-169.963 Z-4.931
X29.115 Y-169.873 Z-4.969
X29.094 Y-169.778 Z-4.992
X29.072 Y-169.681 Z-5
X28.936 Y-169.061
G3 X28.179 Y-168.577 I-0.62 J-0.136
G2 X27.282 Y-168.675 I-0.897 J4.077
G1 X18.782
G2 X16.537 Y-167.745 I0 J3.175
G1 X16.037 Y-167.245
G2 X15.107 Y-165 I2.245 J2.245
G1 Y-135.915
G2 X19.174 Y-131.741 I4.175 J0
G3 X19.174 Y-49.259 I-1.063 J41.241
G2 X15.107 Y-45.085 I0.107 J4.174
G1 Y-16
G2 X16.037 Y-13.755 I3.175 J0
G1 X16.537 Y-13.255
G2 X18.782 Y-12.325 I2.245 J-2.245
G1 X27.282
G2 X31.457 Y-16.5 I0 J-4.175
G1 Y-28.5
G3 X35.282 Y-32.325 I3.825 J0
G1 X64.647
G2 X70.428 Y-34.719 I0 J-8.175
G1 X87.499 Y-51.79
G2 X89.893 Y-57.571 I-5.781 J-5.781
G1 Y-123.429
G2 X87.499 Y-129.209 I-8.175 J0
G1 X70.428 Y-146.281
G2 X64.647 Y-148.675 I-5.78 J5.781
G1 X35.282
G3 X31.457 Y-152.5 I0 J-3.825
G1 Y-164.5
G2 X28.179 Y-168.577 I-4.175 J0
G3 X27.696 Y-169.334 I0.136 J-0.62
G1 X27.832 Y-169.954
X27.853 Y-170.051 Z-4.992
X27.874 Y-170.146 Z-4.969
X27.894 Y-170.236 Z-4.931
X27.912 Y-170.319 Z-4.879
X27.929 Y-170.393 Z-4.814
X27.943 Y-170.456 Z-4.738
X27.954 Y-170.507 Z-4.653
X27.962 Y-170.544 Z-4.561
X27.967 Y-170.567 Z-4.464
X27.969 Y-170.574 Z-4.365
G0 Z5
X29.209 Y-170.301
G1 Z-3 F2286
Z-5.365
X29.207 Y-170.294 Z-5.464 F1000
X29.202 Y-170.271 Z-5.561
X29.194 Y-170.234 Z-5.653
X29.183 Y-170.183 Z-5.738
X29.169 Y-170.12 Z-5.814
X29.153 Y-170.046 Z-5.879
X29.134 Y-169.963 Z-5.931
X29.115 Y-169.873 Z-5.969
X29.094 Y-169.778 Z-5.992
X29.072 Y-169.681 Z-6
X28.936 Y-169.061
G3 X28.179 Y-168.577 I-0.62 J-0.136
G2 X27.282 Y-168.675 I-0.897 J4.077
G1 X18.782
G2 X16.537 Y-167.745 I0 J3.175
G1 X16.037 Y-167.245
G2 X15.107 Y-165 I2.245 J2.245
G1 Y-135.915
G2 X19.174 Y-131.741 I4.175 J0
G3 X19.174 Y-49.259 I-1.063 J41.241
G2 X15.107 Y-45.085 I0.107 J4.174
G1 Y-16
G2 X16.037 Y-13.755 I3.175 J0
G1 X16.537 Y-13.255
G2 X18.782 Y-12.325 I2.245 J-2.245
G1 X27.282
G2 X31.457 Y-16.5 I0 J-4.175
G1 Y-28.5
G3 X35.282 Y-32.325 I3.825 J0
G1 X64.647
G2 X70.428 Y-34.719 I0 J-8.175
G1 X87.499 Y-51.79
G2 X89.893 Y-57.571 I-5.781 J-5.781
G1 Y-123.429
G2 X87.499 Y-129.209 I-8.175 J0
G1 X70.428 Y-146.281
G2 X64.647 Y-148.675 I-5.78 J5.781
G1 X35.282
G3 X31.457 Y-152.5 I0 J-3.825
G1 Y-164.5
G2 X28.179 Y-168.577 I-4.175 J0
G3 X27.696 Y-169.334 I0.136 J-0.62
G1 X27.832 Y-169.954
X27.853 Y-170.051 Z-5.992
X27.874 Y-170.146 Z-5.969
X27.894 Y-170.236 Z-5.931
X27.912 Y-170.319 Z-5.879
X27.929 Y-170.393 Z-5.814
X27.943 Y-170.456 Z-5.738
X27.954 Y-170.507 Z-5.653
X27.962 Y-170.544 Z-5.561
X27.967 Y-170.567 Z-5.464
X27.969 Y-170.574 Z-5.365
G0 Z5
X29.209 Y-170.301
G1 Z-4 F2286
Z-6.365
X29.207 Y-170.294 Z-6.464 F1000
X29.202 Y-170.271 Z-6.561
X29.194 Y-170.234 Z-6.653
X29.183 Y-170.183 Z-6.738
X29.169 Y-170.12 Z-6.814
X29.153 Y-170.046 Z-6.879
X29.134 Y-169.963 Z-6.931
X29.115 Y-169.873 Z-6.969
X29.094 Y-169.778 Z-6.992
X29.072 Y-169.681 Z-7
X28.936 Y-169.061
G3 X28.179 Y-168.577 I-0.62 J-0.136
G2 X27.282 Y-168.675 I-0.897 J4.077
G1 X18.782
G2 X16.537 Y-167.745 I0 J3.175
G1 X16.037 Y-167.245
G2 X15.107 Y-165 I2.245 J2.245
G1 Y-135.915
G2 X19.174 Y-131.741 I4.175 J0
G3 X19.174 Y-49.259 I-1.063 J41.241
G2 X15.107 Y-45.085 I0.107 J4.174
G1 Y-16
G2 X16.037 Y-13.755 I3.175 J0
G1 X16.537 Y-13.255
G2 X18.782 Y-12.325 I2.245 J-2.245
G1 X27.282
G2 X31.457 Y-16.5 I0 J-4.175
G1 Y-28.5
G3 X35.282 Y-32.325 I3.825 J0
G1 X64.647
G2 X70.428 Y-34.719 I0 J-8.175
G1 X87.499 Y-51.79
G2 X89.893 Y-57.571 I-5.781 J-5.781
G1 Y-123.429
G2 X87.499 Y-129.209 I-8.175 J0
G1 X70.428 Y-146.281
G2 X64.647 Y-148.675 I-5.78 J5.781
G1 X35.282
G3 X31.457 Y-152.5 I0 J-3.825
G1 Y-164.5
G2 X28.179 Y-168.577 I-4.175 J0
G3 X27.696 Y-169.334 I0.136 J-0.62
G1 X27.832 Y-169.954
X27.853 Y-170.051 Z-6.992
X27.874 Y-170.146 Z-6.969
X27.894 Y-170.236 Z-6.931
X27.912 Y-170.319 Z-6.879
X27.929 Y-170.393 Z-6.814
X27.943 Y-170.456 Z-6.738
X27.954 Y-170.507 Z-6.653
X27.962 Y-170.544 Z-6.561
X27.967 Y-170.567 Z-6.464
X27.969 Y-170.574 Z-6.365
G0 Z5
X29.209 Y-170.301
G1 Z-5 F2286
Z-7.365
X29.207 Y-170.294 Z-7.464 F1000
X29.202 Y-170.271 Z-7.561
X29.194 Y-170.234 Z-7.653
X29.183 Y-170.183 Z-7.738
X29.169 Y-170.12 Z-7.814
X29.153 Y-170.046 Z-7.879
X29.134 Y-169.963 Z-7.931
X29.115 Y-169.873 Z-7.969
X29.094 Y-169.778 Z-7.992
X29.072 Y-169.681 Z-8
X28.936 Y-169.061
G3 X28.179 Y-168.577 I-0.62 J-0.136
G2 X27.282 Y-168.675 I-0.897 J4.077
G1 X18.782
G2 X16.537 Y-167.745 I0 J3.175
G1 X16.037 Y-167.245
G2 X15.107 Y-165 I2.245 J2.245
G1 Y-135.915
G2 X19.174 Y-131.741 I4.175 J0
G3 X19.174 Y-49.259 I-1.063 J41.241
G2 X15.107 Y-45.085 I0.107 J4.174
G1 Y-16
G2 X16.037 Y-13.755 I3.175 J0
G1 X16.537 Y-13.255
G2 X18.782 Y-12.325 I2.245 J-2.245
G1 X27.282
G2 X31.457 Y-16.5 I0 J-4.175
G1 Y-28.5
G3 X35.282 Y-32.325 I3.825 J0
G1 X64.647
G2 X70.428 Y-34.719 I0 J-8.175
G1 X87.499 Y-51.79
G2 X89.893 Y-57.571 I-5.781 J-5.781
G1 Y-123.429
G2 X87.499 Y-129.209 I-8.175 J0
G1 X70.428 Y-146.281
G2 X64.647 Y-148.675 I-5.78 J5.781
G1 X35.282
G3 X31.457 Y-152.5 I0 J-3.825
G1 Y-164.5
G2 X28.179 Y-168.577 I-4.175 J0
G3 X27.696 Y-169.334 I0.136 J-0.62
G1 X27.832 Y-169.954
X27.853 Y-170.051 Z-7.992
X27.874 Y-170.146 Z-7.969
X27.894 Y-170.236 Z-7.931
X27.912 Y-170.319 Z-7.879
X27.929 Y-170.393 Z-7.814
X27.943 Y-170.456 Z-7.738
X27.954 Y-170.507 Z-7.653
X27.962 Y-170.544 Z-7.561
X27.967 Y-170.567 Z-7.464
X27.969 Y-170.574 Z-7.365
G0 Z5
X29.209 Y-170.301
G1 Z-6 F2286
Z-8.365
X29.207 Y-170.294 Z-8.464 F1000
X29.202 Y-170.271 Z-8.561
X29.194 Y-170.234 Z-8.653
X29.183 Y-170.183 Z-8.738
X29.169 Y-170.12 Z-8.814
X29.153 Y-170.046 Z-8.879
X29.134 Y-169.963 Z-8.931
X29.115 Y-169.873 Z-8.969
X29.094 Y-169.778 Z-8.992
X29.072 Y-169.681 Z-9
X28.936 Y-169.061
G3 X28.179 Y-168.577 I-0.62 J-0.136
G2 X27.282 Y-168.675 I-0.897 J4.077
G1 X18.782
G2 X16.537 Y-167.745 I0 J3.175
G1 X16.037 Y-167.245
G2 X15.107 Y-165 I2.245 J2.245
G1 Y-135.915
G2 X19.174 Y-131.741 I4.175 J0
G3 X19.174 Y-49.259 I-1.063 J41.241
G2 X15.107 Y-45.085 I0.107 J4.174
G1 Y-16
G2 X16.037 Y-13.755 I3.175 J0
G1 X16.537 Y-13.255
G2 X18.782 Y-12.325 I2.245 J-2.245
G1 X27.282
G2 X31.457 Y-16.5 I0 J-4.175
G1 Y-28.5
G3 X35.282 Y-32.325 I3.825 J0
G1 X64.647
G2 X70.428 Y-34.719 I0 J-8.175
G1 X87.499 Y-51.79
G2 X89.893 Y-57.571 I-5.781 J-5.781
G1 Y-123.429
G2 X87.499 Y-129.209 I-8.175 J0
G1 X70.428 Y-146.281
G2 X64.647 Y-148.675 I-5.78 J5.781
G1 X35.282
G3 X31.457 Y-152.5 I0 J-3.825
G1 Y-164.5
G2 X28.179 Y-168.577 I-4.175 J0
G3 X27.696 Y-169.334 I0.136 J-0.62
G1 X27.832 Y-169.954
X27.853 Y-170.051 Z-8.992
X27.874 Y-170.146 Z-8.969
X27.894 Y-170.236 Z-8.931
X27.912 Y-170.319 Z-8.879
X27.929 Y-170.393 Z-8.814
X27.943 Y-170.456 Z-8.738
X27.954 Y-170.507 Z-8.653
X27.962 Y-170.544 Z-8.561
X27.967 Y-170.567 Z-8.464
X27.969 Y-170.574 Z-8.365
G0 Z5
X29.209 Y-170.301
G1 Z-7 F2286
Z-9.365
X29.207 Y-170.294 Z-9.464 F1000
X29.202 Y-170.271 Z-9.561
X29.194 Y-170.234 Z-9.653
X29.183 Y-170.183 Z-9.738
X29.169 Y-170.12 Z-9.814
X29.153 Y-170.046 Z-9.879
X29.134 Y-169.963 Z-9.931
X29.115 Y-169.873 Z-9.969
X29.094 Y-169.778 Z-9.992
X29.072 Y-169.681 Z-10
X28.936 Y-169.061
G3 X28.179 Y-168.577 I-0.62 J-0.136
G2 X27.282 Y-168.675 I-0.897 J4.077
G1 X18.782
G2 X16.537 Y-167.745 I0 J3.175
G1 X16.037 Y-167.245
G2 X15.107 Y-165 I2.245 J2.245
G1 Y-135.915
G2 X19.174 Y-131.741 I4.175 J0
G3 X19.174 Y-49.259 I-1.063 J41.241
G2 X15.107 Y-45.085 I0.107 J4.174
G1 Y-16
G2 X16.037 Y-13.755 I3.175 J0
G1 X16.537 Y-13.255
G2 X18.782 Y-12.325 I2.245 J-2.245
G1 X27.282
G2 X31.457 Y-16.5 I0 J-4.175
G1 Y-28.5
G3 X35.282 Y-32.325 I3.825 J0
G1 X64.647
G2 X70.428 Y-34.719 I0 J-8.175
G1 X87.499 Y-51.79
G2 X89.893 Y-57.571 I-5.781 J-5.781
G1 Y-123.429
G2 X87.499 Y-129.209 I-8.175 J0
G1 X70.428 Y-146.281
G2 X64.647 Y-148.675 I-5.78 J5.781
G1 X35.282
G3 X31.457 Y-152.5 I0 J-3.825
G1 Y-164.5
G2 X28.179 Y-168.577 I-4.175 J0
G3 X27.696 Y-169.334 I0.136 J-0.62
G1 X27.832 Y-169.954
X27.853 Y-170.051 Z-9.992
X27.874 Y-170.146 Z-9.969
X27.894 Y-170.236 Z-9.931
X27.912 Y-170.319 Z-9.879
X27.929 Y-170.393 Z-9.814
X27.943 Y-170.456 Z-9.738
X27.954 Y-170.507 Z-9.653
X27.962 Y-170.544 Z-9.561
X27.967 Y-170.567 Z-9.464
X27.969 Y-170.574 Z-9.365
G0 Z5
X29.209 Y-170.301
G1 Z-8 F2286
Z-10.365
X29.207 Y-170.294 Z-10.464 F1000
X29.202 Y-170.271 Z-10.561
X29.194 Y-170.234 Z-10.653
X29.183 Y-170.183 Z-10.738
X29.169 Y-170.12 Z-10.814
X29.153 Y-170.046 Z-10.879
X29.134 Y-169.963 Z-10.931
X29.115 Y-169.873 Z-10.969
X29.094 Y-169.778 Z-10.992
X29.072 Y-169.681 Z-11
X28.936 Y-169.061
G3 X28.179 Y-168.577 I-0.62 J-0.136
G2 X27.282 Y-168.675 I-0.897 J4.077
G1 X18.782
G2 X16.537 Y-167.745 I0 J3.175
G1 X16.037 Y-167.245
G2 X15.107 Y-165 I2.245 J2.245
G1 Y-135.915
G2 X19.174 Y-131.741 I4.175 J0
G3 X19.174 Y-49.259 I-1.063 J41.241
G2 X15.107 Y-45.085 I0.107 J4.174
G1 Y-16
G2 X16.037 Y-13.755 I3.175 J0
G1 X16.537 Y-13.255
G2 X18.782 Y-12.325 I2.245 J-2.245
G1 X27.282
G2 X31.457 Y-16.5 I0 J-4.175
G1 Y-28.5
G3 X35.282 Y-32.325 I3.825 J0
G1 X64.647
G2 X70.428 Y-34.719 I0 J-8.175
G1 X87.499 Y-51.79
G2 X89.893 Y-57.571 I-5.781 J-5.781
G1 Y-123.429
G2 X87.499 Y-129.209 I-8.175 J0
G1 X70.428 Y-146.281
G2 X64.647 Y-148.675 I-5.78 J5.781
G1 X35.282
G3 X31.457 Y-152.5 I0 J-3.825
G1 Y-164.5
G2 X28.179 Y-168.577 I-4.175 J0
G3 X27.696 Y-169.334 I0.136 J-0.62
G1 X27.832 Y-169.954
X27.853 Y-170.051 Z-10.992
X27.874 Y-170.146 Z-10.969
X27.894 Y-170.236 Z-10.931
X27.912 Y-170.319 Z-10.879
X27.929 Y-170.393 Z-10.814
X27.943 Y-170.456 Z-10.738
X27.954 Y-170.507 Z-10.653
X27.962 Y-170.544 Z-10.561
X27.967 Y-170.567 Z-10.464
X27.969 Y-170.574 Z-10.365
G0 Z5
X29.209 Y-170.301
G1 Z-9 F2286
Z-11.365
X29.207 Y-170.294 Z-11.464 F1000
X29.202 Y-170.271 Z-11.561
X29.194 Y-170.234 Z-11.653
X29.183 Y-170.183 Z-11.738
X29.169 Y-170.12 Z-11.814
X29.153 Y-170.046 Z-11.879
X29.134 Y-169.963 Z-11.931
X29.115 Y-169.873 Z-11.969
X29.094 Y-169.778 Z-11.992
X29.072 Y-169.681 Z-12
X28.936 Y-169.061
G3 X28.179 Y-168.577 I-0.62 J-0.136
G2 X27.282 Y-168.675 I-0.897 J4.077
G1 X18.782
G2 X16.537 Y-167.745 I0 J3.175
G1 X16.037 Y-167.245
G2 X15.107 Y-165 I2.245 J2.245
G1 Y-135.915
G2 X19.174 Y-131.741 I4.175 J0
G3 X19.174 Y-49.259 I-1.063 J41.241
G2 X15.107 Y-45.085 I0.107 J4.174
G1 Y-16
G2 X16.037 Y-13.755 I3.175 J0
G1 X16.537 Y-13.255
G2 X18.782 Y-12.325 I2.245 J-2.245
G1 X27.282
G2 X31.457 Y-16.5 I0 J-4.175
G1 Y-28.5
G3 X35.282 Y-32.325 I3.825 J0
G1 X64.647
G2 X70.428 Y-34.719 I0 J-8.175
G1 X87.499 Y-51.79
G2 X89.893 Y-57.571 I-5.781 J-5.781
G1 Y-123.429
G2 X87.499 Y-129.209 I-8.175 J0
G1 X70.428 Y-146.281
G2 X64.647 Y-148.675 I-5.78 J5.781
G1 X35.282
G3 X31.457 Y-152.5 I0 J-3.825
G1 Y-164.5
G2 X28.179 Y-168.577 I-4.175 J0
G3 X27.696 Y-169.334 I0.136 J-0.62
G1 X27.832 Y-169.954
X27.853 Y-170.051 Z-11.992
X27.874 Y-170.146 Z-11.969
X27.894 Y-170.236 Z-11.931
X27.912 Y-170.319 Z-11.879
X27.929 Y-170.393 Z-11.814
X27.943 Y-170.456 Z-11.738
X27.954 Y-170.507 Z-11.653
X27.962 Y-170.544 Z-11.561
X27.967 Y-170.567 Z-11.464
X27.969 Y-170.574 Z-11.365
G0 Z5
X29.209 Y-170.301
G1 Z-10 F2286
Z-12.365
X29.207 Y-170.294 Z-12.464 F1000
X29.202 Y-170.271 Z-12.561
X29.194 Y-170.234 Z-12.653
X29.183 Y-170.183 Z-12.738
X29.169 Y-170.12 Z-12.814
X29.153 Y-170.046 Z-12.879
X29.134 Y-169.963 Z-12.931
X29.115 Y-169.873 Z-12.969
X29.094 Y-169.778 Z-12.992
X29.072 Y-169.681 Z-13
X28.936 Y-169.061
G3 X28.179 Y-168.577 I-0.62 J-0.136
G2 X27.282 Y-168.675 I-0.897 J4.077
G1 X18.782
G2 X16.537 Y-167.745 I0 J3.175
G1 X16.037 Y-167.245
G2 X15.107 Y-165 I2.245 J2.245
G1 Y-135.915
G2 X19.174 Y-131.741 I4.175 J0
G3 X19.174 Y-49.259 I-1.063 J41.241
G2 X15.107 Y-45.085 I0.107 J4.174
G1 Y-16
G2 X16.037 Y-13.755 I3.175 J0
G1 X16.537 Y-13.255
G2 X18.782 Y-12.325 I2.245 J-2.245
G1 X27.282
G2 X31.457 Y-16.5 I0 J-4.175
G1 Y-28.5
G3 X35.282 Y-32.325 I3.825 J0
G1 X64.647
G2 X70.428 Y-34.719 I0 J-8.175
G1 X87.499 Y-51.79
G2 X89.893 Y-57.571 I-5.781 J-5.781
G1 Y-123.429
G2 X87.499 Y-129.209 I-8.175 J0
G1 X70.428 Y-146.281
G2 X64.647 Y-148.675 I-5.78 J5.781
G1 X35.282
G3 X31.457 Y-152.5 I0 J-3.825
G1 Y-164.5
G2 X28.179 Y-168.577 I-4.175 J0
G3 X27.696 Y-169.334 I0.136 J-0.62
G1 X27.832 Y-169.954
X27.853 Y-170.051 Z-12.992
X27.874 Y-170.146 Z-12.969
X27.894 Y-170.236 Z-12.931
X27.912 Y-170.319 Z-12.879
X27.929 Y-170.393 Z-12.814
X27.943 Y-170.456 Z-12.738
X27.954 Y-170.507 Z-12.653
X27.962 Y-170.544 Z-12.561
X27.967 Y-170.567 Z-12.464
X27.969 Y-170.574 Z-12.365
G0 Z5
X29.209 Y-170.301
G1 Z-11 F2286
Z-13.365
X29.207 Y-170.294 Z-13.464 F1000
X29.202 Y-170.271 Z-13.561
X29.194 Y-170.234 Z-13.653
X29.183 Y-170.183 Z-13.738
X29.169 Y-170.12 Z-13.814
X29.153 Y-170.046 Z-13.879
X29.134 Y-169.963 Z-13.931
X29.115 Y-169.873 Z-13.969
X29.094 Y-169.778 Z-13.992
X29.072 Y-169.681 Z-14
X28.936 Y-169.061
G3 X28.179 Y-168.577 I-0.62 J-0.136
G2 X27.282 Y-168.675 I-0.897 J4.077
G1 X18.782
G2 X16.537 Y-167.745 I0 J3.175
G1 X16.037 Y-167.245
G2 X15.107 Y-165 I2.245 J2.245
G1 Y-135.915
G2 X19.174 Y-131.741 I4.175 J0
G3 X19.174 Y-49.259 I-1.063 J41.241
G2 X15.107 Y-45.085 I0.107 J4.174
G1 Y-16
G2 X16.037 Y-13.755 I3.175 J0
G1 X16.537 Y-13.255
G2 X18.782 Y-12.325 I2.245 J-2.245
G1 X27.282
G2 X31.457 Y-16.5 I0 J-4.175
G1 Y-28.5
G3 X35.282 Y-32.325 I3.825 J0
G1 X64.647
G2 X70.428 Y-34.719 I0 J-8.175
G1 X87.499 Y-51.79
G2 X89.893 Y-57.571 I-5.781 J-5.781
G1 Y-123.429
G2 X87.499 Y-129.209 I-8.175 J0
G1 X70.428 Y-146.281
G2 X64.647 Y-148.675 I-5.78 J5.781
G1 X35.282
G3 X31.457 Y-152.5 I0 J-3.825
G1 Y-164.5
G2 X28.179 Y-168.577 I-4.175 J0
G3 X27.696 Y-169.334 I0.136 J-0.62
G1 X27.832 Y-169.954
X27.853 Y-170.051 Z-13.992
X27.874 Y-170.146 Z-13.969
X27.894 Y-170.236 Z-13.931
X27.912 Y-170.319 Z-13.879
X27.929 Y-170.393 Z-13.814
X27.943 Y-170.456 Z-13.738
X27.954 Y-170.507 Z-13.653
X27.962 Y-170.544 Z-13.561
X27.967 Y-170.567 Z-13.464
X27.969 Y-170.574 Z-13.365
G0 Z5
X29.209 Y-170.301
G1 Z-12 F2286
Z-14.365
X29.207 Y-170.294 Z-14.464 F1000
X29.202 Y-170.271 Z-14.561
X29.194 Y-170.234 Z-14.653
X29.183 Y-170.183 Z-14.738
X29.169 Y-170.12 Z-14.814
X29.153 Y-170.046 Z-14.879
X29.134 Y-169.963 Z-14.931
X29.115 Y-169.873 Z-14.969
X29.094 Y-169.778 Z-14.992
X29.072 Y-169.681 Z-15
X28.936 Y-169.061
G3 X28.179 Y-168.577 I-0.62 J-0.136
G2 X27.282 Y-168.675 I-0.897 J4.077
G1 X18.782
G2 X16.537 Y-167.745 I0 J3.175
G1 X16.037 Y-167.245
G2 X15.107 Y-165 I2.245 J2.245
G1 Y-135.915
G2 X19.174 Y-131.741 I4.175 J0
G3 X19.174 Y-49.259 I-1.063 J41.241
G2 X15.107 Y-45.085 I0.107 J4.174
G1 Y-16
G2 X16.037 Y-13.755 I3.175 J0
G1 X16.537 Y-13.255
G2 X18.782 Y-12.325 I2.245 J-2.245
G1 X27.282
G2 X31.457 Y-16.5 I0 J-4.175
G1 Y-28.5
G3 X35.282 Y-32.325 I3.825 J0
G1 X64.647
G2 X70.428 Y-34.719 I0 J-8.175
G1 X87.499 Y-51.79
G2 X89.893 Y-57.571 I-5.781 J-5.781
G1 Y-123.429
G2 X87.499 Y-129.209 I-8.175 J0
G1 X70.428 Y-146.281
G2 X64.647 Y-148.675 I-5.78 J5.781
G1 X35.282
G3 X31.457 Y-152.5 I0 J-3.825
G1 Y-164.5
G2 X28.179 Y-168.577 I-4.175 J0
G3 X27.696 Y-169.334 I0.136 J-0.62
G1 X27.832 Y-169.954
X27.853 Y-170.051 Z-14.992
X27.874 Y-170.146 Z-14.969
X27.894 Y-170.236 Z-14.931
X27.912 Y-170.319 Z-14.879
X27.929 Y-170.393 Z-14.814
X27.943 Y-170.456 Z-14.738
X27.954 Y-170.507 Z-14.653
X27.962 Y-170.544 Z-14.561
X27.967 Y-170.567 Z-14.464
X27.969 Y-170.574 Z-14.365
G0 Z5
X29.209 Y-170.301
G1 Z-13 F2286
Z-15.365
X29.207 Y-170.294 Z-15.464 F1000
X29.202 Y-170.271 Z-15.561
X29.194 Y-170.234 Z-15.653
X29.183 Y-170.183 Z-15.738
X29.169 Y-170.12 Z-15.814
X29.153 Y-170.046 Z-15.879
X29.134 Y-169.963 Z-15.931
X29.115 Y-169.873 Z-15.969
X29.094 Y-169.778 Z-15.992
X29.072 Y-169.681 Z-16
X28.936 Y-169.061
G3 X28.179 Y-168.577 I-0.62 J-0.136
G2 X27.282 Y-168.675 I-0.897 J4.077
G1 X18.782
G2 X16.537 Y-167.745 I0 J3.175
G1 X16.037 Y-167.245
G2 X15.107 Y-165 I2.245 J2.245
G1 Y-135.915
G2 X19.174 Y-131.741 I4.175 J0
G3 X19.174 Y-49.259 I-1.063 J41.241
G2 X15.107 Y-45.085 I0.107 J4.174
G1 Y-16
G2 X16.037 Y-13.755 I3.175 J0
G1 X16.537 Y-13.255
G2 X18.782 Y-12.325 I2.245 J-2.245
G1 X27.282
G2 X31.457 Y-16.5 I0 J-4.175
G1 Y-28.5
G3 X35.282 Y-32.325 I3.825 J0
G1 X64.647
G2 X70.428 Y-34.719 I0 J-8.175
G1 X87.499 Y-51.79
G2 X89.893 Y-57.571 I-5.781 J-5.781
G1 Y-123.429
G2 X87.499 Y-129.209 I-8.175 J0
G1 X70.428 Y-146.281
G2 X64.647 Y-148.675 I-5.78 J5.781
G1 X35.282
G3 X31.457 Y-152.5 I0 J-3.825
G1 Y-164.5
G2 X28.179 Y-168.577 I-4.175 J0
G3 X27.696 Y-169.334 I0.136 J-0.62
G1 X27.832 Y-169.954
X27.853 Y-170.051 Z-15.992
X27.874 Y-170.146 Z-15.969
X27.894 Y-170.236 Z-15.931
X27.912 Y-170.319 Z-15.879
X27.929 Y-170.393 Z-15.814
X27.943 Y-170.456 Z-15.738
X27.954 Y-170.507 Z-15.653
X27.962 Y-170.544 Z-15.561
X27.967 Y-170.567 Z-15.464
X27.969 Y-170.574 Z-15.365
G0 Z5
X29.209 Y-170.301
G1 Z-14 F2286
Z-16.365
X29.207 Y-170.294 Z-16.464 F1000
X29.202 Y-170.271 Z-16.561
X29.194 Y-170.234 Z-16.653
X29.183 Y-170.183 Z-16.738
X29.169 Y-170.12 Z-16.814
X29.153 Y-170.046 Z-16.879
X29.134 Y-169.963 Z-16.931
X29.115 Y-169.873 Z-16.969
X29.094 Y-169.778 Z-16.992
X29.072 Y-169.681 Z-17
X28.936 Y-169.061
G3 X28.179 Y-168.577 I-0.62 J-0.136
G2 X27.282 Y-168.675 I-0.897 J4.077
G1 X18.782
G2 X16.537 Y-167.745 I0 J3.175
G1 X16.037 Y-167.245
G2 X15.107 Y-165 I2.245 J2.245
G1 Y-135.915
G2 X19.174 Y-131.741 I4.175 J0
G3 X19.174 Y-49.259 I-1.063 J41.241
G2 X15.107 Y-45.085 I0.107 J4.174
G1 Y-16
G2 X16.037 Y-13.755 I3.175 J0
G1 X16.537 Y-13.255
G2 X18.782 Y-12.325 I2.245 J-2.245
G1 X27.282
G2 X31.457 Y-16.5 I0 J-4.175
G1 Y-28.5
G3 X35.282 Y-32.325 I3.825 J0
G1 X64.647
G2 X70.428 Y-34.719 I0 J-8.175
G1 X87.499 Y-51.79
G2 X89.893 Y-57.571 I-5.781 J-5.781
G1 Y-123.429
G2 X87.499 Y-129.209 I-8.175 J0
G1 X70.428 Y-146.281
G2 X64.647 Y-148.675 I-5.78 J5.781
G1 X35.282
G3 X31.457 Y-152.5 I0 J-3.825
G1 Y-164.5
G2 X28.179 Y-168.577 I-4.175 J0
G3 X27.696 Y-169.334 I0.136 J-0.62
G1 X27.832 Y-169.954
X27.853 Y-170.051 Z-16.992
X27.874 Y-170.146 Z-16.969
X27.894 Y-170.236 Z-16.931
X27.912 Y-170.319 Z-16.879
X27.929 Y-170.393 Z-16.814
X27.943 Y-170.456 Z-16.738
X27.954 Y-170.507 Z-16.653
X27.962 Y-170.544 Z-16.561
X27.967 Y-170.567 Z-16.464
X27.969 Y-170.574 Z-16.365
G0 Z5
X29.209 Y-170.301
G1 Z-15 F2286
Z-17.365
X29.207 Y-170.294 Z-17.464 F1000
X29.202 Y-170.271 Z-17.561
X29.194 Y-170.234 Z-17.653
X29.183 Y-170.183 Z-17.738
X29.169 Y-170.12 Z-17.814
X29.153 Y-170.046 Z-17.879
X29.134 Y-169.963 Z-17.931
X29.115 Y-169.873 Z-17.969
X29.094 Y-169.778 Z-17.992
X29.072 Y-169.681 Z-18
X28.936 Y-169.061
G3 X28.179 Y-168.577 I-0.62 J-0.136
G2 X27.282 Y-168.675 I-0.897 J4.077
G1 X18.782
G2 X16.537 Y-167.745 I0 J3.175
G1 X16.037 Y-167.245
G2 X15.107 Y-165 I2.245 J2.245
G1 Y-135.915
G2 X19.174 Y-131.741 I4.175 J0
G3 X19.174 Y-49.259 I-1.063 J41.241
G2 X15.107 Y-45.085 I0.107 J4.174
G1 Y-16
G2 X16.037 Y-13.755 I3.175 J0
G1 X16.537 Y-13.255
G2 X18.782 Y-12.325 I2.245 J-2.245
G1 X27.282
G2 X31.457 Y-16.5 I0 J-4.175
G1 Y-28.5
G3 X35.282 Y-32.325 I3.825 J0
G1 X64.647
G2 X70.428 Y-34.719 I0 J-8.175
G1 X87.499 Y-51.79
G2 X89.893 Y-57.571 I-5.781 J-5.781
G1 Y-123.429
G2 X87.499 Y-129.209 I-8.175 J0
G1 X70.428 Y-146.281
G2 X64.647 Y-148.675 I-5.78 J5.781
G1 X35.282
G3 X31.457 Y-152.5 I0 J-3.825
G1 Y-164.5
G2 X28.179 Y-168.577 I-4.175 J0
G3 X27.696 Y-169.334 I0.136 J-0.62
G1 X27.832 Y-169.954
X27.853 Y-170.051 Z-17.992
X27.874 Y-170.146 Z-17.969
X27.894 Y-170.236 Z-17.931
X27.912 Y-170.319 Z-17.879
X27.929 Y-170.393 Z-17.814
X27.943 Y-170.456 Z-17.738
X27.954 Y-170.507 Z-17.653
X27.962 Y-170.544 Z-17.561
X27.967 Y-170.567 Z-17.464
X27.969 Y-170.574 Z-17.365
G0 Z5
X29.209 Y-170.301
G1 Z-16 F2286
Z-18.365
X29.207 Y-170.294 Z-18.464 F1000
X29.202 Y-170.271 Z-18.561
X29.194 Y-170.234 Z-18.653
X29.183 Y-170.183 Z-18.738
X29.169 Y-170.12 Z-18.814
X29.153 Y-170.046 Z-18.879
X29.134 Y-169.963 Z-18.931
X29.115 Y-169.873 Z-18.969
X29.094 Y-169.778 Z-18.992
X29.072 Y-169.681 Z-19
X28.936 Y-169.061
G3 X28.179 Y-168.577 I-0.62 J-0.136
G2 X27.282 Y-168.675 I-0.897 J4.077
G1 X18.782
G2 X16.537 Y-167.745 I0 J3.175
G1 X16.037 Y-167.245
G2 X15.107 Y-165 I2.245 J2.245
G1 Y-135.915
G2 X19.174 Y-131.741 I4.175 J0
G3 X19.174 Y-49.259 I-1.063 J41.241
G2 X15.107 Y-45.085 I0.107 J4.174
G1 Y-16
G2 X16.037 Y-13.755 I3.175 J0
G1 X16.537 Y-13.255
G2 X18.782 Y-12.325 I2.245 J-2.245
G1 X27.282
G2 X31.457 Y-16.5 I0 J-4.175
G1 Y-28.5
G3 X35.282 Y-32.325 I3.825 J0
G1 X64.647
G2 X70.428 Y-34.719 I0 J-8.175
G1 X87.499 Y-51.79
G2 X89.893 Y-57.571 I-5.781 J-5.781
G1 Y-123.429
G2 X87.499 Y-129.209 I-8.175 J0
G1 X70.428 Y-146.281
G2 X64.647 Y-148.675 I-5.78 J5.781
G1 X35.282
G3 X31.457 Y-152.5 I0 J-3.825
G1 Y-164.5
G2 X28.179 Y-168.577 I-4.175 J0
G3 X27.696 Y-169.334 I0.136 J-0.62
G1 X27.832 Y-169.954
X27.853 Y-170.051 Z-18.992
X27.874 Y-170.146 Z-18.969
X27.894 Y-170.236 Z-18.931
X27.912 Y-170.319 Z-18.879
X27.929 Y-170.393 Z-18.814
X27.943 Y-170.456 Z-18.738
X27.954 Y-170.507 Z-18.653
X27.962 Y-170.544 Z-18.561
X27.967 Y-170.567 Z-18.464
X27.969 Y-170.574 Z-18.365
G0 Z5
X29.209 Y-170.301
G1 Z-17 F2286
Z-19.365
X29.207 Y-170.294 Z-19.464 F1000
X29.202 Y-170.271 Z-19.561
X29.194 Y-170.234 Z-19.653
X29.183 Y-170.183 Z-19.738
X29.169 Y-170.12 Z-19.814
X29.153 Y-170.046 Z-19.879
X29.134 Y-169.963 Z-19.931
X29.115 Y-169.873 Z-19.969
X29.094 Y-169.778 Z-19.992
X29.072 Y-169.681 Z-20
X28.936 Y-169.061
G3 X28.179 Y-168.577 I-0.62 J-0.136
G2 X27.282 Y-168.675 I-0.897 J4.077
G1 X18.782
G2 X16.537 Y-167.745 I0 J3.175
G1 X16.037 Y-167.245
G2 X15.107 Y-165 I2.245 J2.245
G1 Y-135.915
G2 X19.174 Y-131.741 I4.175 J0
G3 X19.174 Y-49.259 I-1.063 J41.241
G2 X15.107 Y-45.085 I0.107 J4.174
G1 Y-16
G2 X16.037 Y-13.755 I3.175 J0
G1 X16.537 Y-13.255
G2 X18.782 Y-12.325 I2.245 J-2.245
G1 X27.282
G2 X31.457 Y-16.5 I0 J-4.175
G1 Y-28.5
G3 X35.282 Y-32.325 I3.825 J0
G1 X64.647
G2 X70.428 Y-34.719 I0 J-8.175
G1 X87.499 Y-51.79
G2 X89.893 Y-57.571 I-5.781 J-5.781
G1 Y-123.429
G2 X87.499 Y-129.209 I-8.175 J0
G1 X70.428 Y-146.281
G2 X64.647 Y-148.675 I-5.78 J5.781
G1 X35.282
G3 X31.457 Y-152.5 I0 J-3.825
G1 Y-164.5
G2 X28.179 Y-168.577 I-4.175 J0
G3 X27.696 Y-169.334 I0.136 J-0.62
G1 X27.832 Y-169.954
X27.853 Y-170.051 Z-19.992
X27.874 Y-170.146 Z-19.969
X27.894 Y-170.236 Z-19.931
X27.912 Y-170.319 Z-19.879
X27.929 Y-170.393 Z-19.814
X27.943 Y-170.456 Z-19.738
X27.954 Y-170.507 Z-19.653
X27.962 Y-170.544 Z-19.561
X27.967 Y-170.567 Z-19.464
X27.969 Y-170.574 Z-19.365
G0 Z5
X29.209 Y-170.301
G1 Z-18 F2286
Z-20.365
X29.207 Y-170.294 Z-20.464 F1000
X29.202 Y-170.271 Z-20.561
X29.194 Y-170.234 Z-20.653
X29.183 Y-170.183 Z-20.738
X29.169 Y-170.12 Z-20.814
X29.153 Y-170.046 Z-20.879
X29.134 Y-169.963 Z-20.931
X29.115 Y-169.873 Z-20.969
X29.094 Y-169.778 Z-20.992
X29.072 Y-169.681 Z-21
X28.936 Y-169.061
G3 X28.179 Y-168.577 I-0.62 J-0.136
G2 X27.282 Y-168.675 I-0.897 J4.077
G1 X18.782
G2 X16.537 Y-167.745 I0 J3.175
G1 X16.037 Y-167.245
G2 X15.107 Y-165 I2.245 J2.245
G1 Y-135.915
G2 X19.174 Y-131.741 I4.175 J0
G3 X19.174 Y-49.259 I-1.063 J41.241
G2 X15.107 Y-45.085 I0.107 J4.174
G1 Y-16
G2 X16.037 Y-13.755 I3.175 J0
G1 X16.537 Y-13.255
G2 X18.782 Y-12.325 I2.245 J-2.245
G1 X27.282
G2 X31.457 Y-16.5 I0 J-4.175
G1 Y-28.5
G3 X35.282 Y-32.325 I3.825 J0
G1 X64.647
G2 X70.428 Y-34.719 I0 J-8.175
G1 X87.499 Y-51.79
G2 X89.893 Y-57.571 I-5.781 J-5.781
G1 Y-123.429
G2 X87.499 Y-129.209 I-8.175 J0
G1 X70.428 Y-146.281
G2 X64.647 Y-148.675 I-5.78 J5.781
G1 X35.282
G3 X31.457 Y-152.5 I0 J-3.825
G1 Y-164.5
G2 X28.179 Y-168.577 I-4.175 J0
G3 X27.696 Y-169.334 I0.136 J-0.62
G1 X27.832 Y-169.954
X27.853 Y-170.051 Z-20.992
X27.874 Y-170.146 Z-20.969
X27.894 Y-170.236 Z-20.931
X27.912 Y-170.319 Z-20.879
X27.929 Y-170.393 Z-20.814
X27.943 Y-170.456 Z-20.738
X27.954 Y-170.507 Z-20.653
X27.962 Y-170.544 Z-20.561
X27.967 Y-170.567 Z-20.464
X27.969 Y-170.574 Z-20.365
G0 Z5
X29.209 Y-170.301
G1 Z-19 F2286
Z-21.365
X29.207 Y-170.294 Z-21.464 F1000
X29.202 Y-170.271 Z-21.561
X29.194 Y-170.234 Z-21.653
X29.183 Y-170.183 Z-21.738
X29.169 Y-170.12 Z-21.814
X29.153 Y-170.046 Z-21.879
X29.134 Y-169.963 Z-21.931
X29.115 Y-169.873 Z-21.969
X29.094 Y-169.778 Z-21.992
X29.072 Y-169.681 Z-22
X28.936 Y-169.061
G3 X28.179 Y-168.577 I-0.62 J-0.136
G2 X27.282 Y-168.675 I-0.897 J4.077
G1 X18.782
G2 X16.537 Y-167.745 I0 J3.175
G1 X16.037 Y-167.245
G2 X15.107 Y-165 I2.245 J2.245
G1 Y-135.915
G2 X19.174 Y-131.741 I4.175 J0
G3 X19.174 Y-49.259 I-1.063 J41.241
G2 X15.107 Y-45.085 I0.107 J4.174
G1 Y-16
G2 X16.037 Y-13.755 I3.175 J0
G1 X16.537 Y-13.255
G2 X18.782 Y-12.325 I2.245 J-2.245
G1 X27.282
G2 X31.457 Y-16.5 I0 J-4.175
G1 Y-28.5
G3 X35.282 Y-32.325 I3.825 J0
G1 X64.647
G2 X70.428 Y-34.719 I0 J-8.175
G1 X87.499 Y-51.79
G2 X89.893 Y-57.571 I-5.781 J-5.781
G1 Y-123.429
G2 X87.499 Y-129.209 I-8.175 J0
G1 X70.428 Y-146.281
G2 X64.647 Y-148.675 I-5.78 J5.781
G1 X35.282
G3 X31.457 Y-152.5 I0 J-3.825
G1 Y-164.5
G2 X28.179 Y-168.577 I-4.175 J0
G3 X27.696 Y-169.334 I0.136 J-0.62
G1 X27.832 Y-169.954
X27.853 Y-170.051 Z-21.992
X27.874 Y-170.146 Z-21.969
X27.894 Y-170.236 Z-21.931
X27.912 Y-170.319 Z-21.879
X27.929 Y-170.393 Z-21.814
X27.943 Y-170.456 Z-21.738
X27.954 Y-170.507 Z-21.653
X27.962 Y-170.544 Z-21.561
X27.967 Y-170.567 Z-21.464
X27.969 Y-170.574 Z-21.365
G0 Z5
X29.209 Y-170.301
G1 Z-20 F2286
Z-22.365
X29.207 Y-170.294 Z-22.464 F1000
X29.202 Y-170.271 Z-22.561
X29.194 Y-170.234 Z-22.653
X29.183 Y-170.183 Z-22.738
X29.169 Y-170.12 Z-22.814
X29.153 Y-170.046 Z-22.879
X29.134 Y-169.963 Z-22.931
X29.115 Y-169.873 Z-22.969
X29.094 Y-169.778 Z-22.992
X29.072 Y-169.681 Z-23
X28.936 Y-169.061
G3 X28.179 Y-168.577 I-0.62 J-0.136
G2 X27.282 Y-168.675 I-0.897 J4.077
G1 X18.782
G2 X16.537 Y-167.745 I0 J3.175
G1 X16.037 Y-167.245
G2 X15.107 Y-165 I2.245 J2.245
G1 Y-135.915
G2 X19.174 Y-131.741 I4.175 J0
G3 X19.174 Y-49.259 I-1.063 J41.241
G2 X15.107 Y-45.085 I0.107 J4.174
G1 Y-16
G2 X16.037 Y-13.755 I3.175 J0
G1 X16.537 Y-13.255
G2 X18.782 Y-12.325 I2.245 J-2.245
G1 X27.282
G2 X31.457 Y-16.5 I0 J-4.175
G1 Y-28.5
G3 X35.282 Y-32.325 I3.825 J0
G1 X64.647
G2 X70.428 Y-34.719 I0 J-8.175
G1 X87.499 Y-51.79
G2 X89.893 Y-57.571 I-5.781 J-5.781
G1 Y-123.429
G2 X87.499 Y-129.209 I-8.175 J0
G1 X70.428 Y-146.281
G2 X64.647 Y-148.675 I-5.78 J5.781
G1 X35.282
G3 X31.457 Y-152.5 I0 J-3.825
G1 Y-164.5
G2 X28.179 Y-168.577 I-4.175 J0
G3 X27.696 Y-169.334 I0.136 J-0.62
G1 X27.832 Y-169.954
X27.853 Y-170.051 Z-22.992
X27.874 Y-170.146 Z-22.969
X27.894 Y-170.236 Z-22.931
X27.912 Y-170.319 Z-22.879
X27.929 Y-170.393 Z-22.814
X27.943 Y-170.456 Z-22.738
X27.954 Y-170.507 Z-22.653
X27.962 Y-170.544 Z-22.561
X27.967 Y-170.567 Z-22.464
X27.969 Y-170.574 Z-22.365
G0 Z5
X29.209 Y-170.301
G1 Z-21 F2286
Z-23.365
X29.207 Y-170.294 Z-23.464 F1000
X29.202 Y-170.271 Z-23.561
X29.194 Y-170.234 Z-23.653
X29.183 Y-170.183 Z-23.738
X29.169 Y-170.12 Z-23.814
X29.153 Y-170.046 Z-23.879
X29.134 Y-169.963 Z-23.931
X29.115 Y-169.873 Z-23.969
X29.094 Y-169.778 Z-23.992
X29.072 Y-169.681 Z-24
X28.936 Y-169.061
G3 X28.179 Y-168.577 I-0.62 J-0.136
G2 X27.282 Y-168.675 I-0.897 J4.077
G1 X18.782
G2 X16.537 Y-167.745 I0 J3.175
G1 X16.037 Y-167.245
G2 X15.107 Y-165 I2.245 J2.245
G1 Y-135.915
G2 X19.174 Y-131.741 I4.175 J0
G3 X19.174 Y-49.259 I-1.063 J41.241
G2 X15.107 Y-45.085 I0.107 J4.174
G1 Y-16
G2 X16.037 Y-13.755 I3.175 J0
G1 X16.537 Y-13.255
G2 X18.782 Y-12.325 I2.245 J-2.245
G1 X27.282
G2 X31.457 Y-16.5 I0 J-4.175
G1 Y-28.5
G3 X35.282 Y-32.325 I3.825 J0
G1 X64.647
G2 X70.428 Y-34.719 I0 J-8.175
G1 X87.499 Y-51.79
G2 X89.893 Y-57.571 I-5.781 J-5.781
G1 Y-123.429
G2 X87.499 Y-129.209 I-8.175 J0
G1 X70.428 Y-146.281
G2 X64.647 Y-148.675 I-5.78 J5.781
G1 X35.282
G3 X31.457 Y-152.5 I0 J-3.825
G1 Y-164.5
G2 X28.179 Y-168.577 I-4.175 J0
G3 X27.696 Y-169.334 I0.136 J-0.62
G1 X27.832 Y-169.954
X27.853 Y-170.051 Z-23.992
X27.874 Y-170.146 Z-23.969
X27.894 Y-170.236 Z-23.931
X27.912 Y-170.319 Z-23.879
X27.929 Y-170.393 Z-23.814
X27.943 Y-170.456 Z-23.738
X27.954 Y-170.507 Z-23.653
X27.962 Y-170.544 Z-23.561
X27.967 Y-170.567 Z-23.464
X27.969 Y-170.574 Z-23.365
G0 Z5
X29.209 Y-170.301
G1 Z-22 F2286
Z-23.865
X29.207 Y-170.294 Z-23.964 F1000
X29.202 Y-170.271 Z-24.061
X29.194 Y-170.234 Z-24.153
X29.183 Y-170.183 Z-24.238
X29.169 Y-170.12 Z-24.314
X29.153 Y-170.046 Z-24.379
X29.134 Y-169.963 Z-24.431
X29.115 Y-169.873 Z-24.469
X29.094 Y-169.778 Z-24.492
X29.072 Y-169.681 Z-24.5
X28.936 Y-169.061
G3 X28.179 Y-168.577 I-0.62 J-0.136
G2 X27.282 Y-168.675 I-0.897 J4.077
G1 X18.782
G2 X16.537 Y-167.745 I0 J3.175
G1 X16.037 Y-167.245
G2 X15.107 Y-165 I2.245 J2.245
G1 Y-135.915
G2 X19.174 Y-131.741 I4.175 J0
G3 X19.174 Y-49.259 I-1.063 J41.241
G2 X15.107 Y-45.085 I0.107 J4.174
G1 Y-16
G2 X16.037 Y-13.755 I3.175 J0
G1 X16.537 Y-13.255
G2 X18.782 Y-12.325 I2.245 J-2.245
G1 X27.282
G2 X31.457 Y-16.5 I0 J-4.175
G1 Y-28.5
G3 X35.282 Y-32.325 I3.825 J0
G1 X64.647
G2 X70.428 Y-34.719 I0 J-8.175
G1 X87.499 Y-51.79
G2 X89.893 Y-57.571 I-5.781 J-5.781
G1 Y-123.429
G2 X87.499 Y-129.209 I-8.175 J0
G1 X70.428 Y-146.281
G2 X64.647 Y-148.675 I-5.78 J5.781
G1 X35.282
G3 X31.457 Y-152.5 I0 J-3.825
G1 Y-164.5
G2 X28.179 Y-168.577 I-4.175 J0
G3 X27.696 Y-169.334 I0.136 J-0.62
G1 X27.832 Y-169.954
X27.853 Y-170.051 Z-24.492
X27.874 Y-170.146 Z-24.469
X27.894 Y-170.236 Z-24.431
X27.912 Y-170.319 Z-24.379
X27.929 Y-170.393 Z-24.314
X27.943 Y-170.456 Z-24.238
X27.954 Y-170.507 Z-24.153
X27.962 Y-170.544 Z-24.061
X27.967 Y-170.567 Z-23.964
X27.969 Y-170.574 Z-23.865
G0 Z15
M9
G28 G91 Z0
G90
G28 G91 X0 Y0
G90
M5
M30
