(rest2)
(T1 D=6.35 CR=0 - ZMIN=-13.7 - flat end mill)
G90 G94
G17
G21
G28 G91 Z0
G90

(2D Contour6)
T1
S18000 M3
G17 G90 G94
G54
G0 X107.963 Y-19.026
Z15
G0 Z5
G1 Z1 F8.3
Z-13.065
G19 G3 Y-18.391 Z-13.7 J0.635 K0 F25
G1 Y-17.756
G17 G3 X107.328 Y-17.121 I-0.635 J0
G1 X99.839
X106.043 Y-23.325
X108.957
X115.161 Y-17.121
X107.328
G3 X106.693 Y-17.756 I0 J-0.635
G1 Y-18.391
G19 G2 Y-19.026 Z-13.065 J0 K0.635
G0 Z5
X83.798 Y-19.825
G1 Z1 F8.3
Z-13.065
X83.803 Y-19.82 Z-13.164 F25
X83.82 Y-19.803 Z-13.261
X83.847 Y-19.776 Z-13.353
X83.883 Y-19.74 Z-13.438
X83.929 Y-19.694 Z-13.514
X83.983 Y-19.64 Z-13.579
X84.043 Y-19.58 Z-13.631
X84.108 Y-19.515 Z-13.669
X84.176 Y-19.446 Z-13.692
X84.247 Y-19.376 Z-13.7
X84.696 Y-18.927
G17 G3 X84.696 Y-18.029 I-0.449 J0.449
G1 X83.787 Y-17.121
X81.164
X74.956 Y-23.325
X89.992
X84.696 Y-18.029
G3 X83.798 Y-18.029 I-0.449 J-0.449
G1 X83.349 Y-18.478
X83.278 Y-18.548 Z-13.692
X83.21 Y-18.617 Z-13.669
X83.145 Y-18.682 Z-13.631
X83.085 Y-18.742 Z-13.579
X83.031 Y-18.796 Z-13.514
X82.985 Y-18.841 Z-13.438
X82.949 Y-18.878 Z-13.353
X82.922 Y-18.905 Z-13.261
X82.905 Y-18.922 Z-13.164
X82.9 Y-18.927 Z-13.065
G0 Z5
X58.122 Y-19.026
G1 Z1 F8.3
Z-13.065
G19 G3 Y-18.391 Z-13.7 J0.635 K0 F25
G1 Y-17.756
G17 G3 X57.487 Y-17.121 I-0.635 J0
G1 X49.998
X56.202 Y-23.325
X58.901
X65.106 Y-17.121
X57.487
G3 X56.852 Y-17.756 I0 J-0.635
G1 Y-18.391
G19 G2 Y-19.026 Z-13.065 J0 K0.635
G0 Z5
X35.052 Y-20.92
G1 Z1 F8.3
Z-13.065
X35.057 Y-20.915 Z-13.164 F25
X35.074 Y-20.898 Z-13.261
X35.101 Y-20.871 Z-13.353
X35.138 Y-20.834 Z-13.438
X35.183 Y-20.789 Z-13.514
X35.237 Y-20.735 Z-13.579
X35.297 Y-20.675 Z-13.631
X35.362 Y-20.61 Z-13.669
X35.431 Y-20.541 Z-13.692
X35.501 Y-20.471 Z-13.7
X35.95 Y-20.022
G17 G3 X35.95 Y-19.124 I-0.449 J0.449
G1 X33.946 Y-17.12
X33.724 Y-17.11
G3 X31.749 Y-18.929 I-0.15 J-1.819
G1 Y-21.5
G3 X33.574 Y-23.325 I1.825 J0
G1 X40.151
X35.95 Y-19.124
G3 X35.052 Y-19.124 I-0.449 J-0.449
G1 X34.603 Y-19.573
X34.533 Y-19.643 Z-13.692
X34.464 Y-19.712 Z-13.669
X34.399 Y-19.777 Z-13.631
X34.339 Y-19.837 Z-13.579
X34.285 Y-19.891 Z-13.514
X34.24 Y-19.936 Z-13.438
X34.203 Y-19.973 Z-13.353
X34.176 Y-20 Z-13.261
X34.159 Y-20.017 Z-13.164
X34.154 Y-20.022 Z-13.065
G0 Z5
X133.133 Y-19.026
G1 Z1 F8.3
Z-13.065
G19 G3 Y-18.391 Z-13.7 J0.635 K0 F25
G1 Y-17.756
G17 G3 X132.498 Y-17.121 I-0.635 J0
G1 X131.213
X125.009 Y-23.325
X140.044
X133.836 Y-17.121
X132.498
G3 X131.863 Y-17.756 I0 J-0.635
G1 Y-18.391
G19 G2 Y-19.026 Z-13.065 J0 K0.635
G0 Z5
X157.91 Y-21.518
G1 Z1 F8.3
Z-13.065
X157.915 Y-21.524 Z-13.164 F25
X157.932 Y-21.54 Z-13.261
X157.959 Y-21.567 Z-13.353
X157.996 Y-21.604 Z-13.438
X158.041 Y-21.65 Z-13.514
X158.095 Y-21.703 Z-13.579
X158.155 Y-21.764 Z-13.631
X158.22 Y-21.829 Z-13.669
X158.289 Y-21.897 Z-13.692
X158.359 Y-21.967 Z-13.7
X158.808 Y-22.416
G17 G3 X159.706 Y-22.416 I0.449 J0.449
G1 X165.002 Y-17.121
X149.894
X156.099 Y-23.325
X158.797
X159.706 Y-22.416
G3 X159.706 Y-21.518 I-0.449 J0.449
G1 X159.257 Y-21.069
X159.187 Y-20.999 Z-13.692
X159.118 Y-20.931 Z-13.669
X159.053 Y-20.866 Z-13.631
X158.993 Y-20.805 Z-13.579
X158.939 Y-20.752 Z-13.514
X158.894 Y-20.706 Z-13.438
X158.857 Y-20.669 Z-13.353
X158.83 Y-20.642 Z-13.261
X158.813 Y-20.626 Z-13.164
X158.808 Y-20.62 Z-13.065
G0 Z5
X181.346 Y-21.499
G1 Z1 F8.3
Z-13.065
G18 G2 X181.981 Z-13.7 I0.635 K0 F25
G1 X182.616
G17 G3 X183.251 Y-20.864 I0 J0.635
G1 Y-18.929
G3 X181.276 Y-17.11 I-1.825 J0
G1 X181.054 Y-17.12
X174.849 Y-23.325
X181.426
G3 X183.251 Y-21.5 I0 J1.825
G1 Y-20.864
G3 X182.616 Y-20.229 I-0.635 J0
G1 X181.981
G18 G3 X181.346 Z-13.065 I0 K0.635
G0 Z5
X194.92 Y-20.635
G1 Z1 F8.3
Z-13.065
G2 X195.555 Z-13.7 I0.635 K0 F25
G1 X196.19
G17 G3 X196.825 Y-20 I0 J0.635
X193.175 Y-20 I-1.825 J0
X196.825 Y-20 I1.825 J0
X196.19 Y-19.365 I-0.635 J0
G1 X195.555
G18 G3 X194.92 Z-13.065 I0 K0.635
G0 Z15
G17
G28 G91 Z0
G90
G28 G91 X0 Y0
G90
M5
M30
