(1001)
(T1  D=6.35 CR=0 - ZMIN=-27.481 - flat end mill)
G90 G94
G17
G21
G28 G91 Z0
G90

(2D Contour5)
T1
S18000 M3
G54
M8
G0 X41.158 Y-113.964
Z15
Z5
G1 Z3.135 F2286
X41.156 Y-113.957 Z3.036 F90
X41.15 Y-113.934 Z2.939
X41.14 Y-113.898 Z2.847
X41.126 Y-113.847 Z2.762
X41.109 Y-113.785 Z2.686
X41.088 Y-113.712 Z2.621
X41.066 Y-113.63 Z2.569
X41.041 Y-113.541 Z2.531
X41.016 Y-113.448 Z2.508
X40.989 Y-113.352 Z2.5
X40.82 Y-112.74
G3 X40.039 Y-112.297 I-0.612 J-0.169
G2 X34.022 Y-113.112 Z2.287 I-6.016 J21.797 F2286
X11.41 Y-90.5 Z1.047 I0 J22.612
X34.022 Y-67.888 Z-0.193 I22.612 J0
X50.012 Y-74.51 Z-0.814 I0 J-22.612
X56.635 Y-90.5 Z-1.434 I-15.989 J-15.989
X34.022 Y-113.112 Z-2.674 I-22.612 J0
X11.41 Y-90.5 Z-3.914 I0 J22.612
X34.022 Y-67.888 Z-5.155 I22.612 J0
X50.012 Y-74.51 Z-5.775 I0 J-22.612
X56.635 Y-90.5 Z-6.395 I-15.989 J-15.989
X34.022 Y-113.112 Z-7.636 I-22.612 J0
X11.41 Y-90.5 Z-8.876 I0 J22.612
X34.022 Y-67.888 Z-10.116 I22.612 J0
X50.012 Y-74.51 Z-10.736 I0 J-22.612
X56.635 Y-90.5 Z-11.357 I-15.989 J-15.989
X34.022 Y-113.112 Z-12.597 I-22.612 J0
X11.41 Y-90.5 Z-13.837 I0 J22.612
X34.022 Y-67.888 Z-15.078 I22.612 J0
X50.012 Y-74.51 Z-15.698 I0 J-22.612
X56.635 Y-90.5 Z-16.318 I-15.989 J-15.989
X34.022 Y-113.112 Z-17.558 I-22.612 J0
X11.41 Y-90.5 Z-18.799 I0 J22.612
X34.022 Y-67.888 Z-20.039 I22.612 J0
X50.012 Y-74.51 Z-20.659 I0 J-22.612
X56.635 Y-90.5 Z-21.28 I-15.989 J-15.989
X34.022 Y-113.112 Z-22.52 I-22.612 J0
X11.41 Y-90.5 Z-23.76 I0 J22.612
X34.022 Y-67.888 Z-25.001 I22.612 J0
X50.012 Y-74.51 Z-25.621 I0 J-22.612
X56.635 Y-90.5 Z-26.241 I-15.989 J-15.989
X34.022 Y-113.112 Z-27.481 I-22.612 J0
X11.41 Y-90.5 I0 J22.612 F90
X34.022 Y-67.888 I22.612 J0
X50.012 Y-74.51 I0 J-22.612
X56.635 Y-90.5 I-15.989 J-15.989
X34.022 Y-113.112 I-22.612 J0
G3 X33.387 Y-113.747 I0 J-0.635
G1 Y-114.382
G19 G2 Y-115.017 Z-26.846 J0 K0.635
G0 Z15
G17
M9
G28 G91 Z0
G90
G28 G91 X0 Y0
G90
M5
M30
