(rsckInnerFix_v2)
(T9 D=3.175 CR=0 - ZMIN=-6.56 - flat end mill)
G90 G94
G17
G21
G28 G91 Z0
G90

(2D Contour3 2)
T9
S18000 M3
G17 G90 G94
G54
G0 X422.357 Y-13.464
Z15
G0 Z5
G1 Z1 F16.7
Z-6.243
X422.365 Z-6.313 F50
X422.389 Y-13.462 Z-6.38
X422.426 Y-13.46 Z-6.44
X422.476 Y-13.457 Z-6.491
X422.537 Y-13.453 Z-6.529
X422.604 Y-13.449 Z-6.552
X422.674 Y-13.445 Z-6.56
X422.991 Y-13.426
G3 X423.289 Y-13.09 I-0.019 J0.317
X411.485 Y-13.797 I-5.902 J-0.354
X423.289 Y-13.09 I5.902 J0.354
X422.953 Y-12.792 I-0.317 J-0.019
G1 X422.636 Y-12.811
X422.566 Y-12.815 Z-6.552
X422.499 Y-12.819 Z-6.529
X422.438 Y-12.823 Z-6.491
X422.388 Y-12.826 Z-6.44
X422.351 Y-12.828 Z-6.38
X422.327 Y-12.83 Z-6.313
X422.319 Z-6.243
G0 Z5
X436.13 Y-50.274
G1 Z1 F16.7
Z-6.243
G18 G2 X436.448 Z-6.56 I0.318 K0 F50
G1 X436.765
G17 G3 X437.082 Y-49.956 I0 J0.318
X425.258 Y-49.956 I-5.912 J0
X437.082 Y-49.956 I5.912 J0
X436.765 Y-49.639 I-0.317 J0
G1 X436.448
G18 G3 X436.13 Z-6.243 I0 K0.318
G0 Z5
X438.189 Y-98.2
G1 Z1 F16.7
Z-6.243
G2 X438.507 Z-6.56 I0.318 K0 F50
G1 X438.824
G17 G3 X439.142 Y-97.882 I0 J0.317
G1 Y-78.882
G3 X436.729 Y-76.47 I-2.413 J0
G1 X434.729
G3 X432.316 Y-78.882 I0 J-2.412
G1 Y-98.882
G3 X434.729 Y-101.295 I2.412 J0
G1 X436.729
G3 X439.142 Y-98.882 I0 J2.412
G1 Y-97.882
G3 X438.824 Y-97.564 I-0.318 J0
G1 X438.507
G18 G3 X438.189 Z-6.243 I0 K0.318
G0 Z5
X14.212 Y-115.199
G1 Z1 F16.7
Z-6.243
G2 X14.529 Z-6.56 I0.317 K0 F50
G1 X14.847
G17 G3 X15.164 Y-114.881 I0 J0.318
G1 Y-114.381
G3 X14.752 Y-113.968 I-0.412 J0
G1 X8.752
G3 X8.339 Y-114.381 I0 J-0.412
G1 Y-115.381
G3 X8.752 Y-115.794 I0.413 J0
G1 X14.752
G3 X15.164 Y-115.381 I0 J0.413
G1 Y-114.881
G3 X14.847 Y-114.563 I-0.318 J0
G1 X14.529
G18 G3 X14.212 Z-6.243 I0 K0.318
G0 Z5
X8.934 Y-62.844
G1 Z1 F16.7
Z-6.243
G19 G2 Y-63.161 Z-6.56 J-0.318 K0 F50
G1 Y-63.479
G17 G3 X9.252 Y-63.796 I0.318 J0
G1 X14.752
G3 X15.164 Y-63.384 I0 J0.412
G1 Y-62.384
G3 X14.752 Y-61.971 I-0.412 J0
G1 X8.752
G3 X8.339 Y-62.384 I0 J-0.412
G1 Y-63.384
G3 X8.752 Y-63.796 I0.413 J0
G1 X9.252
G3 X9.569 Y-63.479 I0 J0.317
G1 Y-63.161
G19 G3 Y-62.844 Z-6.243 J0 K0.318
G0 Z15
G17
G28 G91 Z0
G90
G28 G91 X0 Y0
G90
M5
M30
