(sheildPlexyFrame_innerCut_01)
(T1 D=3.175 CR=0 - ZMIN=-5.3 - flat end mill)
G90 G94
G17
G21
G28 G91 Z0
G90

(2D Contour13)
T1
S18000 M3
G17 G90 G94
G54
G0 X377.46 Y-127.318
Z15
G0 Z5
G1 Z0.635 F16
Z-4.983
G18 G2 X377.777 Z-5.3 I0.318 K0 F75
G1 X378.095
G17 G3 X378.413 Y-127 I0 J0.318
G1 Y-29.956
G3 X370 Y-21.544 I-8.413 J0
G1 X30
G3 X21.587 Y-29.956 I0 J-8.413
G1 Y-224.044
G3 X30 Y-232.456 I8.413 J0
G1 X370
G3 X378.413 Y-224.044 I0 J8.412
G1 Y-127
G3 X378.095 Y-126.683 I-0.318 J0
G1 X377.777
G18 G3 X377.46 Z-4.983 I0 K0.318
G0 Z15
G17

G28 G91 Z0
G90
G28 G91 X0 Y0
G90
M5
M30
