(sheildPlexyFrame_OuterCut_01)
(T1 D=3.175 CR=0 - ZMIN=-5.3 - flat end mill)
G90 G94
G17
G21
G28 G91 Z0
G90

(2D Contour14)
T1
S18000 M3
G17 G90 G94
G54
G0 X385.318 Y-256.54
Z15
G0 Z5
G1 Z0.635 F16
Z-4.983
G19 G3 Y-256.223 Z-5.3 J0.318 K0 F75
G1 Y-255.905
G17 G3 X385 Y-255.587 I-0.318 J0
G1 X15
G2 X-1.587 Y-239 I0 J16.587
G1 Y-15
G2 X15 Y1.587 I16.587 J0
G1 X385
G2 X401.587 Y-15 I0 J-16.587
G1 Y-239
G2 X385 Y-255.587 I-16.587 J0
G3 X384.682 Y-255.905 I0 J-0.318
G1 Y-256.223
G19 G2 Y-256.54 Z-4.983 J0 K0.318
G0 Z15
G17

G28 G91 Z0
G90
G28 G91 X0 Y0
G90
M5
M30
