(shield_iso_holes_01)
(T55 D=1.587 CR=0 - ZMIN=-8 - flat end mill)
G90 G94
G17
G21
G28 G91 Z0
G90

(2D Contour7)
T55
S18000 M3
G17 G90 G94
G54
M8
G0 X251.383 Y-246.159
Z15
G0 Z5
G1 Z0.317 F50.5
Z-7.841
X251.391 Z-7.89 F100
X251.413 Z-7.935
X251.448 Z-7.97
X251.493 Z-7.992
X251.542 Z-8
X251.701
X251.75 Y-246.151
X251.794 Y-246.128
X251.829 Y-246.093
X251.851 Y-246.049
X251.859 Y-246
G3 X249.447 Y-246 I-1.206 J0
X251.859 Y-246 I1.206 J0
G1 X251.851 Y-245.951 F50
X251.829 Y-245.907
X251.794 Y-245.872
X251.75 Y-245.849
X251.701 Y-245.841
X251.542
X251.493 Z-7.992
X251.448 Z-7.97
X251.413 Z-7.935
X251.391 Z-7.89
X251.383 Z-7.841
G0 Z5
X336.676 Y-246.159
G1 Z0.317 F50.5
Z-7.841
X336.684 Z-7.89 F100
X336.706 Z-7.935
X336.741 Z-7.97
X336.786 Z-7.992
X336.835 Z-8
X336.993
X337.043 Y-246.151
X337.087 Y-246.128
X337.122 Y-246.093
X337.144 Y-246.049
X337.152 Y-246
G3 X334.74 Y-246 I-1.206 J0
X337.152 Y-246 I1.206 J0
G1 X337.144 Y-245.951 F50
X337.122 Y-245.907
X337.087 Y-245.872
X337.043 Y-245.849
X336.993 Y-245.841
X336.835
X336.786 Z-7.992
X336.741 Z-7.97
X336.706 Z-7.935
X336.684 Z-7.89
X336.676 Z-7.841
G0 Z5
X392.73 Y-207.436
G1 Z0.317 F50.5
Z-7.841
X392.738 Z-7.89 F100
X392.76 Z-7.935
X392.795 Z-7.97
X392.84 Z-7.992
X392.889 Z-8
X393.047
X393.097 Y-207.428
X393.141 Y-207.405
X393.176 Y-207.37
X393.198 Y-207.326
X393.206 Y-207.277
G3 X390.794 Y-207.277 I-1.206 J0
X393.206 Y-207.277 I1.206 J0
G1 X393.198 Y-207.228 F50
X393.176 Y-207.184
X393.141 Y-207.149
X393.097 Y-207.126
X393.047 Y-207.118
X392.889
X392.84 Z-7.992
X392.795 Z-7.97
X392.76 Z-7.935
X392.738 Z-7.89
X392.73 Z-7.841
G0 Z5
Y-172.096
G1 Z0.317 F50.5
Z-7.841
X392.738 Z-7.89 F100
X392.76 Z-7.935
X392.795 Z-7.97
X392.84 Z-7.992
X392.889 Z-8
X393.047
X393.097 Y-172.088
X393.141 Y-172.065
X393.176 Y-172.03
X393.198 Y-171.986
X393.206 Y-171.937
G3 X390.794 Y-171.937 I-1.206 J0
X393.206 Y-171.937 I1.206 J0
G1 X393.198 Y-171.888 F50
X393.176 Y-171.844
X393.141 Y-171.809
X393.097 Y-171.786
X393.047 Y-171.778
X392.889
X392.84 Z-7.992
X392.795 Z-7.97
X392.76 Z-7.935
X392.738 Z-7.89
X392.73 Z-7.841
G0 Z5
Y-82.222
G1 Z0.317 F50.5
Z-7.841
X392.738 Z-7.89 F100
X392.76 Z-7.935
X392.795 Z-7.97
X392.84 Z-7.992
X392.889 Z-8
X393.047
X393.097 Y-82.214
X393.141 Y-82.191
X393.176 Y-82.156
X393.198 Y-82.112
X393.206 Y-82.063
G3 X390.794 Y-82.063 I-1.206 J0
X393.206 Y-82.063 I1.206 J0
G1 X393.198 Y-82.014 F50
X393.176 Y-81.97
X393.141 Y-81.935
X393.097 Y-81.912
X393.047 Y-81.904
X392.889
X392.84 Z-7.992
X392.795 Z-7.97
X392.76 Z-7.935
X392.738 Z-7.89
X392.73 Z-7.841
G0 Z5
Y-46.882
G1 Z0.317 F50.5
Z-7.841
X392.738 Z-7.89 F100
X392.76 Z-7.935
X392.795 Z-7.97
X392.84 Z-7.992
X392.889 Z-8
X393.047
X393.097 Y-46.874
X393.141 Y-46.852
X393.176 Y-46.816
X393.198 Y-46.772
X393.206 Y-46.723
G3 X390.794 Y-46.723 I-1.206 J0
X393.206 Y-46.723 I1.206 J0
G1 X393.198 Y-46.674 F50
X393.176 Y-46.63
X393.141 Y-46.595
X393.097 Y-46.572
X393.047 Y-46.564
X392.889
X392.84 Z-7.992
X392.795 Z-7.97
X392.76 Z-7.935
X392.738 Z-7.89
X392.73 Z-7.841
G0 Z5
X336.676 Y-8.159
G1 Z0.317 F50.5
Z-7.841
X336.684 Z-7.89 F100
X336.706 Z-7.935
X336.741 Z-7.97
X336.786 Z-7.992
X336.835 Z-8
X336.993
X337.043 Y-8.151
X337.087 Y-8.128
X337.122 Y-8.093
X337.144 Y-8.049
X337.152 Y-8
G3 X334.74 Y-8 I-1.206 J0
X337.152 Y-8 I1.206 J0
G1 X337.144 Y-7.951 F50
X337.122 Y-7.907
X337.087 Y-7.872
X337.043 Y-7.849
X336.993 Y-7.841
X336.835
X336.786 Z-7.992
X336.741 Z-7.97
X336.706 Z-7.935
X336.684 Z-7.89
X336.676 Z-7.841
G0 Z5
X251.383 Y-8.159
G1 Z0.317 F50.5
Z-7.841
X251.391 Z-7.89 F100
X251.413 Z-7.935
X251.448 Z-7.97
X251.493 Z-7.992
X251.542 Z-8
X251.701
X251.75 Y-8.151
X251.794 Y-8.128
X251.829 Y-8.093
X251.851 Y-8.049
X251.859 Y-8
G3 X249.447 Y-8 I-1.206 J0
X251.859 Y-8 I1.206 J0
G1 X251.851 Y-7.951 F50
X251.829 Y-7.907
X251.794 Y-7.872
X251.75 Y-7.849
X251.701 Y-7.841
X251.542
X251.493 Z-7.992
X251.448 Z-7.97
X251.413 Z-7.935
X251.391 Z-7.89
X251.383 Z-7.841
G0 Z5
X150.077 Y-8.159
G1 Z0.317 F50.5
Z-7.841
X150.085 Z-7.89 F100
X150.107 Z-7.935
X150.142 Z-7.97
X150.187 Z-7.992
X150.236 Z-8
X150.395
X150.444 Y-8.151
X150.488 Y-8.128
X150.523 Y-8.093
X150.545 Y-8.049
X150.553 Y-8
G3 X148.141 Y-8 I-1.206 J0
X150.553 Y-8 I1.206 J0
G1 X150.545 Y-7.951 F50
X150.523 Y-7.907
X150.488 Y-7.872
X150.444 Y-7.849
X150.395 Y-7.841
X150.236
X150.187 Z-7.992
X150.142 Z-7.97
X150.107 Z-7.935
X150.085 Z-7.89
X150.077 Z-7.841
G0 Z5
X64.801 Y-8.009
G1 Z0.317 F50.5
Z-7.841
X64.809 Y-8.007 Z-7.89 F100
X64.831 Y-8.002 Z-7.935
X64.865 Y-7.995 Z-7.97
X64.909 Y-7.986 Z-7.992
X64.957 Y-7.977 Z-8
X65.112 Y-7.945
X65.159 Y-7.927
X65.197 Y-7.896
X65.225 Y-7.855
X65.238 Y-7.807
X65.236 Y-7.757
G3 X62.873 Y-8.243 I-1.182 J-0.243
X65.236 Y-7.757 I1.182 J0.243
G1 X65.218 Y-7.711 F50
X65.187 Y-7.672
X65.146 Y-7.645
X65.098 Y-7.631
X65.048 Y-7.634
X64.893 Y-7.666
X64.845 Y-7.675 Z-7.992
X64.801 Y-7.684 Z-7.97
X64.767 Y-7.691 Z-7.935
X64.745 Y-7.696 Z-7.89
X64.737 Y-7.698 Z-7.841
G0 Z5
X8.73 Y-46.882
G1 Z0.317 F50.5
Z-7.841
X8.738 Z-7.89 F100
X8.76 Z-7.935
X8.795 Z-7.97
X8.84 Z-7.992
X8.889 Z-8
X9.047
X9.097 Y-46.874
X9.141 Y-46.852
X9.176 Y-46.816
X9.198 Y-46.772
X9.206 Y-46.723
G3 X6.794 Y-46.723 I-1.206 J0
X9.206 Y-46.723 I1.206 J0
G1 X9.198 Y-46.674 F50
X9.176 Y-46.63
X9.141 Y-46.595
X9.097 Y-46.572
X9.047 Y-46.564
X8.889
X8.84 Z-7.992
X8.795 Z-7.97
X8.76 Z-7.935
X8.738 Z-7.89
X8.73 Z-7.841
G0 Z5
Y-82.222
G1 Z0.317 F50.5
Z-7.841
X8.738 Z-7.89 F100
X8.76 Z-7.935
X8.795 Z-7.97
X8.84 Z-7.992
X8.889 Z-8
X9.047
X9.097 Y-82.214
X9.141 Y-82.191
X9.176 Y-82.156
X9.198 Y-82.112
X9.206 Y-82.063
G3 X6.794 Y-82.063 I-1.206 J0
X9.206 Y-82.063 I1.206 J0
G1 X9.198 Y-82.014 F50
X9.176 Y-81.97
X9.141 Y-81.935
X9.097 Y-81.912
X9.047 Y-81.904
X8.889
X8.84 Z-7.992
X8.795 Z-7.97
X8.76 Z-7.935
X8.738 Z-7.89
X8.73 Z-7.841
G0 Z5
Y-172.096
G1 Z0.317 F50.5
Z-7.841
X8.738 Z-7.89 F100
X8.76 Z-7.935
X8.795 Z-7.97
X8.84 Z-7.992
X8.889 Z-8
X9.047
X9.097 Y-172.088
X9.141 Y-172.065
X9.176 Y-172.03
X9.198 Y-171.986
X9.206 Y-171.937
G3 X6.794 Y-171.937 I-1.206 J0
X9.206 Y-171.937 I1.206 J0
G1 X9.198 Y-171.888 F50
X9.176 Y-171.844
X9.141 Y-171.809
X9.097 Y-171.786
X9.047 Y-171.778
X8.889
X8.84 Z-7.992
X8.795 Z-7.97
X8.76 Z-7.935
X8.738 Z-7.89
X8.73 Z-7.841
G0 Z5
Y-207.436
G1 Z0.317 F50.5
Z-7.841
X8.738 Z-7.89 F100
X8.76 Z-7.935
X8.795 Z-7.97
X8.84 Z-7.992
X8.889 Z-8
X9.047
X9.097 Y-207.428
X9.141 Y-207.405
X9.176 Y-207.37
X9.198 Y-207.326
X9.206 Y-207.277
G3 X6.794 Y-207.277 I-1.206 J0
X9.206 Y-207.277 I1.206 J0
G1 X9.198 Y-207.228 F50
X9.176 Y-207.184
X9.141 Y-207.149
X9.097 Y-207.126
X9.047 Y-207.118
X8.889
X8.84 Z-7.992
X8.795 Z-7.97
X8.76 Z-7.935
X8.738 Z-7.89
X8.73 Z-7.841
G0 Z5
X64.784 Y-246.159
G1 Z0.317 F50.5
Z-7.841
X64.792 Z-7.89 F100
X64.814 Z-7.935
X64.85 Z-7.97
X64.894 Z-7.992
X64.943 Z-8
X65.102
X65.151 Y-246.151
X65.195 Y-246.128
X65.23 Y-246.093
X65.253 Y-246.049
X65.26 Y-246
G3 X62.848 Y-246 I-1.206 J0
X65.26 Y-246 I1.206 J0
G1 X65.253 Y-245.951 F50
X65.23 Y-245.907
X65.195 Y-245.872
X65.151 Y-245.849
X65.102 Y-245.841
X64.943
X64.894 Z-7.992
X64.85 Z-7.97
X64.814 Z-7.935
X64.792 Z-7.89
X64.784 Z-7.841
G0 Z5
X150.077 Y-246.159
G1 Z0.317 F50.5
Z-7.841
X150.085 Z-7.89 F100
X150.107 Z-7.935
X150.142 Z-7.97
X150.187 Z-7.992
X150.236 Z-8
X150.395
X150.444 Y-246.151
X150.488 Y-246.128
X150.523 Y-246.093
X150.545 Y-246.049
X150.553 Y-246
G3 X148.141 Y-246 I-1.206 J0
X150.553 Y-246 I1.206 J0
G1 X150.545 Y-245.951 F50
X150.523 Y-245.907
X150.488 Y-245.872
X150.444 Y-245.849
X150.395 Y-245.841
X150.236
X150.187 Z-7.992
X150.142 Z-7.97
X150.107 Z-7.935
X150.085 Z-7.89
X150.077 Z-7.841
G0 Z15

M9
G28 G91 Z0
G90
G28 G91 X0 Y0
G90
M5
M30
