(1001)
(T2  D=6.35 CR=0 TAPER=45deg - ZMIN=-1.5 - chamfer mill)
G90 G94
G17
G21
G28 G91 Z0
G90

(Drill1)
T2
S5000 M3
G54
M8
G0 X44.952 Y-30.048
Z15
Z5
Z4
G1 Z-1.5 F33.3
G0 Z5
X37.869 Y-29
Z4
G1 Z-1.5 F33.3
G0 Z5
X30
Z4
G1 Z-1.5 F33.3
G0 Z5
X22.131
Z4
G1 Z-1.5 F33.3
G0 Z5
X15.048 Y-30.048
Z4
G1 Z-1.5 F33.3
G0 Z5
X14 Y-37.069
Z4
G1 Z-1.5 F33.3
G0 Z5
Y-43.579
Z4
G1 Z-1.5 F33.3
G0 Z5
Y-50
Z4
G1 Z-1.5 F33.3
G0 Z5
Y-56.421
Z4
G1 Z-1.5 F33.3
G0 Z5
Y-62.931
Z4
G1 Z-1.5 F33.3
G0 Z5
X15.048 Y-69.952
Z4
G1 Z-1.5 F33.3
G0 Z5
X22.131 Y-71
Z4
G1 Z-1.5 F33.3
G0 Z5
X30
Z4
G1 Z-1.5 F33.3
G0 Z5
X37.869
Z4
G1 Z-1.5 F33.3
G0 Z5
X44.952 Y-69.952
Z4
G1 Z-1.5 F33.3
G0 Z5
X46 Y-62.931
Z4
G1 Z-1.5 F33.3
G0 Z5
Y-56.421
Z4
G1 Z-1.5 F33.3
G0 Z5
Y-50
Z4
G1 Z-1.5 F33.3
G0 Z5
Y-43.579
Z4
G1 Z-1.5 F33.3
G0 Z5
Y-37.069
Z4
G1 Z-1.5 F33.3
G0 Z5
Z15
M9
G28 G91 Z0
G90
G28 G91 X0 Y0
G90
M5
M30
