(1001)
(T1  D=3.81 CR=0 - ZMIN=-1 - flat end mill)
G90 G94
G17
G21
G28 G91 Z0
G90

(Face2)
T1
S18000 M3
G54
M8
G0 X82.477 Y-168.251
Z15
Z5
G1 Z-0.619 F300
G18 G3 X82.095 Z-1 I-0.381 K0
G1 X80
X0
G17 G2 X0 Y-164.634 I0 J1.809
G1 X80
G3 X80 Y-161.016 I0 J1.809
G1 X0
G2 X0 Y-157.399 I0 J1.809
G1 X80
G3 X80 Y-153.781 I0 J1.809
G1 X0
G2 X0 Y-150.164 I0 J1.809
G1 X80
G3 X80 Y-146.546 I0 J1.809
G1 X0
G2 X0 Y-142.929 I0 J1.809
G1 X80
G3 X80 Y-139.311 I0 J1.809
G1 X0
G2 X0 Y-135.694 I0 J1.809
G1 X80
G3 X80 Y-132.076 I0 J1.809
G1 X0
G2 X0 Y-128.459 I0 J1.809
G1 X80
G3 X80 Y-124.841 I0 J1.809
G1 X0
G2 X0 Y-121.224 I0 J1.809
G1 X80
G3 X80 Y-117.606 I0 J1.809
G1 X0
G2 X0 Y-113.989 I0 J1.809
G1 X80
G3 X80 Y-110.371 I0 J1.809
G1 X0
G2 X0 Y-106.754 I0 J1.809
G1 X80
G3 X80 Y-103.136 I0 J1.809
G1 X0
G2 X0 Y-99.519 I0 J1.809
G1 X80
G3 X80 Y-95.901 I0 J1.809
G1 X0
G2 X0 Y-92.284 I0 J1.809
G1 X80
G3 X80 Y-88.666 I0 J1.809
G1 X0
G2 X0 Y-85.049 I0 J1.809
G1 X80
G3 X80 Y-81.431 I0 J1.809
G1 X0
G2 X0 Y-77.814 I0 J1.809
G1 X80
G3 X80 Y-74.196 I0 J1.809
G1 X0
G2 X0 Y-70.579 I0 J1.809
G1 X80
G3 X80 Y-66.961 I0 J1.809
G1 X0
G2 X0 Y-63.344 I0 J1.809
G1 X80
G3 X80 Y-59.726 I0 J1.809
G1 X0
G2 X0 Y-56.109 I0 J1.809
G1 X80
G3 X80 Y-52.491 I0 J1.809
G1 X0
G2 X0 Y-48.874 I0 J1.809
G1 X80
G3 X80 Y-45.256 I0 J1.809
G1 X0
G2 X0 Y-41.639 I0 J1.809
G1 X80
G3 X80 Y-38.021 I0 J1.809
G1 X0
G2 X0 Y-34.404 I0 J1.809
G1 X80
G3 X80 Y-30.786 I0 J1.809
G1 X0
G2 X0 Y-27.168 I0 J1.809
G1 X80
G3 X80 Y-23.551 I0 J1.809
G1 X0
G2 X0 Y-19.933 I0 J1.809
G1 X80
G3 X80 Y-16.316 I0 J1.809
G1 X0
G2 X0 Y-12.698 I0 J1.809
G1 X80
G3 X80 Y-9.081 I0 J1.809
G1 X0
G2 X0 Y-5.463 I0 J1.809
G1 X80
G3 X80 Y-1.846 I0 J1.809
G1 X0
G18 G3 X-0.381 Z-0.619 I0 K0.381
G0 Z15
G17
M9
G28 G91 Z0
G90
G28 G91 X0 Y0
G90
M5
M30
