(1001)
(T1  D=5.08 CR=0 - ZMIN=-2 - flat end mill)
G90 G94
G17
G21
G28 G91 Z0
G90

(Face1)
T1
S18000 M3
G54
M8
G0 X83.302 Y-167.769
Z15
Z5
G1 Z0.008 F500
G18 G3 X82.794 Z-0.5 I-0.508 K0
G1 X80
X0
G17 G2 X0 Y-163.046 I0 J2.362
G1 X80
G3 X80 Y-158.323 I0 J2.362
G1 X0
G2 X0 Y-153.599 I0 J2.362
G1 X80
G3 X80 Y-148.876 I0 J2.362
G1 X0
G2 X0 Y-144.153 I0 J2.362
G1 X80
G3 X80 Y-139.43 I0 J2.362
G1 X0
G2 X0 Y-134.707 I0 J2.362
G1 X80
G3 X80 Y-129.984 I0 J2.362
G1 X0
G2 X0 Y-125.261 I0 J2.362
G1 X80
G3 X80 Y-120.538 I0 J2.362
G1 X0
G2 X0 Y-115.815 I0 J2.362
G1 X80
G3 X80 Y-111.092 I0 J2.362
G1 X0
G2 X0 Y-106.369 I0 J2.362
G1 X80
G3 X80 Y-101.646 I0 J2.362
G1 X0
G2 X0 Y-96.923 I0 J2.362
G1 X80
G3 X80 Y-92.2 I0 J2.362
G1 X0
G2 X0 Y-87.477 I0 J2.362
G1 X80
G3 X80 Y-82.753 I0 J2.362
G1 X0
G2 X0 Y-78.03 I0 J2.362
G1 X80
G3 X80 Y-73.307 I0 J2.362
G1 X0
G2 X0 Y-68.584 I0 J2.362
G1 X80
G3 X80 Y-63.861 I0 J2.362
G1 X0
G2 X0 Y-59.138 I0 J2.362
G1 X80
G3 X80 Y-54.415 I0 J2.362
G1 X0
G2 X0 Y-49.692 I0 J2.362
G1 X80
G3 X80 Y-44.969 I0 J2.362
G1 X0
G2 X0 Y-40.246 I0 J2.362
G1 X80
G3 X80 Y-35.523 I0 J2.362
G1 X0
G2 X0 Y-30.8 I0 J2.362
G1 X80
G3 X80 Y-26.077 I0 J2.362
G1 X0
G2 X0 Y-21.354 I0 J2.362
G1 X80
G3 X80 Y-16.63 I0 J2.362
G1 X0
G2 X0 Y-11.907 I0 J2.362
G1 X80
G3 X80 Y-7.184 I0 J2.362
G1 X0
G2 X0 Y-2.461 I0 J2.362
G1 X80
G18 G2 X80.508 Z0.008 I0 K0.508
G0 Z5
X83.302 Y-167.769
G1 Z-0.492 F500
G3 X82.794 Z-1 I-0.508 K0
G1 X80
X0
G17 G2 X0 Y-163.046 I0 J2.362
G1 X80
G3 X80 Y-158.323 I0 J2.362
G1 X0
G2 X0 Y-153.599 I0 J2.362
G1 X80
G3 X80 Y-148.876 I0 J2.362
G1 X0
G2 X0 Y-144.153 I0 J2.362
G1 X80
G3 X80 Y-139.43 I0 J2.362
G1 X0
G2 X0 Y-134.707 I0 J2.362
G1 X80
G3 X80 Y-129.984 I0 J2.362
G1 X0
G2 X0 Y-125.261 I0 J2.362
G1 X80
G3 X80 Y-120.538 I0 J2.362
G1 X0
G2 X0 Y-115.815 I0 J2.362
G1 X80
G3 X80 Y-111.092 I0 J2.362
G1 X0
G2 X0 Y-106.369 I0 J2.362
G1 X80
G3 X80 Y-101.646 I0 J2.362
G1 X0
G2 X0 Y-96.923 I0 J2.362
G1 X80
G3 X80 Y-92.2 I0 J2.362
G1 X0
G2 X0 Y-87.477 I0 J2.362
G1 X80
G3 X80 Y-82.753 I0 J2.362
G1 X0
G2 X0 Y-78.03 I0 J2.362
G1 X80
G3 X80 Y-73.307 I0 J2.362
G1 X0
G2 X0 Y-68.584 I0 J2.362
G1 X80
G3 X80 Y-63.861 I0 J2.362
G1 X0
G2 X0 Y-59.138 I0 J2.362
G1 X80
G3 X80 Y-54.415 I0 J2.362
G1 X0
G2 X0 Y-49.692 I0 J2.362
G1 X80
G3 X80 Y-44.969 I0 J2.362
G1 X0
G2 X0 Y-40.246 I0 J2.362
G1 X80
G3 X80 Y-35.523 I0 J2.362
G1 X0
G2 X0 Y-30.8 I0 J2.362
G1 X80
G3 X80 Y-26.077 I0 J2.362
G1 X0
G2 X0 Y-21.354 I0 J2.362
G1 X80
G3 X80 Y-16.63 I0 J2.362
G1 X0
G2 X0 Y-11.907 I0 J2.362
G1 X80
G3 X80 Y-7.184 I0 J2.362
G1 X0
G2 X0 Y-2.461 I0 J2.362
G1 X80
G18 G2 X80.508 Z-0.492 I0 K0.508
G0 Z5
X83.302 Y-167.769
G1 Z-0.992 F500
G3 X82.794 Z-1.5 I-0.508 K0
G1 X80
X0
G17 G2 X0 Y-163.046 I0 J2.362
G1 X80
G3 X80 Y-158.323 I0 J2.362
G1 X0
G2 X0 Y-153.599 I0 J2.362
G1 X80
G3 X80 Y-148.876 I0 J2.362
G1 X0
G2 X0 Y-144.153 I0 J2.362
G1 X80
G3 X80 Y-139.43 I0 J2.362
G1 X0
G2 X0 Y-134.707 I0 J2.362
G1 X80
G3 X80 Y-129.984 I0 J2.362
G1 X0
G2 X0 Y-125.261 I0 J2.362
G1 X80
G3 X80 Y-120.538 I0 J2.362
G1 X0
G2 X0 Y-115.815 I0 J2.362
G1 X80
G3 X80 Y-111.092 I0 J2.362
G1 X0
G2 X0 Y-106.369 I0 J2.362
G1 X80
G3 X80 Y-101.646 I0 J2.362
G1 X0
G2 X0 Y-96.923 I0 J2.362
G1 X80
G3 X80 Y-92.2 I0 J2.362
G1 X0
G2 X0 Y-87.477 I0 J2.362
G1 X80
G3 X80 Y-82.753 I0 J2.362
G1 X0
G2 X0 Y-78.03 I0 J2.362
G1 X80
G3 X80 Y-73.307 I0 J2.362
G1 X0
G2 X0 Y-68.584 I0 J2.362
G1 X80
G3 X80 Y-63.861 I0 J2.362
G1 X0
G2 X0 Y-59.138 I0 J2.362
G1 X80
G3 X80 Y-54.415 I0 J2.362
G1 X0
G2 X0 Y-49.692 I0 J2.362
G1 X80
G3 X80 Y-44.969 I0 J2.362
G1 X0
G2 X0 Y-40.246 I0 J2.362
G1 X80
G3 X80 Y-35.523 I0 J2.362
G1 X0
G2 X0 Y-30.8 I0 J2.362
G1 X80
G3 X80 Y-26.077 I0 J2.362
G1 X0
G2 X0 Y-21.354 I0 J2.362
G1 X80
G3 X80 Y-16.63 I0 J2.362
G1 X0
G2 X0 Y-11.907 I0 J2.362
G1 X80
G3 X80 Y-7.184 I0 J2.362
G1 X0
G2 X0 Y-2.461 I0 J2.362
G1 X80
G18 G2 X80.508 Z-0.992 I0 K0.508
G0 Z5
X83.302 Y-167.769
G1 Z-1.492 F500
G3 X82.794 Z-2 I-0.508 K0
G1 X80
X0
G17 G2 X0 Y-163.046 I0 J2.362
G1 X80
G3 X80 Y-158.323 I0 J2.362
G1 X0
G2 X0 Y-153.599 I0 J2.362
G1 X80
G3 X80 Y-148.876 I0 J2.362
G1 X0
G2 X0 Y-144.153 I0 J2.362
G1 X80
G3 X80 Y-139.43 I0 J2.362
G1 X0
G2 X0 Y-134.707 I0 J2.362
G1 X80
G3 X80 Y-129.984 I0 J2.362
G1 X0
G2 X0 Y-125.261 I0 J2.362
G1 X80
G3 X80 Y-120.538 I0 J2.362
G1 X0
G2 X0 Y-115.815 I0 J2.362
G1 X80
G3 X80 Y-111.092 I0 J2.362
G1 X0
G2 X0 Y-106.369 I0 J2.362
G1 X80
G3 X80 Y-101.646 I0 J2.362
G1 X0
G2 X0 Y-96.923 I0 J2.362
G1 X80
G3 X80 Y-92.2 I0 J2.362
G1 X0
G2 X0 Y-87.477 I0 J2.362
G1 X80
G3 X80 Y-82.753 I0 J2.362
G1 X0
G2 X0 Y-78.03 I0 J2.362
G1 X80
G3 X80 Y-73.307 I0 J2.362
G1 X0
G2 X0 Y-68.584 I0 J2.362
G1 X80
G3 X80 Y-63.861 I0 J2.362
G1 X0
G2 X0 Y-59.138 I0 J2.362
G1 X80
G3 X80 Y-54.415 I0 J2.362
G1 X0
G2 X0 Y-49.692 I0 J2.362
G1 X80
G3 X80 Y-44.969 I0 J2.362
G1 X0
G2 X0 Y-40.246 I0 J2.362
G1 X80
G3 X80 Y-35.523 I0 J2.362
G1 X0
G2 X0 Y-30.8 I0 J2.362
G1 X80
G3 X80 Y-26.077 I0 J2.362
G1 X0
G2 X0 Y-21.354 I0 J2.362
G1 X80
G3 X80 Y-16.63 I0 J2.362
G1 X0
G2 X0 Y-11.907 I0 J2.362
G1 X80
G3 X80 Y-7.184 I0 J2.362
G1 X0
G2 X0 Y-2.461 I0 J2.362
G1 X80
G18 G2 X80.508 Z-1.492 I0 K0.508
G0 Z15
G17
M9
G28 G91 Z0
G90
G28 G91 X0 Y0
G90
M5
M30
