(1001)
(T1  D=5.08 CR=0 - ZMIN=-3 - flat end mill)
G90 G94
G17
G21
G28 G91 Z0
G90

(Face1)
T1
S18000 M3
G54
M8
G0 X3.302 Y-147.803
Z15
Z5
G1 Z0.008 F1000
G18 G3 X2.794 Z-0.5 I-0.508 K0
G1 X0
X-56
G17 G2 X-56 Y-143.115 I0 J2.344
G1 X0
G3 X0 Y-138.426 I0 J2.344
G1 X-56
G2 X-56 Y-133.738 I0 J2.344
G1 X0
G3 X0 Y-129.049 I0 J2.344
G1 X-56
G2 X-56 Y-124.361 I0 J2.344
G1 X0
G3 X0 Y-119.673 I0 J2.344
G1 X-56
G2 X-56 Y-114.984 I0 J2.344
G1 X0
G3 X0 Y-110.296 I0 J2.344
G1 X-56
G2 X-56 Y-105.607 I0 J2.344
G1 X0
G3 X0 Y-100.919 I0 J2.344
G1 X-56
G2 X-56 Y-96.23 I0 J2.344
G1 X0
G3 X0 Y-91.542 I0 J2.344
G1 X-56
G2 X-56 Y-86.853 I0 J2.344
G1 X0
G3 X0 Y-82.165 I0 J2.344
G1 X-56
G2 X-56 Y-77.477 I0 J2.344
G1 X0
G3 X0 Y-72.788 I0 J2.344
G1 X-56
G2 X-56 Y-68.1 I0 J2.344
G1 X0
G3 X0 Y-63.411 I0 J2.344
G1 X-56
G2 X-56 Y-58.723 I0 J2.344
G1 X0
G3 X0 Y-54.034 I0 J2.344
G1 X-56
G2 X-56 Y-49.346 I0 J2.344
G1 X0
G3 X0 Y-44.657 I0 J2.344
G1 X-56
G2 X-56 Y-39.969 I0 J2.344
G1 X0
G3 X0 Y-35.28 I0 J2.344
G1 X-56
G2 X-56 Y-30.592 I0 J2.344
G1 X0
G3 X0 Y-25.904 I0 J2.344
G1 X-56
G2 X-56 Y-21.215 I0 J2.344
G1 X0
G3 X0 Y-16.527 I0 J2.344
G1 X-56
G2 X-56 Y-11.838 I0 J2.344
G1 X0
G3 X0 Y-7.15 I0 J2.344
G1 X-56
G2 X-56 Y-2.461 I0 J2.344
G1 X0
G18 G2 X0.508 Z0.008 I0 K0.508
G0 Z5
X3.302 Y-147.803
G1 Z-0.492 F1000
G3 X2.794 Z-1 I-0.508 K0
G1 X0
X-56
G17 G2 X-56 Y-143.115 I0 J2.344
G1 X0
G3 X0 Y-138.426 I0 J2.344
G1 X-56
G2 X-56 Y-133.738 I0 J2.344
G1 X0
G3 X0 Y-129.049 I0 J2.344
G1 X-56
G2 X-56 Y-124.361 I0 J2.344
G1 X0
G3 X0 Y-119.673 I0 J2.344
G1 X-56
G2 X-56 Y-114.984 I0 J2.344
G1 X0
G3 X0 Y-110.296 I0 J2.344
G1 X-56
G2 X-56 Y-105.607 I0 J2.344
G1 X0
G3 X0 Y-100.919 I0 J2.344
G1 X-56
G2 X-56 Y-96.23 I0 J2.344
G1 X0
G3 X0 Y-91.542 I0 J2.344
G1 X-56
G2 X-56 Y-86.853 I0 J2.344
G1 X0
G3 X0 Y-82.165 I0 J2.344
G1 X-56
G2 X-56 Y-77.477 I0 J2.344
G1 X0
G3 X0 Y-72.788 I0 J2.344
G1 X-56
G2 X-56 Y-68.1 I0 J2.344
G1 X0
G3 X0 Y-63.411 I0 J2.344
G1 X-56
G2 X-56 Y-58.723 I0 J2.344
G1 X0
G3 X0 Y-54.034 I0 J2.344
G1 X-56
G2 X-56 Y-49.346 I0 J2.344
G1 X0
G3 X0 Y-44.657 I0 J2.344
G1 X-56
G2 X-56 Y-39.969 I0 J2.344
G1 X0
G3 X0 Y-35.28 I0 J2.344
G1 X-56
G2 X-56 Y-30.592 I0 J2.344
G1 X0
G3 X0 Y-25.904 I0 J2.344
G1 X-56
G2 X-56 Y-21.215 I0 J2.344
G1 X0
G3 X0 Y-16.527 I0 J2.344
G1 X-56
G2 X-56 Y-11.838 I0 J2.344
G1 X0
G3 X0 Y-7.15 I0 J2.344
G1 X-56
G2 X-56 Y-2.461 I0 J2.344
G1 X0
G18 G2 X0.508 Z-0.492 I0 K0.508
G0 Z5
X3.302 Y-147.803
G1 Z-0.992 F1000
G3 X2.794 Z-1.5 I-0.508 K0
G1 X0
X-56
G17 G2 X-56 Y-143.115 I0 J2.344
G1 X0
G3 X0 Y-138.426 I0 J2.344
G1 X-56
G2 X-56 Y-133.738 I0 J2.344
G1 X0
G3 X0 Y-129.049 I0 J2.344
G1 X-56
G2 X-56 Y-124.361 I0 J2.344
G1 X0
G3 X0 Y-119.673 I0 J2.344
G1 X-56
G2 X-56 Y-114.984 I0 J2.344
G1 X0
G3 X0 Y-110.296 I0 J2.344
G1 X-56
G2 X-56 Y-105.607 I0 J2.344
G1 X0
G3 X0 Y-100.919 I0 J2.344
G1 X-56
G2 X-56 Y-96.23 I0 J2.344
G1 X0
G3 X0 Y-91.542 I0 J2.344
G1 X-56
G2 X-56 Y-86.853 I0 J2.344
G1 X0
G3 X0 Y-82.165 I0 J2.344
G1 X-56
G2 X-56 Y-77.477 I0 J2.344
G1 X0
G3 X0 Y-72.788 I0 J2.344
G1 X-56
G2 X-56 Y-68.1 I0 J2.344
G1 X0
G3 X0 Y-63.411 I0 J2.344
G1 X-56
G2 X-56 Y-58.723 I0 J2.344
G1 X0
G3 X0 Y-54.034 I0 J2.344
G1 X-56
G2 X-56 Y-49.346 I0 J2.344
G1 X0
G3 X0 Y-44.657 I0 J2.344
G1 X-56
G2 X-56 Y-39.969 I0 J2.344
G1 X0
G3 X0 Y-35.28 I0 J2.344
G1 X-56
G2 X-56 Y-30.592 I0 J2.344
G1 X0
G3 X0 Y-25.904 I0 J2.344
G1 X-56
G2 X-56 Y-21.215 I0 J2.344
G1 X0
G3 X0 Y-16.527 I0 J2.344
G1 X-56
G2 X-56 Y-11.838 I0 J2.344
G1 X0
G3 X0 Y-7.15 I0 J2.344
G1 X-56
G2 X-56 Y-2.461 I0 J2.344
G1 X0
G18 G2 X0.508 Z-0.992 I0 K0.508
G0 Z5
X3.302 Y-147.803
G1 Z-1.492 F1000
G3 X2.794 Z-2 I-0.508 K0
G1 X0
X-56
G17 G2 X-56 Y-143.115 I0 J2.344
G1 X0
G3 X0 Y-138.426 I0 J2.344
G1 X-56
G2 X-56 Y-133.738 I0 J2.344
G1 X0
G3 X0 Y-129.049 I0 J2.344
G1 X-56
G2 X-56 Y-124.361 I0 J2.344
G1 X0
G3 X0 Y-119.673 I0 J2.344
G1 X-56
G2 X-56 Y-114.984 I0 J2.344
G1 X0
G3 X0 Y-110.296 I0 J2.344
G1 X-56
G2 X-56 Y-105.607 I0 J2.344
G1 X0
G3 X0 Y-100.919 I0 J2.344
G1 X-56
G2 X-56 Y-96.23 I0 J2.344
G1 X0
G3 X0 Y-91.542 I0 J2.344
G1 X-56
G2 X-56 Y-86.853 I0 J2.344
G1 X0
G3 X0 Y-82.165 I0 J2.344
G1 X-56
G2 X-56 Y-77.477 I0 J2.344
G1 X0
G3 X0 Y-72.788 I0 J2.344
G1 X-56
G2 X-56 Y-68.1 I0 J2.344
G1 X0
G3 X0 Y-63.411 I0 J2.344
G1 X-56
G2 X-56 Y-58.723 I0 J2.344
G1 X0
G3 X0 Y-54.034 I0 J2.344
G1 X-56
G2 X-56 Y-49.346 I0 J2.344
G1 X0
G3 X0 Y-44.657 I0 J2.344
G1 X-56
G2 X-56 Y-39.969 I0 J2.344
G1 X0
G3 X0 Y-35.28 I0 J2.344
G1 X-56
G2 X-56 Y-30.592 I0 J2.344
G1 X0
G3 X0 Y-25.904 I0 J2.344
G1 X-56
G2 X-56 Y-21.215 I0 J2.344
G1 X0
G3 X0 Y-16.527 I0 J2.344
G1 X-56
G2 X-56 Y-11.838 I0 J2.344
G1 X0
G3 X0 Y-7.15 I0 J2.344
G1 X-56
G2 X-56 Y-2.461 I0 J2.344
G1 X0
G18 G2 X0.508 Z-1.492 I0 K0.508
G0 Z5
X3.302 Y-147.803
G1 Z-1.992 F1000
G3 X2.794 Z-2.5 I-0.508 K0
G1 X0
X-56
G17 G2 X-56 Y-143.115 I0 J2.344
G1 X0
G3 X0 Y-138.426 I0 J2.344
G1 X-56
G2 X-56 Y-133.738 I0 J2.344
G1 X0
G3 X0 Y-129.049 I0 J2.344
G1 X-56
G2 X-56 Y-124.361 I0 J2.344
G1 X0
G3 X0 Y-119.673 I0 J2.344
G1 X-56
G2 X-56 Y-114.984 I0 J2.344
G1 X0
G3 X0 Y-110.296 I0 J2.344
G1 X-56
G2 X-56 Y-105.607 I0 J2.344
G1 X0
G3 X0 Y-100.919 I0 J2.344
G1 X-56
G2 X-56 Y-96.23 I0 J2.344
G1 X0
G3 X0 Y-91.542 I0 J2.344
G1 X-56
G2 X-56 Y-86.853 I0 J2.344
G1 X0
G3 X0 Y-82.165 I0 J2.344
G1 X-56
G2 X-56 Y-77.477 I0 J2.344
G1 X0
G3 X0 Y-72.788 I0 J2.344
G1 X-56
G2 X-56 Y-68.1 I0 J2.344
G1 X0
G3 X0 Y-63.411 I0 J2.344
G1 X-56
G2 X-56 Y-58.723 I0 J2.344
G1 X0
G3 X0 Y-54.034 I0 J2.344
G1 X-56
G2 X-56 Y-49.346 I0 J2.344
G1 X0
G3 X0 Y-44.657 I0 J2.344
G1 X-56
G2 X-56 Y-39.969 I0 J2.344
G1 X0
G3 X0 Y-35.28 I0 J2.344
G1 X-56
G2 X-56 Y-30.592 I0 J2.344
G1 X0
G3 X0 Y-25.904 I0 J2.344
G1 X-56
G2 X-56 Y-21.215 I0 J2.344
G1 X0
G3 X0 Y-16.527 I0 J2.344
G1 X-56
G2 X-56 Y-11.838 I0 J2.344
G1 X0
G3 X0 Y-7.15 I0 J2.344
G1 X-56
G2 X-56 Y-2.461 I0 J2.344
G1 X0
G18 G2 X0.508 Z-1.992 I0 K0.508
G0 Z5
X3.302 Y-147.803
G1 Z-2.492 F1000
G3 X2.794 Z-3 I-0.508 K0
G1 X0
X-56
G17 G2 X-56 Y-143.115 I0 J2.344
G1 X0
G3 X0 Y-138.426 I0 J2.344
G1 X-56
G2 X-56 Y-133.738 I0 J2.344
G1 X0
G3 X0 Y-129.049 I0 J2.344
G1 X-56
G2 X-56 Y-124.361 I0 J2.344
G1 X0
G3 X0 Y-119.673 I0 J2.344
G1 X-56
G2 X-56 Y-114.984 I0 J2.344
G1 X0
G3 X0 Y-110.296 I0 J2.344
G1 X-56
G2 X-56 Y-105.607 I0 J2.344
G1 X0
G3 X0 Y-100.919 I0 J2.344
G1 X-56
G2 X-56 Y-96.23 I0 J2.344
G1 X0
G3 X0 Y-91.542 I0 J2.344
G1 X-56
G2 X-56 Y-86.853 I0 J2.344
G1 X0
G3 X0 Y-82.165 I0 J2.344
G1 X-56
G2 X-56 Y-77.477 I0 J2.344
G1 X0
G3 X0 Y-72.788 I0 J2.344
G1 X-56
G2 X-56 Y-68.1 I0 J2.344
G1 X0
G3 X0 Y-63.411 I0 J2.344
G1 X-56
G2 X-56 Y-58.723 I0 J2.344
G1 X0
G3 X0 Y-54.034 I0 J2.344
G1 X-56
G2 X-56 Y-49.346 I0 J2.344
G1 X0
G3 X0 Y-44.657 I0 J2.344
G1 X-56
G2 X-56 Y-39.969 I0 J2.344
G1 X0
G3 X0 Y-35.28 I0 J2.344
G1 X-56
G2 X-56 Y-30.592 I0 J2.344
G1 X0
G3 X0 Y-25.904 I0 J2.344
G1 X-56
G2 X-56 Y-21.215 I0 J2.344
G1 X0
G3 X0 Y-16.527 I0 J2.344
G1 X-56
G2 X-56 Y-11.838 I0 J2.344
G1 X0
G3 X0 Y-7.15 I0 J2.344
G1 X-56
G2 X-56 Y-2.461 I0 J2.344
G1 X0
G18 G2 X0.508 Z-2.492 I0 K0.508
G0 Z15
G17
M9
G28 G91 Z0
G90
G28 G91 X0 Y0
G90
M5
M30
