(1001)
(T1  D=3.81 CR=0 - ZMIN=-1 - flat end mill)
G90 G94
G17
G21
G28 G91 Z0
G90

(Face1)
T1
S18000 M3
G54
M8
G0 X82.477 Y-158.313
Z15
Z5
G1 Z-0.619 F300
G18 G3 X82.095 Z-1 I-0.381 K0
G1 X80
X0
G17 G2 X0 Y-154.757 I0 J1.778
G1 X80
G3 X80 Y-151.201 I0 J1.778
G1 X0
G2 X0 Y-147.645 I0 J1.778
G1 X80
G3 X80 Y-144.088 I0 J1.778
G1 X0
G2 X0 Y-140.532 I0 J1.778
G1 X80
G3 X80 Y-136.976 I0 J1.778
G1 X0
G2 X0 Y-133.42 I0 J1.778
G1 X80
G3 X80 Y-129.864 I0 J1.778
G1 X0
G2 X0 Y-126.308 I0 J1.778
G1 X80
G3 X80 Y-122.752 I0 J1.778
G1 X0
G2 X0 Y-119.196 I0 J1.778
G1 X80
G3 X80 Y-115.64 I0 J1.778
G1 X0
G2 X0 Y-112.084 I0 J1.778
G1 X80
G3 X80 Y-108.528 I0 J1.778
G1 X0
G2 X0 Y-104.972 I0 J1.778
G1 X80
G3 X80 Y-101.416 I0 J1.778
G1 X0
G2 X0 Y-97.86 I0 J1.778
G1 X80
G3 X80 Y-94.304 I0 J1.778
G1 X0
G2 X0 Y-90.748 I0 J1.778
G1 X80
G3 X80 Y-87.191 I0 J1.778
G1 X0
G2 X0 Y-83.635 I0 J1.778
G1 X80
G3 X80 Y-80.079 I0 J1.778
G1 X0
G2 X0 Y-76.523 I0 J1.778
G1 X80
G3 X80 Y-72.967 I0 J1.778
G1 X0
G2 X0 Y-69.411 I0 J1.778
G1 X80
G3 X80 Y-65.855 I0 J1.778
G1 X0
G2 X0 Y-62.299 I0 J1.778
G1 X80
G3 X80 Y-58.743 I0 J1.778
G1 X0
G2 X0 Y-55.187 I0 J1.778
G1 X80
G3 X80 Y-51.631 I0 J1.778
G1 X0
G2 X0 Y-48.075 I0 J1.778
G1 X80
G3 X80 Y-44.519 I0 J1.778
G1 X0
G2 X0 Y-40.963 I0 J1.778
G1 X80
G3 X80 Y-37.407 I0 J1.778
G1 X0
G2 X0 Y-33.851 I0 J1.778
G1 X80
G3 X80 Y-30.294 I0 J1.778
G1 X0
G2 X0 Y-26.738 I0 J1.778
G1 X80
G3 X80 Y-23.182 I0 J1.778
G1 X0
G2 X0 Y-19.626 I0 J1.778
G1 X80
G3 X80 Y-16.07 I0 J1.778
G1 X0
G2 X0 Y-12.514 I0 J1.778
G1 X80
G3 X80 Y-8.958 I0 J1.778
G1 X0
G2 X0 Y-5.402 I0 J1.778
G1 X80
G3 X80 Y-1.846 I0 J1.778
G1 X0
G18 G3 X-0.381 Z-0.619 I0 K0.381
G0 Z15
G17
M9
G28 G91 Z0
G90
G28 G91 X0 Y0
G90
M5
M30
