(1001)
(T1  D=5.08 CR=0 - ZMIN=-1 - flat end mill)
G90 G94
G17
G21
G28 G91 Z0
G90

(Face1)
T1
S18000 M3
G54
M8
G0 X3.302 Y-151.678
Z15
Z5
G1 Z0.008 F1000
G18 G3 X2.794 Z-0.5 I-0.508 K0
G1 X0
X-62
G17 G2 X-62 Y-146.865 I0 J2.407
G1 X0
G3 X0 Y-142.051 I0 J2.407
G1 X-62
G2 X-62 Y-137.238 I0 J2.407
G1 X0
G3 X0 Y-132.424 I0 J2.407
G1 X-62
G2 X-62 Y-127.611 I0 J2.407
G1 X0
G3 X0 Y-122.798 I0 J2.407
G1 X-62
G2 X-62 Y-117.984 I0 J2.407
G1 X0
G3 X0 Y-113.171 I0 J2.407
G1 X-62
G2 X-62 Y-108.357 I0 J2.407
G1 X0
G3 X0 Y-103.544 I0 J2.407
G1 X-62
G2 X-62 Y-98.73 I0 J2.407
G1 X0
G3 X0 Y-93.917 I0 J2.407
G1 X-62
G2 X-62 Y-89.103 I0 J2.407
G1 X0
G3 X0 Y-84.29 I0 J2.407
G1 X-62
G2 X-62 Y-79.477 I0 J2.407
G1 X0
G3 X0 Y-74.663 I0 J2.407
G1 X-62
G2 X-62 Y-69.85 I0 J2.407
G1 X0
G3 X0 Y-65.036 I0 J2.407
G1 X-62
G2 X-62 Y-60.223 I0 J2.407
G1 X0
G3 X0 Y-55.409 I0 J2.407
G1 X-62
G2 X-62 Y-50.596 I0 J2.407
G1 X0
G3 X0 Y-45.782 I0 J2.407
G1 X-62
G2 X-62 Y-40.969 I0 J2.407
G1 X0
G3 X0 Y-36.155 I0 J2.407
G1 X-62
G2 X-62 Y-31.342 I0 J2.407
G1 X0
G3 X0 Y-26.529 I0 J2.407
G1 X-62
G2 X-62 Y-21.715 I0 J2.407
G1 X0
G3 X0 Y-16.902 I0 J2.407
G1 X-62
G2 X-62 Y-12.088 I0 J2.407
G1 X0
G3 X0 Y-7.275 I0 J2.407
G1 X-62
G2 X-62 Y-2.461 I0 J2.407
G1 X0
G18 G2 X0.508 Z0.008 I0 K0.508
G0 Z5
X3.302 Y-151.678
G1 Z-0.492 F1000
G3 X2.794 Z-1 I-0.508 K0
G1 X0
X-62
G17 G2 X-62 Y-146.865 I0 J2.407
G1 X0
G3 X0 Y-142.051 I0 J2.407
G1 X-62
G2 X-62 Y-137.238 I0 J2.407
G1 X0
G3 X0 Y-132.424 I0 J2.407
G1 X-62
G2 X-62 Y-127.611 I0 J2.407
G1 X0
G3 X0 Y-122.798 I0 J2.407
G1 X-62
G2 X-62 Y-117.984 I0 J2.407
G1 X0
G3 X0 Y-113.171 I0 J2.407
G1 X-62
G2 X-62 Y-108.357 I0 J2.407
G1 X0
G3 X0 Y-103.544 I0 J2.407
G1 X-62
G2 X-62 Y-98.73 I0 J2.407
G1 X0
G3 X0 Y-93.917 I0 J2.407
G1 X-62
G2 X-62 Y-89.103 I0 J2.407
G1 X0
G3 X0 Y-84.29 I0 J2.407
G1 X-62
G2 X-62 Y-79.477 I0 J2.407
G1 X0
G3 X0 Y-74.663 I0 J2.407
G1 X-62
G2 X-62 Y-69.85 I0 J2.407
G1 X0
G3 X0 Y-65.036 I0 J2.407
G1 X-62
G2 X-62 Y-60.223 I0 J2.407
G1 X0
G3 X0 Y-55.409 I0 J2.407
G1 X-62
G2 X-62 Y-50.596 I0 J2.407
G1 X0
G3 X0 Y-45.782 I0 J2.407
G1 X-62
G2 X-62 Y-40.969 I0 J2.407
G1 X0
G3 X0 Y-36.155 I0 J2.407
G1 X-62
G2 X-62 Y-31.342 I0 J2.407
G1 X0
G3 X0 Y-26.529 I0 J2.407
G1 X-62
G2 X-62 Y-21.715 I0 J2.407
G1 X0
G3 X0 Y-16.902 I0 J2.407
G1 X-62
G2 X-62 Y-12.088 I0 J2.407
G1 X0
G3 X0 Y-7.275 I0 J2.407
G1 X-62
G2 X-62 Y-2.461 I0 J2.407
G1 X0
G18 G2 X0.508 Z-0.492 I0 K0.508
G0 Z15
G17
M9
G28 G91 Z0
G90
G28 G91 X0 Y0
G90
M5
M30
