(surfacing)
(T1  D=5.08 CR=0 - ZMIN=-1.57 - flat end mill)
G90 G94
G17
G21
G28 G91 Z0
G90

(Face2)
T1
S18000 M3
G54
M8
G0 X103.302 Y-178.728
Z15
Z5
G1 Z0.438 F1000
G18 G3 X102.794 Z-0.07 I-0.508 K0
G1 X100
X0
G17 G2 X0 Y-173.964 I0 J2.382
G1 X100
G3 X100 Y-169.2 I0 J2.382
G1 X0
G2 X0 Y-164.436 I0 J2.382
G1 X100
G3 X100 Y-159.672 I0 J2.382
G1 X0
G2 X0 Y-154.908 I0 J2.382
G1 X100
G3 X100 Y-150.144 I0 J2.382
G1 X0
G2 X0 Y-145.38 I0 J2.382
G1 X100
G3 X100 Y-140.616 I0 J2.382
G1 X0
G2 X0 Y-135.852 I0 J2.382
G1 X100
G3 X100 Y-131.088 I0 J2.382
G1 X0
G2 X0 Y-126.324 I0 J2.382
G1 X100
G3 X100 Y-121.56 I0 J2.382
G1 X0
G2 X0 Y-116.796 I0 J2.382
G1 X100
G3 X100 Y-112.032 I0 J2.382
G1 X0
G2 X0 Y-107.268 I0 J2.382
G1 X100
G3 X100 Y-102.504 I0 J2.382
G1 X0
G2 X0 Y-97.74 I0 J2.382
G1 X100
G3 X100 Y-92.977 I0 J2.382
G1 X0
G2 X0 Y-88.213 I0 J2.382
G1 X100
G3 X100 Y-83.449 I0 J2.382
G1 X0
G2 X0 Y-78.685 I0 J2.382
G1 X100
G3 X100 Y-73.921 I0 J2.382
G1 X0
G2 X0 Y-69.157 I0 J2.382
G1 X100
G3 X100 Y-64.393 I0 J2.382
G1 X0
G2 X0 Y-59.629 I0 J2.382
G1 X100
G3 X100 Y-54.865 I0 J2.382
G1 X0
G2 X0 Y-50.101 I0 J2.382
G1 X100
G3 X100 Y-45.337 I0 J2.382
G1 X0
G2 X0 Y-40.573 I0 J2.382
G1 X100
G3 X100 Y-35.809 I0 J2.382
G1 X0
G2 X0 Y-31.045 I0 J2.382
G1 X100
G3 X100 Y-26.281 I0 J2.382
G1 X0
G2 X0 Y-21.517 I0 J2.382
G1 X100
G3 X100 Y-16.753 I0 J2.382
G1 X0
G2 X0 Y-11.989 I0 J2.382
G1 X100
G3 X100 Y-7.225 I0 J2.382
G1 X0
G2 X0 Y-2.461 I0 J2.382
G1 X100
G18 G2 X100.508 Z0.438 I0 K0.508
G0 Z5
X103.302 Y-178.728
G1 Z-0.062 F1000
G3 X102.794 Z-0.57 I-0.508 K0
G1 X100
X0
G17 G2 X0 Y-173.964 I0 J2.382
G1 X100
G3 X100 Y-169.2 I0 J2.382
G1 X0
G2 X0 Y-164.436 I0 J2.382
G1 X100
G3 X100 Y-159.672 I0 J2.382
G1 X0
G2 X0 Y-154.908 I0 J2.382
G1 X100
G3 X100 Y-150.144 I0 J2.382
G1 X0
G2 X0 Y-145.38 I0 J2.382
G1 X100
G3 X100 Y-140.616 I0 J2.382
G1 X0
G2 X0 Y-135.852 I0 J2.382
G1 X100
G3 X100 Y-131.088 I0 J2.382
G1 X0
G2 X0 Y-126.324 I0 J2.382
G1 X100
G3 X100 Y-121.56 I0 J2.382
G1 X0
G2 X0 Y-116.796 I0 J2.382
G1 X100
G3 X100 Y-112.032 I0 J2.382
G1 X0
G2 X0 Y-107.268 I0 J2.382
G1 X100
G3 X100 Y-102.504 I0 J2.382
G1 X0
G2 X0 Y-97.74 I0 J2.382
G1 X100
G3 X100 Y-92.977 I0 J2.382
G1 X0
G2 X0 Y-88.213 I0 J2.382
G1 X100
G3 X100 Y-83.449 I0 J2.382
G1 X0
G2 X0 Y-78.685 I0 J2.382
G1 X100
G3 X100 Y-73.921 I0 J2.382
G1 X0
G2 X0 Y-69.157 I0 J2.382
G1 X100
G3 X100 Y-64.393 I0 J2.382
G1 X0
G2 X0 Y-59.629 I0 J2.382
G1 X100
G3 X100 Y-54.865 I0 J2.382
G1 X0
G2 X0 Y-50.101 I0 J2.382
G1 X100
G3 X100 Y-45.337 I0 J2.382
G1 X0
G2 X0 Y-40.573 I0 J2.382
G1 X100
G3 X100 Y-35.809 I0 J2.382
G1 X0
G2 X0 Y-31.045 I0 J2.382
G1 X100
G3 X100 Y-26.281 I0 J2.382
G1 X0
G2 X0 Y-21.517 I0 J2.382
G1 X100
G3 X100 Y-16.753 I0 J2.382
G1 X0
G2 X0 Y-11.989 I0 J2.382
G1 X100
G3 X100 Y-7.225 I0 J2.382
G1 X0
G2 X0 Y-2.461 I0 J2.382
G1 X100
G18 G2 X100.508 Z-0.062 I0 K0.508
G0 Z5
X103.302 Y-178.728
G1 Z-0.562 F1000
G3 X102.794 Z-1.07 I-0.508 K0
G1 X100
X0
G17 G2 X0 Y-173.964 I0 J2.382
G1 X100
G3 X100 Y-169.2 I0 J2.382
G1 X0
G2 X0 Y-164.436 I0 J2.382
G1 X100
G3 X100 Y-159.672 I0 J2.382
G1 X0
G2 X0 Y-154.908 I0 J2.382
G1 X100
G3 X100 Y-150.144 I0 J2.382
G1 X0
G2 X0 Y-145.38 I0 J2.382
G1 X100
G3 X100 Y-140.616 I0 J2.382
G1 X0
G2 X0 Y-135.852 I0 J2.382
G1 X100
G3 X100 Y-131.088 I0 J2.382
G1 X0
G2 X0 Y-126.324 I0 J2.382
G1 X100
G3 X100 Y-121.56 I0 J2.382
G1 X0
G2 X0 Y-116.796 I0 J2.382
G1 X100
G3 X100 Y-112.032 I0 J2.382
G1 X0
G2 X0 Y-107.268 I0 J2.382
G1 X100
G3 X100 Y-102.504 I0 J2.382
G1 X0
G2 X0 Y-97.74 I0 J2.382
G1 X100
G3 X100 Y-92.977 I0 J2.382
G1 X0
G2 X0 Y-88.213 I0 J2.382
G1 X100
G3 X100 Y-83.449 I0 J2.382
G1 X0
G2 X0 Y-78.685 I0 J2.382
G1 X100
G3 X100 Y-73.921 I0 J2.382
G1 X0
G2 X0 Y-69.157 I0 J2.382
G1 X100
G3 X100 Y-64.393 I0 J2.382
G1 X0
G2 X0 Y-59.629 I0 J2.382
G1 X100
G3 X100 Y-54.865 I0 J2.382
G1 X0
G2 X0 Y-50.101 I0 J2.382
G1 X100
G3 X100 Y-45.337 I0 J2.382
G1 X0
G2 X0 Y-40.573 I0 J2.382
G1 X100
G3 X100 Y-35.809 I0 J2.382
G1 X0
G2 X0 Y-31.045 I0 J2.382
G1 X100
G3 X100 Y-26.281 I0 J2.382
G1 X0
G2 X0 Y-21.517 I0 J2.382
G1 X100
G3 X100 Y-16.753 I0 J2.382
G1 X0
G2 X0 Y-11.989 I0 J2.382
G1 X100
G3 X100 Y-7.225 I0 J2.382
G1 X0
G2 X0 Y-2.461 I0 J2.382
G1 X100
G18 G2 X100.508 Z-0.562 I0 K0.508
G0 Z5
X103.302 Y-178.728
G1 Z-1.062 F1000
G3 X102.794 Z-1.57 I-0.508 K0
G1 X100
X0
G17 G2 X0 Y-173.964 I0 J2.382
G1 X100
G3 X100 Y-169.2 I0 J2.382
G1 X0
G2 X0 Y-164.436 I0 J2.382
G1 X100
G3 X100 Y-159.672 I0 J2.382
G1 X0
G2 X0 Y-154.908 I0 J2.382
G1 X100
G3 X100 Y-150.144 I0 J2.382
G1 X0
G2 X0 Y-145.38 I0 J2.382
G1 X100
G3 X100 Y-140.616 I0 J2.382
G1 X0
G2 X0 Y-135.852 I0 J2.382
G1 X100
G3 X100 Y-131.088 I0 J2.382
G1 X0
G2 X0 Y-126.324 I0 J2.382
G1 X100
G3 X100 Y-121.56 I0 J2.382
G1 X0
G2 X0 Y-116.796 I0 J2.382
G1 X100
G3 X100 Y-112.032 I0 J2.382
G1 X0
G2 X0 Y-107.268 I0 J2.382
G1 X100
G3 X100 Y-102.504 I0 J2.382
G1 X0
G2 X0 Y-97.74 I0 J2.382
G1 X100
G3 X100 Y-92.977 I0 J2.382
G1 X0
G2 X0 Y-88.213 I0 J2.382
G1 X100
G3 X100 Y-83.449 I0 J2.382
G1 X0
G2 X0 Y-78.685 I0 J2.382
G1 X100
G3 X100 Y-73.921 I0 J2.382
G1 X0
G2 X0 Y-69.157 I0 J2.382
G1 X100
G3 X100 Y-64.393 I0 J2.382
G1 X0
G2 X0 Y-59.629 I0 J2.382
G1 X100
G3 X100 Y-54.865 I0 J2.382
G1 X0
G2 X0 Y-50.101 I0 J2.382
G1 X100
G3 X100 Y-45.337 I0 J2.382
G1 X0
G2 X0 Y-40.573 I0 J2.382
G1 X100
G3 X100 Y-35.809 I0 J2.382
G1 X0
G2 X0 Y-31.045 I0 J2.382
G1 X100
G3 X100 Y-26.281 I0 J2.382
G1 X0
G2 X0 Y-21.517 I0 J2.382
G1 X100
G3 X100 Y-16.753 I0 J2.382
G1 X0
G2 X0 Y-11.989 I0 J2.382
G1 X100
G3 X100 Y-7.225 I0 J2.382
G1 X0
G2 X0 Y-2.461 I0 J2.382
G1 X100
G18 G2 X100.508 Z-1.062 I0 K0.508
G0 Z15
G17
M9
G28 G91 Z0
G90
G28 G91 X0 Y0
G90
M5
M30
