(1001)
(T1  D=5.08 CR=0 - ZMIN=-2 - flat end mill)
G90 G94
G17
G21
G28 G91 Z0
G90

(Face1)
T1
S18000 M3
G54
M8
G0 X83.302 Y-157.785
Z15
Z5
G1 Z0.008 F1000
G18 G3 X82.794 Z-0.5 I-0.508 K0
G1 X80
X0
G17 G2 X0 Y-153.078 I0 J2.353
G1 X80
G3 X80 Y-148.371 I0 J2.353
G1 X0
G2 X0 Y-143.665 I0 J2.353
G1 X80
G3 X80 Y-138.958 I0 J2.353
G1 X0
G2 X0 Y-134.251 I0 J2.353
G1 X80
G3 X80 Y-129.544 I0 J2.353
G1 X0
G2 X0 Y-124.838 I0 J2.353
G1 X80
G3 X80 Y-120.131 I0 J2.353
G1 X0
G2 X0 Y-115.424 I0 J2.353
G1 X80
G3 X80 Y-110.717 I0 J2.353
G1 X0
G2 X0 Y-106.01 I0 J2.353
G1 X80
G3 X80 Y-101.304 I0 J2.353
G1 X0
G2 X0 Y-96.597 I0 J2.353
G1 X80
G3 X80 Y-91.89 I0 J2.353
G1 X0
G2 X0 Y-87.183 I0 J2.353
G1 X80
G3 X80 Y-82.477 I0 J2.353
G1 X0
G2 X0 Y-77.77 I0 J2.353
G1 X80
G3 X80 Y-73.063 I0 J2.353
G1 X0
G2 X0 Y-68.356 I0 J2.353
G1 X80
G3 X80 Y-63.649 I0 J2.353
G1 X0
G2 X0 Y-58.943 I0 J2.353
G1 X80
G3 X80 Y-54.236 I0 J2.353
G1 X0
G2 X0 Y-49.529 I0 J2.353
G1 X80
G3 X80 Y-44.822 I0 J2.353
G1 X0
G2 X0 Y-40.115 I0 J2.353
G1 X80
G3 X80 Y-35.409 I0 J2.353
G1 X0
G2 X0 Y-30.702 I0 J2.353
G1 X80
G3 X80 Y-25.995 I0 J2.353
G1 X0
G2 X0 Y-21.288 I0 J2.353
G1 X80
G3 X80 Y-16.582 I0 J2.353
G1 X0
G2 X0 Y-11.875 I0 J2.353
G1 X80
G3 X80 Y-7.168 I0 J2.353
G1 X0
G2 X0 Y-2.461 I0 J2.353
G1 X80
G18 G2 X80.508 Z0.008 I0 K0.508
G0 Z5
X83.302 Y-157.785
G1 Z-0.492 F1000
G3 X82.794 Z-1 I-0.508 K0
G1 X80
X0
G17 G2 X0 Y-153.078 I0 J2.353
G1 X80
G3 X80 Y-148.371 I0 J2.353
G1 X0
G2 X0 Y-143.665 I0 J2.353
G1 X80
G3 X80 Y-138.958 I0 J2.353
G1 X0
G2 X0 Y-134.251 I0 J2.353
G1 X80
G3 X80 Y-129.544 I0 J2.353
G1 X0
G2 X0 Y-124.838 I0 J2.353
G1 X80
G3 X80 Y-120.131 I0 J2.353
G1 X0
G2 X0 Y-115.424 I0 J2.353
G1 X80
G3 X80 Y-110.717 I0 J2.353
G1 X0
G2 X0 Y-106.01 I0 J2.353
G1 X80
G3 X80 Y-101.304 I0 J2.353
G1 X0
G2 X0 Y-96.597 I0 J2.353
G1 X80
G3 X80 Y-91.89 I0 J2.353
G1 X0
G2 X0 Y-87.183 I0 J2.353
G1 X80
G3 X80 Y-82.477 I0 J2.353
G1 X0
G2 X0 Y-77.77 I0 J2.353
G1 X80
G3 X80 Y-73.063 I0 J2.353
G1 X0
G2 X0 Y-68.356 I0 J2.353
G1 X80
G3 X80 Y-63.649 I0 J2.353
G1 X0
G2 X0 Y-58.943 I0 J2.353
G1 X80
G3 X80 Y-54.236 I0 J2.353
G1 X0
G2 X0 Y-49.529 I0 J2.353
G1 X80
G3 X80 Y-44.822 I0 J2.353
G1 X0
G2 X0 Y-40.115 I0 J2.353
G1 X80
G3 X80 Y-35.409 I0 J2.353
G1 X0
G2 X0 Y-30.702 I0 J2.353
G1 X80
G3 X80 Y-25.995 I0 J2.353
G1 X0
G2 X0 Y-21.288 I0 J2.353
G1 X80
G3 X80 Y-16.582 I0 J2.353
G1 X0
G2 X0 Y-11.875 I0 J2.353
G1 X80
G3 X80 Y-7.168 I0 J2.353
G1 X0
G2 X0 Y-2.461 I0 J2.353
G1 X80
G18 G2 X80.508 Z-0.492 I0 K0.508
G0 Z5
X83.302 Y-157.785
G1 Z-0.992 F1000
G3 X82.794 Z-1.5 I-0.508 K0
G1 X80
X0
G17 G2 X0 Y-153.078 I0 J2.353
G1 X80
G3 X80 Y-148.371 I0 J2.353
G1 X0
G2 X0 Y-143.665 I0 J2.353
G1 X80
G3 X80 Y-138.958 I0 J2.353
G1 X0
G2 X0 Y-134.251 I0 J2.353
G1 X80
G3 X80 Y-129.544 I0 J2.353
G1 X0
G2 X0 Y-124.838 I0 J2.353
G1 X80
G3 X80 Y-120.131 I0 J2.353
G1 X0
G2 X0 Y-115.424 I0 J2.353
G1 X80
G3 X80 Y-110.717 I0 J2.353
G1 X0
G2 X0 Y-106.01 I0 J2.353
G1 X80
G3 X80 Y-101.304 I0 J2.353
G1 X0
G2 X0 Y-96.597 I0 J2.353
G1 X80
G3 X80 Y-91.89 I0 J2.353
G1 X0
G2 X0 Y-87.183 I0 J2.353
G1 X80
G3 X80 Y-82.477 I0 J2.353
G1 X0
G2 X0 Y-77.77 I0 J2.353
G1 X80
G3 X80 Y-73.063 I0 J2.353
G1 X0
G2 X0 Y-68.356 I0 J2.353
G1 X80
G3 X80 Y-63.649 I0 J2.353
G1 X0
G2 X0 Y-58.943 I0 J2.353
G1 X80
G3 X80 Y-54.236 I0 J2.353
G1 X0
G2 X0 Y-49.529 I0 J2.353
G1 X80
G3 X80 Y-44.822 I0 J2.353
G1 X0
G2 X0 Y-40.115 I0 J2.353
G1 X80
G3 X80 Y-35.409 I0 J2.353
G1 X0
G2 X0 Y-30.702 I0 J2.353
G1 X80
G3 X80 Y-25.995 I0 J2.353
G1 X0
G2 X0 Y-21.288 I0 J2.353
G1 X80
G3 X80 Y-16.582 I0 J2.353
G1 X0
G2 X0 Y-11.875 I0 J2.353
G1 X80
G3 X80 Y-7.168 I0 J2.353
G1 X0
G2 X0 Y-2.461 I0 J2.353
G1 X80
G18 G2 X80.508 Z-0.992 I0 K0.508
G0 Z5
X83.302 Y-157.785
G1 Z-1.492 F1000
G3 X82.794 Z-2 I-0.508 K0
G1 X80
X0
G17 G2 X0 Y-153.078 I0 J2.353
G1 X80
G3 X80 Y-148.371 I0 J2.353
G1 X0
G2 X0 Y-143.665 I0 J2.353
G1 X80
G3 X80 Y-138.958 I0 J2.353
G1 X0
G2 X0 Y-134.251 I0 J2.353
G1 X80
G3 X80 Y-129.544 I0 J2.353
G1 X0
G2 X0 Y-124.838 I0 J2.353
G1 X80
G3 X80 Y-120.131 I0 J2.353
G1 X0
G2 X0 Y-115.424 I0 J2.353
G1 X80
G3 X80 Y-110.717 I0 J2.353
G1 X0
G2 X0 Y-106.01 I0 J2.353
G1 X80
G3 X80 Y-101.304 I0 J2.353
G1 X0
G2 X0 Y-96.597 I0 J2.353
G1 X80
G3 X80 Y-91.89 I0 J2.353
G1 X0
G2 X0 Y-87.183 I0 J2.353
G1 X80
G3 X80 Y-82.477 I0 J2.353
G1 X0
G2 X0 Y-77.77 I0 J2.353
G1 X80
G3 X80 Y-73.063 I0 J2.353
G1 X0
G2 X0 Y-68.356 I0 J2.353
G1 X80
G3 X80 Y-63.649 I0 J2.353
G1 X0
G2 X0 Y-58.943 I0 J2.353
G1 X80
G3 X80 Y-54.236 I0 J2.353
G1 X0
G2 X0 Y-49.529 I0 J2.353
G1 X80
G3 X80 Y-44.822 I0 J2.353
G1 X0
G2 X0 Y-40.115 I0 J2.353
G1 X80
G3 X80 Y-35.409 I0 J2.353
G1 X0
G2 X0 Y-30.702 I0 J2.353
G1 X80
G3 X80 Y-25.995 I0 J2.353
G1 X0
G2 X0 Y-21.288 I0 J2.353
G1 X80
G3 X80 Y-16.582 I0 J2.353
G1 X0
G2 X0 Y-11.875 I0 J2.353
G1 X80
G3 X80 Y-7.168 I0 J2.353
G1 X0
G2 X0 Y-2.461 I0 J2.353
G1 X80
G18 G2 X80.508 Z-1.492 I0 K0.508
G0 Z15
G17
M9
G28 G91 Z0
G90
G28 G91 X0 Y0
G90
M5
M30
