(surfaceClearing)
(T1  D=6.35 CR=0 - ZMIN=-1.66 - flat end mill)
G90 G94
G17
G21
G28 G91 Z0
G90

(Face2)
T1
S18000 M3
G54
M8
G0 X89.378 Y-178.275
Z15
Z5
G1 Z0.475 F3048
G18 G3 X88.743 Z-0.16 I-0.635 K0
G1 X85.25
X0
G17 G2 X0 Y-172.435 I0 J2.92
G1 X85.25
G3 X85.25 Y-166.595 I0 J2.92
G1 X0
G2 X0 Y-160.755 I0 J2.92
G1 X85.25
G3 X85.25 Y-154.915 I0 J2.92
G1 X0
G2 X0 Y-149.075 I0 J2.92
G1 X85.25
G3 X85.25 Y-143.235 I0 J2.92
G1 X0
G2 X0 Y-137.395 I0 J2.92
G1 X85.25
G3 X85.25 Y-131.555 I0 J2.92
G1 X0
G2 X0 Y-125.715 I0 J2.92
G1 X85.25
G3 X85.25 Y-119.875 I0 J2.92
G1 X0
G2 X0 Y-114.035 I0 J2.92
G1 X85.25
G3 X85.25 Y-108.195 I0 J2.92
G1 X0
G2 X0 Y-102.356 I0 J2.92
G1 X85.25
G3 X85.25 Y-96.516 I0 J2.92
G1 X0
G2 X0 Y-90.676 I0 J2.92
G1 X85.25
G3 X85.25 Y-84.836 I0 J2.92
G1 X0
G2 X0 Y-78.996 I0 J2.92
G1 X85.25
G3 X85.25 Y-73.156 I0 J2.92
G1 X0
G2 X0 Y-67.316 I0 J2.92
G1 X85.25
G3 X85.25 Y-61.476 I0 J2.92
G1 X0
G2 X0 Y-55.636 I0 J2.92
G1 X85.25
G3 X85.25 Y-49.796 I0 J2.92
G1 X0
G2 X0 Y-43.956 I0 J2.92
G1 X85.25
G3 X85.25 Y-38.116 I0 J2.92
G1 X0
G2 X0 Y-32.276 I0 J2.92
G1 X85.25
G3 X85.25 Y-26.436 I0 J2.92
G1 X0
G2 X0 Y-20.596 I0 J2.92
G1 X85.25
G3 X85.25 Y-14.756 I0 J2.92
G1 X0
G2 X0 Y-8.917 I0 J2.92
G1 X85.25
G3 X85.25 Y-3.077 I0 J2.92
G1 X0
G18 G3 X-0.635 Z0.475 I0 K0.635
G0 Z5
X-4.128 Y-178.275
G1 Z-0.025 F3048
G2 X-3.493 Z-0.66 I0.635 K0
G1 X0
X85.25
G17 G3 X85.25 Y-172.435 I0 J2.92
G1 X0
G2 X0 Y-166.595 I0 J2.92
G1 X85.25
G3 X85.25 Y-160.755 I0 J2.92
G1 X0
G2 X0 Y-154.915 I0 J2.92
G1 X85.25
G3 X85.25 Y-149.075 I0 J2.92
G1 X0
G2 X0 Y-143.235 I0 J2.92
G1 X85.25
G3 X85.25 Y-137.395 I0 J2.92
G1 X0
G2 X0 Y-131.555 I0 J2.92
G1 X85.25
G3 X85.25 Y-125.715 I0 J2.92
G1 X0
G2 X0 Y-119.875 I0 J2.92
G1 X85.25
G3 X85.25 Y-114.035 I0 J2.92
G1 X0
G2 X0 Y-108.195 I0 J2.92
G1 X85.25
G3 X85.25 Y-102.356 I0 J2.92
G1 X0
G2 X0 Y-96.516 I0 J2.92
G1 X85.25
G3 X85.25 Y-90.676 I0 J2.92
G1 X0
G2 X0 Y-84.836 I0 J2.92
G1 X85.25
G3 X85.25 Y-78.996 I0 J2.92
G1 X0
G2 X0 Y-73.156 I0 J2.92
G1 X85.25
G3 X85.25 Y-67.316 I0 J2.92
G1 X0
G2 X0 Y-61.476 I0 J2.92
G1 X85.25
G3 X85.25 Y-55.636 I0 J2.92
G1 X0
G2 X0 Y-49.796 I0 J2.92
G1 X85.25
G3 X85.25 Y-43.956 I0 J2.92
G1 X0
G2 X0 Y-38.116 I0 J2.92
G1 X85.25
G3 X85.25 Y-32.276 I0 J2.92
G1 X0
G2 X0 Y-26.436 I0 J2.92
G1 X85.25
G3 X85.25 Y-20.596 I0 J2.92
G1 X0
G2 X0 Y-14.756 I0 J2.92
G1 X85.25
G3 X85.25 Y-8.917 I0 J2.92
G1 X0
G2 X0 Y-3.077 I0 J2.92
G1 X85.25
G18 G2 X85.885 Z-0.025 I0 K0.635
G0 Z5
X89.378 Y-178.275
G1 Z-0.525 F3048
G3 X88.743 Z-1.16 I-0.635 K0
G1 X85.25
X0
G17 G2 X0 Y-172.435 I0 J2.92
G1 X85.25
G3 X85.25 Y-166.595 I0 J2.92
G1 X0
G2 X0 Y-160.755 I0 J2.92
G1 X85.25
G3 X85.25 Y-154.915 I0 J2.92
G1 X0
G2 X0 Y-149.075 I0 J2.92
G1 X85.25
G3 X85.25 Y-143.235 I0 J2.92
G1 X0
G2 X0 Y-137.395 I0 J2.92
G1 X85.25
G3 X85.25 Y-131.555 I0 J2.92
G1 X0
G2 X0 Y-125.715 I0 J2.92
G1 X85.25
G3 X85.25 Y-119.875 I0 J2.92
G1 X0
G2 X0 Y-114.035 I0 J2.92
G1 X85.25
G3 X85.25 Y-108.195 I0 J2.92
G1 X0
G2 X0 Y-102.356 I0 J2.92
G1 X85.25
G3 X85.25 Y-96.516 I0 J2.92
G1 X0
G2 X0 Y-90.676 I0 J2.92
G1 X85.25
G3 X85.25 Y-84.836 I0 J2.92
G1 X0
G2 X0 Y-78.996 I0 J2.92
G1 X85.25
G3 X85.25 Y-73.156 I0 J2.92
G1 X0
G2 X0 Y-67.316 I0 J2.92
G1 X85.25
G3 X85.25 Y-61.476 I0 J2.92
G1 X0
G2 X0 Y-55.636 I0 J2.92
G1 X85.25
G3 X85.25 Y-49.796 I0 J2.92
G1 X0
G2 X0 Y-43.956 I0 J2.92
G1 X85.25
G3 X85.25 Y-38.116 I0 J2.92
G1 X0
G2 X0 Y-32.276 I0 J2.92
G1 X85.25
G3 X85.25 Y-26.436 I0 J2.92
G1 X0
G2 X0 Y-20.596 I0 J2.92
G1 X85.25
G3 X85.25 Y-14.756 I0 J2.92
G1 X0
G2 X0 Y-8.917 I0 J2.92
G1 X85.25
G3 X85.25 Y-3.077 I0 J2.92
G1 X0
G18 G3 X-0.635 Z-0.525 I0 K0.635
G0 Z5
X-4.128 Y-178.275
G1 Z-1.025 F3048
G2 X-3.493 Z-1.66 I0.635 K0
G1 X0
X85.25
G17 G3 X85.25 Y-172.435 I0 J2.92
G1 X0
G2 X0 Y-166.595 I0 J2.92
G1 X85.25
G3 X85.25 Y-160.755 I0 J2.92
G1 X0
G2 X0 Y-154.915 I0 J2.92
G1 X85.25
G3 X85.25 Y-149.075 I0 J2.92
G1 X0
G2 X0 Y-143.235 I0 J2.92
G1 X85.25
G3 X85.25 Y-137.395 I0 J2.92
G1 X0
G2 X0 Y-131.555 I0 J2.92
G1 X85.25
G3 X85.25 Y-125.715 I0 J2.92
G1 X0
G2 X0 Y-119.875 I0 J2.92
G1 X85.25
G3 X85.25 Y-114.035 I0 J2.92
G1 X0
G2 X0 Y-108.195 I0 J2.92
G1 X85.25
G3 X85.25 Y-102.356 I0 J2.92
G1 X0
G2 X0 Y-96.516 I0 J2.92
G1 X85.25
G3 X85.25 Y-90.676 I0 J2.92
G1 X0
G2 X0 Y-84.836 I0 J2.92
G1 X85.25
G3 X85.25 Y-78.996 I0 J2.92
G1 X0
G2 X0 Y-73.156 I0 J2.92
G1 X85.25
G3 X85.25 Y-67.316 I0 J2.92
G1 X0
G2 X0 Y-61.476 I0 J2.92
G1 X85.25
G3 X85.25 Y-55.636 I0 J2.92
G1 X0
G2 X0 Y-49.796 I0 J2.92
G1 X85.25
G3 X85.25 Y-43.956 I0 J2.92
G1 X0
G2 X0 Y-38.116 I0 J2.92
G1 X85.25
G3 X85.25 Y-32.276 I0 J2.92
G1 X0
G2 X0 Y-26.436 I0 J2.92
G1 X85.25
G3 X85.25 Y-20.596 I0 J2.92
G1 X0
G2 X0 Y-14.756 I0 J2.92
G1 X85.25
G3 X85.25 Y-8.917 I0 J2.92
G1 X0
G2 X0 Y-3.077 I0 J2.92
G1 X85.25
G18 G2 X85.885 Z-1.025 I0 K0.635
G0 Z15
G17
M9
G28 G91 Z0
G90
G28 G91 X0 Y0
G90
M5
M30
