(testAdapter)
(T8 D=6.35 CR=0 - ZMIN=-7 - flat end mill)
G90 G94
G17
G21
G28 G91 Z0
G90

(2D Contour3)
T8
S18000 M3
G17 G90 G94
G54
G0 X16.113 Y-21.83
Z15
G0 Z5
G1 Z1 F50
Z-6.365
X16.114 Y-21.838 Z-6.464
X16.117 Y-21.861 Z-6.561
X16.121 Y-21.899 Z-6.653
X16.126 Y-21.951 Z-6.738
X16.133 Y-22.015 Z-6.814
X16.141 Y-22.09 Z-6.879
X16.15 Y-22.175 Z-6.931
X16.16 Y-22.266 Z-6.969
X16.17 Y-22.363 Z-6.992
X16.18 Y-22.461 Z-7
X16.247 Y-23.093
G3 X16.946 Y-23.657 I0.631 J0.067
G1 X268.299 Y3.049 F150
G2 X293.175 Y-19.323 I2.377 J-22.372
G1 Y-155.947
G2 X268.3 Y-178.319 I-22.498 J0
G1 X16.946 Y-151.613
G2 X-3.175 Y-129.241 I2.377 J22.372
G1 Y-46.029
G2 X16.946 Y-23.657 I22.498 J0
G3 X17.51 Y-22.959 I-0.067 J0.631
G1 X17.443 Y-22.327
X17.433 Y-22.229 Z-6.992
X17.422 Y-22.132 Z-6.969
X17.413 Y-22.041 Z-6.931
X17.404 Y-21.956 Z-6.879
X17.396 Y-21.881 Z-6.814
X17.389 Y-21.816 Z-6.738
X17.383 Y-21.765 Z-6.653
X17.379 Y-21.727 Z-6.561
X17.377 Y-21.704 Z-6.464
X17.376 Y-21.696 Z-6.365
G0 Z15
G28 G91 Z0
G90
G28 G91 X0 Y0
G90
M5
M30
