(trek_rack_v1)
(T1 D=3.175 CR=0 - ZMIN=-5.2 - flat end mill)
G90 G94
G17
G21
G28 G91 Z0
G90

(2D Contour1)
T1
S18000 M3
G17 G90 G94
G54
G0 X227.197 Y-11.896
Z15
G0 Z5
G1 Z0.635 F25
Z-4.883
X227.205 Y-11.897 Z-4.953 F75
X227.228 Y-11.898 Z-5.02
X227.266 Y-11.9 Z-5.08
X227.316 Y-11.902 Z-5.131
X227.376 Y-11.905 Z-5.169
X227.443 Y-11.908 Z-5.192
X227.514 Y-11.912 Z-5.2
X227.831 Y-11.927
G3 X228.163 Y-11.625 I0.015 J0.317
G1 X228.211 Y-10.626
G3 X227.819 Y-10.194 I-0.412 J0.02
G1 X196.855 Y-8.707
G3 X196.423 Y-9.099 I-0.02 J-0.412
G1 X196.327 Y-11.097
G3 X196.719 Y-11.529 I0.412 J-0.02
G1 X227.683 Y-13.016
G3 X228.115 Y-12.624 I0.02 J0.412
G1 X228.163 Y-11.625
G3 X227.861 Y-11.293 I-0.317 J0.015
G1 X227.544 Y-11.277
X227.474 Y-11.274 Z-5.192
X227.407 Y-11.271 Z-5.169
X227.347 Y-11.268 Z-5.131
X227.296 Y-11.265 Z-5.08
X227.259 Y-11.264 Z-5.02
X227.235 Y-11.263 Z-4.953
X227.227 Y-11.262 Z-4.883
G0 Z5
X197.49 Y-70.031
G1 Z0.635 F25
Z-4.883
X197.491 Y-70.039 Z-4.953 F75
X197.492 Y-70.063 Z-5.02
X197.494 Y-70.101 Z-5.08
X197.496 Y-70.151 Z-5.131
X197.499 Y-70.211 Z-5.169
X197.502 Y-70.278 Z-5.192
X197.506 Y-70.349 Z-5.2
X197.521 Y-70.666
G3 X197.853 Y-70.968 I0.317 J0.015
G1 X227.819 Y-69.528
G3 X228.211 Y-69.096 I-0.02 J0.412
G1 X228.115 Y-67.099
G3 X227.683 Y-66.706 I-0.412 J-0.02
G1 X196.719 Y-68.194
G3 X196.327 Y-68.626 I0.02 J-0.412
G1 X196.423 Y-70.623
G3 X196.855 Y-71.016 I0.412 J0.02
G1 X197.853 Y-70.968
G3 X198.155 Y-70.635 I-0.015 J0.317
G1 X198.14 Y-70.318
X198.137 Y-70.248 Z-5.192
X198.133 Y-70.18 Z-5.169
X198.13 Y-70.12 Z-5.131
X198.128 Y-70.07 Z-5.08
X198.126 Y-70.032 Z-5.02
X198.125 Y-70.009 Z-4.953
Y-70.001 Z-4.883
G0 Z5
X157.558 Y-62.017
G1 Z0.635 F25
Z-4.883
G18 G2 X157.876 Z-5.2 I0.318 K0 F75
G1 X158.193
G17 G3 X158.51 Y-61.7 I0 J0.318
G1 Y-45.763
X156.734
Y-62.588
X158.51
Y-61.7
G3 X158.193 Y-61.382 I-0.318 J0
G1 X157.876
G18 G3 X157.558 Z-4.883 I0 K0.317
G0 Z5
X142.313 Y-46.968
G1 Z0.635 F25
Z-4.883
G2 X142.63 Z-5.2 I0.317 K0 F75
G1 X142.948
G17 G3 X143.266 Y-46.651 I0 J0.318
G1 Y-45.763
X141.49
Y-62.588
X143.266
Y-46.651
G3 X142.948 Y-46.333 I-0.318 J0
G1 X142.63
G18 G3 X142.313 Z-4.883 I0 K0.317
G0 Z5
Y-33.389
G1 Z0.635 F25
Z-4.883
G2 X142.63 Z-5.2 I0.317 K0 F75
G1 X142.948
G17 G3 X143.266 Y-33.072 I0 J0.318
G1 Y-17.135
X141.49
Y-33.96
X143.266
Y-33.072
G3 X142.948 Y-32.754 I-0.318 J0
G1 X142.63
G18 G3 X142.313 Z-4.883 I0 K0.317
G0 Z5
X157.558 Y-33.389
G1 Z0.635 F25
Z-4.883
G2 X157.876 Z-5.2 I0.318 K0 F75
G1 X158.193
G17 G3 X158.51 Y-33.072 I0 J0.318
G1 Y-17.135
X156.734
Y-33.96
X158.51
Y-33.072
G3 X158.193 Y-32.754 I-0.318 J0
G1 X157.876
G18 G3 X157.558 Z-4.883 I0 K0.317
G0 Z5
X99.686 Y-13.179
G1 Z0.635 F25
Z-4.883
G2 X100.004 Z-5.2 I0.318 K0 F75
G1 X100.321
G17 G3 X100.638 Y-12.861 I0 J0.318
G1 Y-11.861
G3 X100.226 Y-11.449 I-0.412 J0
G1 X69.226
G3 X68.814 Y-11.861 I0 J-0.412
G1 Y-13.861
G3 X69.226 Y-14.274 I0.412 J0
G1 X100.226
G3 X100.638 Y-13.861 I0 J0.412
G1 Y-12.861
G3 X100.321 Y-12.544 I-0.317 J0
G1 X100.004
G18 G3 X99.686 Z-4.883 I0 K0.317
G0 Z5
X47.449 Y-18.34
G1 Z0.635 F25
Z-4.883
G2 X47.767 Z-5.2 I0.318 K0 F75
G1 X48.084
G17 G3 X48.402 Y-18.023 I0 J0.317
G1 Y-17.135
X46.626
Y-33.96
X48.402
Y-18.023
G3 X48.084 Y-17.705 I-0.317 J0
G1 X47.767
G18 G3 X47.449 Z-4.883 I0 K0.317
G0 Z5
X32.425 Y-33.39
G1 Z0.635 F25
Z-4.883
G2 X32.742 Z-5.2 I0.317 K0 F75
G1 X33.06
G17 G3 X33.377 Y-33.072 I0 J0.318
G1 Y-17.135
X31.602
Y-33.96
X33.377
Y-33.072
G3 X33.06 Y-32.755 I-0.318 J0
G1 X32.742
G18 G3 X32.425 Z-4.883 I0 K0.317
G0 Z5
Y-62.017
G1 Z0.635 F25
Z-4.883
G2 X32.742 Z-5.2 I0.317 K0 F75
G1 X33.06
G17 G3 X33.377 Y-61.7 I0 J0.318
G1 Y-45.763
X31.602
Y-62.588
X33.377
Y-61.7
G3 X33.06 Y-61.382 I-0.318 J0
G1 X32.742
G18 G3 X32.425 Z-4.883 I0 K0.317
G0 Z5
X47.449 Y-62.017
G1 Z0.635 F25
Z-4.883
G2 X47.767 Z-5.2 I0.318 K0 F75
G1 X48.084
G17 G3 X48.402 Y-61.7 I0 J0.318
G1 Y-45.763
X46.626
Y-62.588
X48.402
Y-61.7
G3 X48.084 Y-61.382 I-0.317 J0
G1 X47.767
G18 G3 X47.449 Z-4.883 I0 K0.317
G0 Z5
X99.686 Y-67.179
G1 Z0.635 F25
Z-4.883
G2 X100.004 Z-5.2 I0.318 K0 F75
G1 X100.321
G17 G3 X100.638 Y-66.861 I0 J0.318
G1 Y-65.861
G3 X100.226 Y-65.449 I-0.412 J0
G1 X69.226
G3 X68.814 Y-65.861 I0 J-0.412
G1 Y-67.861
G3 X69.226 Y-68.274 I0.412 J0
G1 X100.226
G3 X100.638 Y-67.861 I0 J0.412
G1 Y-66.861
G3 X100.321 Y-66.544 I-0.317 J0
G1 X100.004
G18 G3 X99.686 Z-4.883 I0 K0.317
G0 Z5
X320.295 Y-64.133
G1 Z0.635 F25
Z-4.883
Y-64.141 Z-4.953 F75
X320.296 Y-64.164 Z-5.02
X320.298 Y-64.202 Z-5.08
X320.3 Y-64.252 Z-5.131
X320.303 Y-64.312 Z-5.169
X320.307 Y-64.379 Z-5.192
X320.31 Y-64.45 Z-5.2
X320.325 Y-64.767
G17 G3 X320.658 Y-65.069 I0.317 J0.015
G1 X350.624 Y-63.629
G3 X351.016 Y-63.198 I-0.019 J0.412
G1 X350.922 Y-61.238
G3 X350.491 Y-60.845 I-0.412 J-0.02
G1 X319.525 Y-62.297
G3 X319.133 Y-62.729 I0.019 J-0.412
G1 X319.229 Y-64.724
G3 X319.66 Y-65.117 I0.412 J0.019
G1 X320.658 Y-65.069
G3 X320.959 Y-64.736 I-0.015 J0.317
G1 X320.944 Y-64.419
X320.941 Y-64.349 Z-5.192
X320.938 Y-64.282 Z-5.169
X320.935 Y-64.222 Z-5.131
X320.932 Y-64.171 Z-5.08
X320.93 Y-64.134 Z-5.02
X320.929 Y-64.11 Z-4.953
Y-64.102 Z-4.883
G0 Z5
Y-15.62
G1 Z0.635 F25
Z-4.883
Y-15.612 Z-4.953 F75
X320.931 Y-15.589 Z-5.02
X320.932 Y-15.551 Z-5.08
X320.935 Y-15.501 Z-5.131
X320.938 Y-15.441 Z-5.169
X320.941 Y-15.374 Z-5.192
X320.944 Y-15.303 Z-5.2
X320.959 Y-14.986
G3 X320.658 Y-14.654 I-0.317 J0.015
G1 X319.66 Y-14.606
G3 X319.229 Y-14.998 I-0.02 J-0.412
G1 X319.133 Y-16.993
G3 X319.525 Y-17.425 I0.412 J-0.02
G1 X350.491 Y-18.877
G3 X350.922 Y-18.485 I0.019 J0.412
G1 X351.016 Y-16.525
G3 X350.624 Y-16.093 I-0.412 J0.02
G1 X320.658 Y-14.654
G3 X320.325 Y-14.956 I-0.015 J-0.317
G1 X320.31 Y-15.273
X320.307 Y-15.343 Z-5.192
X320.303 Y-15.41 Z-5.169
X320.3 Y-15.47 Z-5.131
X320.298 Y-15.521 Z-5.08
X320.296 Y-15.558 Z-5.02
X320.295 Y-15.582 Z-4.953
Y-15.59 Z-4.883
G0 Z5
X401.535 Y-33.389
G1 Z0.635 F25
Z-4.883
G18 G2 X401.853 Z-5.2 I0.318 K0 F75
G1 X402.17
G17 G3 X402.487 Y-33.072 I0 J0.318
G1 Y-17.135
X400.711
Y-33.96
X402.487
Y-33.072
G3 X402.17 Y-32.754 I-0.317 J0
G1 X401.853
G18 G3 X401.535 Z-4.883 I0 K0.317
G0 Z5
Y-46.941
G1 Z0.635 F25
Z-4.883
G2 X401.853 Z-5.2 I0.318 K0 F75
G1 X402.17
G17 G3 X402.487 Y-46.624 I0 J0.317
G1 Y-45.736
X400.711
Y-62.561
X402.487
Y-46.624
G3 X402.17 Y-46.306 I-0.317 J0
G1 X401.853
G18 G3 X401.535 Z-4.883 I0 K0.317
G0 Z15
G17
G28 G91 Z0
G90
G28 G91 X0 Y0
G90
M5
M30
