(trek_rack_outline_v1)
(T1 D=3.175 CR=0 - ZMIN=-5.2 - flat end mill)
G90 G94
G17
G21
G28 G91 Z0
G90

(2D Contour1 2)
T1
S18000 M3
G17 G90 G94
G54
G0 X402.878 Y-70.232
Z15
G0 Z5
G1 Z0.635 F25
Z-4.883
Y-70.224 Z-4.953 F50
X402.876 Y-70.2 Z-5.02
X402.875 Y-70.162 Z-5.08
X402.872 Y-70.112 Z-5.131
X402.869 Y-70.052 Z-5.169
X402.866 Y-69.985 Z-5.192
X402.863 Y-69.914 Z-5.2
X402.847 Y-69.597
G3 X402.515 Y-69.295 I-0.317 J-0.015
G1 X153.605 Y-81.277
G2 X146.147 Y-79.465 I-0.653 J13.572
G1 X143.354 Y-77.849
G3 X138.138 Y-76.449 I-5.216 J-9.012
G1 X4
G2 X-1.587 Y-70.861 I0 J5.588
G1 Y-8.861
G2 X4 Y-3.274 I5.587 J0
G1 X137.286
G3 X142.003 Y-2.144 I0 J10.412
G1 X146.446 Y0.113
G2 X153.253 Y1.572 I6.155 J-12.113
G1 X406.225 Y-10.579
G2 X411.544 Y-16.16 I-0.268 J-5.581
G1 Y-63.536
G2 X406.225 Y-69.117 I-5.587 J0
G1 X402.515 Y-69.295
G3 X402.213 Y-69.628 I0.015 J-0.317
G1 X402.228 Y-69.945
X402.232 Y-70.016 Z-5.192
X402.235 Y-70.083 Z-5.169
X402.238 Y-70.143 Z-5.131
X402.24 Y-70.193 Z-5.08
X402.242 Y-70.231 Z-5.02
X402.243 Y-70.254 Z-4.953
X402.244 Y-70.262 Z-4.883
G0 Z15
G28 G91 Z0
G90
G28 G91 X0 Y0
G90
M5
M30
