(trek_back_rack_plexy_pocket_v1)
(T8 D=6.35 CR=0 - ZMIN=-1.5 - flat end mill)
G90 G94
G17
G21
G28 G91 Z0
G90

(2D Adaptive1)
T8
S5000 M3
G17 G90 G94
G54
M8
G0 X38.089 Y-39.082
Z15
G0 Z5
Z2.55
G3 X33.821 Y-36.512 Z2.348 I-3.072 J-0.273 F333.3
X32.676 Y-41.354 Z2.145 I1.194 J-2.839
X37.631 Y-40.969 Z1.942 I2.337 J2.001
X35.756 Y-36.373 Z1.74 I-2.615 J1.614
X31.954 Y-39.555 Z1.538 I-0.74 J-2.979
X36.139 Y-42.203 Z1.335 I3.059 J0.203
X37.385 Y-37.416 Z1.133 I-1.125 J2.848
X32.451 Y-37.689 Z0.93 I-2.367 J-1.937
X34.213 Y-42.299 Z0.728 I2.564 J-1.662
X38.062 Y-39.219 Z0.525 I0.801 J2.945
X33.96 Y-36.495 Z0.322 I-3.045 J-0.135
X32.617 Y-41.227 Z0.12 I1.055 J-2.856
X37.528 Y-41.064 Z-0.083 I2.396 J1.874
X35.878 Y-36.442 Z-0.285 I-2.512 J1.709
X31.983 Y-39.419 Z-0.488 I-0.861 J-2.91
X36.001 Y-42.217 Z-0.69 I3.03 J0.067
X37.44 Y-37.543 Z-0.892 I-0.986 J2.862
X32.556 Y-37.598 Z-1.095 I-2.422 J-1.81
X34.094 Y-42.227 Z-1.298 I2.459 J-1.753
X38.03 Y-39.354 Z-1.5 I0.919 J2.873
X31.997 Y-39.354 I-3.016 J0
X38.03 Y-39.354 I3.016 J0
G1 X38.034 Y-39.126 F1000
X38.189 Y-38.228
X38.243 Y-38.088
X38.28 Y-37.943
X38.303 Y-37.794
X38.312 Y-37.645
X38.309 Y-37.486
X38.292 Y-37.317
X38.259 Y-37.138
X38.209 Y-36.952
X38.14 Y-36.758
X38.052 Y-36.561
X37.942 Y-36.361
X37.81 Y-36.162
X37.657 Y-35.965
X37.48 Y-35.773
X37.282 Y-35.589
X37.062 Y-35.416
X36.82 Y-35.256
X36.559 Y-35.111
X36.28 Y-34.984
X35.984 Y-34.878
X35.673 Y-34.794
X35.35 Y-34.733
X35.018 Y-34.699
X34.677 Y-34.69
X34.332 Y-34.71
X33.985 Y-34.758
X33.639 Y-34.834
X33.296 Y-34.939
X32.96 Y-35.073
X32.633 Y-35.234
X32.317 Y-35.422
X32.016 Y-35.637
X31.731 Y-35.877
X31.465 Y-36.14
X31.22 Y-36.424
X30.997 Y-36.729
X30.799 Y-37.052
X30.627 Y-37.39
X30.483 Y-37.743
X30.367 Y-38.106
X30.28 Y-38.479
X30.223 Y-38.858
X30.197 Y-39.241
X30.202 Y-39.625
X30.237 Y-40.008
X30.303 Y-40.388
X30.4 Y-40.761
X30.526 Y-41.125
X30.682 Y-41.479
X30.865 Y-41.819
X31.075 Y-42.143
X31.31 Y-42.45
X31.57 Y-42.737
X31.852 Y-43.002
X32.154 Y-43.244
X32.475 Y-43.461
X32.812 Y-43.652
X33.164 Y-43.815
X33.527 Y-43.949
X33.9 Y-44.053
X34.281 Y-44.128
X34.666 Y-44.171
X35.054 Y-44.184
X35.441 Y-44.165
X35.825 Y-44.115
X36.205 Y-44.035
X36.576 Y-43.924
X36.938 Y-43.784
X37.287 Y-43.615
X37.622 Y-43.419
X37.94 Y-43.197
X38.239 Y-42.95
X38.517 Y-42.679
X38.772 Y-42.387
X39.004 Y-42.076
X39.244 Y-41.691
X39.649 Y-40.91
X39.911 Y-40.286
X40.088 Y-39.748
X40.205 Y-39.262
X40.279 Y-38.797
X40.313 Y-38.347
X40.311 Y-37.911
X40.276 Y-37.487
X40.207 Y-37.072
X40.105 Y-36.666
X39.972 Y-36.27
X39.806 Y-35.885
X39.61 Y-35.513
X39.382 Y-35.154
X39.124 Y-34.812
X38.836 Y-34.489
X38.52 Y-34.186
X38.176 Y-33.906
X37.805 Y-33.652
X37.41 Y-33.424
X36.992 Y-33.226
X36.554 Y-33.06
X36.097 Y-32.928
X35.626 Y-32.832
X35.143 Y-32.774
X34.652 Y-32.754
X34.155 Y-32.774
X33.657 Y-32.834
X33.161 Y-32.935
X32.671 Y-33.076
X32.191 Y-33.258
X31.723 Y-33.479
X31.272 Y-33.738
X30.841 Y-34.035
X30.433 Y-34.367
X30.051 Y-34.732
X29.697 Y-35.129
X29.376 Y-35.554
X29.089 Y-36.006
X28.838 Y-36.481
X28.625 Y-36.975
X28.452 Y-37.487
X28.321 Y-38.012
X28.232 Y-38.547
X28.186 Y-39.088
X28.183 Y-39.633
X28.225 Y-40.176
X28.31 Y-40.715
X28.438 Y-41.246
X28.608 Y-41.766
X28.82 Y-42.27
X29.072 Y-42.757
X29.362 Y-43.222
X29.689 Y-43.662
X30.051 Y-44.075
X30.444 Y-44.458
X30.867 Y-44.808
X31.317 Y-45.123
X31.791 Y-45.401
X32.286 Y-45.64
X32.798 Y-45.839
X33.325 Y-45.996
X33.863 Y-46.11
X34.409 Y-46.181
X34.958 Y-46.208
X35.508 Y-46.19
X36.055 Y-46.129
X36.595 Y-46.023
X37.125 Y-45.875
X37.641 Y-45.685
X38.141 Y-45.454
X38.62 Y-45.183
X39.076 Y-44.875
X39.516 Y-44.523
X39.995 Y-44.073
X40.449 Y-43.571
X40.876 Y-43.016
X41.262 Y-42.421
X41.593 Y-41.806
X41.867 Y-41.183
X42.085 Y-40.555
X42.247 Y-39.928
X42.357 Y-39.302
X42.415 Y-38.679
X42.422 Y-38.062
X42.381 Y-37.452
X42.291 Y-36.851
X42.155 Y-36.263
X41.972 Y-35.69
X41.743 Y-35.133
X41.471 Y-34.596
X41.156 Y-34.082
X40.799 Y-33.592
X40.401 Y-33.131
X39.965 Y-32.699
X39.493 Y-32.302
X38.986 Y-31.94
X38.447 Y-31.618
X37.879 Y-31.338
X37.286 Y-31.102
X36.671 Y-30.913
X36.037 Y-30.773
X35.389 Y-30.684
X34.732 Y-30.647
X34.068 Y-30.662
X33.404 Y-30.731
X32.743 Y-30.855
X32.091 Y-31.031
X31.45 Y-31.261
X30.827 Y-31.544
X30.225 Y-31.877
X29.649 Y-32.259
X29.104 Y-32.688
X28.592 Y-33.162
X28.118 Y-33.677
X27.685 Y-34.231
X27.297 Y-34.819
X26.956 Y-35.438
X26.665 Y-36.085
X26.427 Y-36.755
X26.243 Y-37.443
X26.114 Y-38.145
X26.042 Y-38.856
X26.027 Y-39.572
X26.07 Y-40.287
X26.17 Y-40.998
X26.327 Y-41.699
X26.54 Y-42.386
X26.807 Y-43.054
X27.128 Y-43.699
X27.5 Y-44.317
X27.92 Y-44.903
X28.386 Y-45.454
X28.895 Y-45.966
X29.444 Y-46.435
X30.028 Y-46.859
X30.646 Y-47.235
X31.291 Y-47.56
X31.961 Y-47.833
X32.65 Y-48.051
X33.355 Y-48.213
X34.071 Y-48.317
X34.793 Y-48.364
X35.516 Y-48.353
X36.236 Y-48.284
X36.949 Y-48.157
X37.649 Y-47.974
X38.332 Y-47.735
X38.997 Y-47.44
X39.658 Y-47.082
X40.308 Y-46.658
X40.941 Y-46.168
X41.548 Y-45.616
X42.118 Y-45.006
X42.641 Y-44.349
X43.11 Y-43.651
X43.519 Y-42.92
X43.867 Y-42.164
X44.15 Y-41.39
X44.368 Y-40.601
X44.521 Y-39.805
X44.608 Y-39.006
X44.632 Y-38.207
X44.591 Y-37.415
X44.487 Y-36.631
X44.321 Y-35.862
X44.095 Y-35.11
X43.809 Y-34.379
X43.466 Y-33.674
X43.066 Y-32.997
X42.612 Y-32.353
X42.107 Y-31.746
X41.552 Y-31.178
X40.95 Y-30.655
X40.305 Y-30.179
X39.62 Y-29.754
X38.898 Y-29.383
X38.145 Y-29.069
X37.365 Y-28.815
X36.561 Y-28.624
X35.741 Y-28.497
X34.908 Y-28.436
X34.068 Y-28.442
X33.226 Y-28.515
X32.389 Y-28.657
X31.562 Y-28.867
X30.751 Y-29.143
X29.96 Y-29.486
X29.197 Y-29.892
X28.465 Y-30.36
X27.771 Y-30.888
X27.119 Y-31.472
X26.514 Y-32.108
X25.96 Y-32.792
X25.462 Y-33.521
X25.023 Y-34.29
X24.646 Y-35.093
X24.334 Y-35.926
X24.089 Y-36.783
X23.914 Y-37.658
X23.809 Y-38.546
X23.775 Y-39.441
X23.814 Y-40.336
X23.925 Y-41.227
X24.107 Y-42.107
X24.359 Y-42.97
X24.679 Y-43.811
X25.067 Y-44.624
X25.519 Y-45.403
X26.032 Y-46.145
X26.603 Y-46.843
X27.229 Y-47.493
X27.905 Y-48.091
X28.628 Y-48.633
X29.392 Y-49.116
X30.192 Y-49.536
X31.023 Y-49.89
X31.881 Y-50.177
X32.758 Y-50.393
X33.651 Y-50.539
X34.552 Y-50.613
X35.457 Y-50.614
X36.359 Y-50.542
X37.252 Y-50.398
X38.136 Y-50.182
X39.001 Y-49.895
X39.841 Y-49.54
X40.651 Y-49.12
X41.425 Y-48.639
X42.16 Y-48.099
X42.854 Y-47.507
X43.502 Y-46.866
X44.101 Y-46.179
X44.65 Y-45.451
X45.146 Y-44.686
X45.585 Y-43.887
X45.966 Y-43.058
X46.284 Y-42.203
X46.538 Y-41.328
X46.726 Y-40.435
X46.848 Y-39.532
X46.902 Y-38.622
X46.889 Y-37.71
X46.808 Y-36.802
X46.658 Y-35.902
X46.442 Y-35.016
X46.16 Y-34.149
X45.813 Y-33.306
X45.404 Y-32.491
X44.935 Y-31.709
X44.409 Y-30.965
X43.828 Y-30.262
X43.196 Y-29.605
X42.516 Y-28.997
X41.792 Y-28.443
X41.029 Y-27.944
X40.231 Y-27.503
X39.403 Y-27.121
X38.549 Y-26.801
X37.674 Y-26.544
X36.783 Y-26.35
X35.881 Y-26.22
X34.971 Y-26.155
X34.059 Y-26.157
X33.15 Y-26.225
X32.248 Y-26.359
X31.358 Y-26.555
X30.483 Y-26.814
X29.629 Y-27.133
X28.799 Y-27.51
X27.997 Y-27.943
X27.228 Y-28.433
X26.495 Y-28.976
X25.802 Y-29.569
X25.152 Y-30.208
X24.546 Y-30.889
X23.988 Y-31.61
X23.48 Y-32.368
X23.027 Y-33.159
X22.63 Y-33.98
X22.29 Y-34.826
X22.008 Y-35.693
X21.785 Y-36.577
X21.621 Y-37.474
X21.52 Y-38.38
X21.481 Y-39.291
X21.505 Y-40.203
X21.591 Y-41.111
X21.737 Y-42.011
X21.942 Y-42.899
X22.206 Y-43.772
X22.53 Y-44.624
X22.912 Y-45.452
X23.349 Y-46.252
X23.839 Y-47.022
X24.378 Y-47.757
X24.964 Y-48.455
X25.598 Y-49.111
X26.275 Y-49.721
X26.992 Y-50.285
X27.745 Y-50.8
X28.53 Y-51.264
X29.343 Y-51.675
X30.184 Y-52.029
X31.046 Y-52.324
X31.927 Y-52.56
X32.821 Y-52.738
X33.726 Y-52.856
X34.636 Y-52.914
X35.547 Y-52.91
X36.457 Y-52.842
X37.359 Y-52.714
X38.252 Y-52.526
X39.13 Y-52.28
X39.99 Y-51.978
X40.828 Y-51.619
X41.64 Y-51.204
X42.424 Y-50.738
X43.176 Y-50.223
X43.895 Y-49.662
X44.578 Y-49.058
X45.223 Y-48.413
X45.825 Y-47.729
X46.384 Y-47.008
X46.898 Y-46.255
X47.365 Y-45.472
X47.784 Y-44.662
X48.153 Y-43.828
X48.468 Y-42.973
X48.729 Y-42.099
X48.934 Y-41.21
X49.084 Y-40.311
X49.179 Y-39.404
X49.218 Y-38.493
X49.199 Y-37.581
X49.121 Y-36.673
X48.986 Y-35.771
X48.795 Y-34.88
X48.549 Y-34.002
X48.249 Y-33.141
X47.895 Y-32.3
X47.488 Y-31.484
X47.029 Y-30.696
X46.522 Y-29.939
X45.968 Y-29.214
X45.371 Y-28.526
X44.731 Y-27.876
X44.051 Y-27.268
X43.333 Y-26.706
X42.582 Y-26.189
X41.8 Y-25.72
X40.991 Y-25.3
X40.158 Y-24.929
X39.303 Y-24.611
X38.431 Y-24.347
X37.543 Y-24.137
X36.645 Y-23.982
X35.739 Y-23.881
X34.828 Y-23.834
X33.916 Y-23.843
X33.007 Y-23.909
X32.103 Y-24.03
X31.208 Y-24.206
X30.325 Y-24.434
X29.457 Y-24.713
X28.607 Y-25.042
X27.778 Y-25.421
X26.974 Y-25.851
X26.197 Y-26.329
X25.45 Y-26.852
X24.735 Y-27.417
X24.053 Y-28.023
X23.407 Y-28.666
X22.801 Y-29.347
X22.237 Y-30.064
X21.716 Y-30.812
X21.239 Y-31.589
X20.809 Y-32.393
X20.424 Y-33.22
X20.089 Y-34.068
X19.803 Y-34.934
X19.57 Y-35.815
X19.388 Y-36.709
X19.258 Y-37.611
X19.18 Y-38.52
X19.154 Y-39.431
X19.18 Y-40.342
X19.26 Y-41.251
X19.393 Y-42.153
X19.578 Y-43.046
X19.813 Y-43.927
X20.099 Y-44.793
X20.433 Y-45.641
X20.816 Y-46.468
X21.247 Y-47.272
X21.723 Y-48.05
X22.243 Y-48.798
X22.805 Y-49.516
X23.407 Y-50.201
X24.047 Y-50.851
X24.724 Y-51.462
X25.436 Y-52.032
X26.179 Y-52.56
X26.951 Y-53.046
X27.749 Y-53.486
X28.571 Y-53.881
X29.414 Y-54.228
X30.276 Y-54.525
X31.154 Y-54.771
X32.045 Y-54.966
X32.945 Y-55.111
X33.852 Y-55.205
X34.763 Y-55.247
X35.675 Y-55.236
X36.584 Y-55.172
X37.489 Y-55.055
X38.385 Y-54.887
X39.27 Y-54.669
X40.142 Y-54.402
X40.998 Y-54.087
X41.834 Y-53.724
X42.648 Y-53.314
X43.438 Y-52.859
X44.202 Y-52.361
X44.938 Y-51.823
X45.645 Y-51.246
X46.319 Y-50.633
X46.961 Y-49.984
X47.565 Y-49.302
X48.132 Y-48.587
X48.659 Y-47.844
X49.147 Y-47.074
X49.594 Y-46.279
X49.999 Y-45.462
X50.359 Y-44.624
X50.674 Y-43.768
X50.941 Y-42.896
X51.16 Y-42.011
X51.332 Y-41.116
X51.457 Y-40.213
X51.533 Y-39.304
X51.561 Y-38.393
X51.539 Y-37.481
X51.466 Y-36.572
X51.344 Y-35.669
X51.173 Y-34.773
X50.955 Y-33.888
X50.69 Y-33.015
X50.379 Y-32.158
X50.021 Y-31.319
X49.617 Y-30.502
X49.168 Y-29.708
X48.677 Y-28.94
X48.146 Y-28.199
X47.576 Y-27.487
X46.969 Y-26.807
X46.325 Y-26.161
X45.647 Y-25.552
X44.936 Y-24.981
X44.195 Y-24.449
X43.427 Y-23.958
X42.634 Y-23.507
X41.819 Y-23.099
X40.983 Y-22.734
X40.129 Y-22.415
X39.259 Y-22.143
X38.375 Y-21.918
X37.481 Y-21.74
X36.579 Y-21.608
X35.671 Y-21.523
X34.76 Y-21.486
X33.848 Y-21.497
X32.938 Y-21.557
X32.033 Y-21.666
X31.134 Y-21.821
X30.245 Y-22.022
X29.367 Y-22.268
X28.503 Y-22.558
X27.654 Y-22.893
X26.825 Y-23.272
X26.017 Y-23.694
X25.232 Y-24.157
X24.471 Y-24.661
X23.737 Y-25.201
X23.031 Y-25.778
X22.355 Y-26.39
X21.711 Y-27.035
X21.102 Y-27.714
X20.528 Y-28.423
X19.992 Y-29.16
X19.494 Y-29.924
X19.034 Y-30.712
X18.614 Y-31.521
X18.235 Y-32.35
X17.899 Y-33.198
X17.608 Y-34.062
X17.361 Y-34.94
X17.159 Y-35.829
X17.001 Y-36.727
X16.889 Y-37.632
X16.82 Y-38.541
X16.798 Y-39.452
X16.822 Y-40.364
X16.894 Y-41.273
X17.011 Y-42.177
X17.173 Y-43.074
X17.38 Y-43.963
X17.63 Y-44.839
X17.923 Y-45.703
X18.259 Y-46.55
X18.639 Y-47.38
X19.06 Y-48.188
X19.521 Y-48.975
X20.021 Y-49.737
X20.558 Y-50.474
X21.13 Y-51.184
X21.737 Y-51.865
X22.377 Y-52.514
X23.05 Y-53.129
X23.754 Y-53.709
X24.485 Y-54.254
X25.243 Y-54.761
X26.024 Y-55.231
X26.828 Y-55.661
X27.652 Y-56.052
X28.495 Y-56.399
X29.355 Y-56.703
X30.228 Y-56.964
X31.114 Y-57.18
X32.01 Y-57.353
X32.912 Y-57.481
X33.82 Y-57.565
X34.731 Y-57.603
X35.643 Y-57.595
X36.553 Y-57.54
X37.459 Y-57.44
X38.36 Y-57.295
X39.252 Y-57.107
X40.134 Y-56.875
X41.003 Y-56.601
X41.858 Y-56.284
X42.696 Y-55.925
X43.516 Y-55.524
X44.314 Y-55.085
X45.091 Y-54.607
X45.844 Y-54.093
X46.573 Y-53.545
X47.275 Y-52.963
X47.949 Y-52.349
X48.592 Y-51.703
X49.204 Y-51.026
X49.783 Y-50.322
X50.328 Y-49.591
X50.839 Y-48.836
X51.314 Y-48.058
X51.753 Y-47.259
X52.155 Y-46.44
X52.517 Y-45.603
X52.838 Y-44.75
X53.118 Y-43.882
X53.357 Y-43.002
X53.555 Y-42.112
X53.711 Y-41.214
X53.826 Y-40.309
X53.898 Y-39.4
X53.927 Y-38.489
X53.911 Y-37.577
X53.851 Y-36.667
X53.748 Y-35.761
X53.603 Y-34.861
X53.415 Y-33.969
X53.187 Y-33.086
X52.917 Y-32.215
X52.606 Y-31.358
X52.253 Y-30.517
X51.86 Y-29.695
X51.428 Y-28.892
X50.959 Y-28.11
X50.453 Y-27.351
X49.913 Y-26.617
X49.339 Y-25.908
X48.731 Y-25.228
X48.091 Y-24.579
X47.421 Y-23.961
X46.721 Y-23.376
X45.995 Y-22.824
X45.244 Y-22.307
X44.471 Y-21.825
X43.675 Y-21.379
X42.86 Y-20.971
X42.026 Y-20.602
X41.175 Y-20.274
X40.31 Y-19.987
X39.432 Y-19.739
X38.544 Y-19.533
X37.647 Y-19.367
X36.744 Y-19.242
X35.836 Y-19.159
X34.925 Y-19.119
X34.013 Y-19.122
X33.103 Y-19.168
X32.195 Y-19.255
X31.293 Y-19.384
X30.397 Y-19.554
X29.509 Y-19.763
X28.632 Y-20.012
X27.767 Y-20.301
X26.917 Y-20.63
X26.083 Y-20.999
X25.267 Y-21.405
X24.47 Y-21.848
X23.693 Y-22.326
X22.939 Y-22.839
X22.208 Y-23.384
X21.502 Y-23.961
X20.824 Y-24.57
X20.174 Y-25.21
X19.554 Y-25.879
X18.965 Y-26.575
X18.408 Y-27.297
X17.884 Y-28.042
X17.392 Y-28.81
X16.935 Y-29.599
X16.513 Y-30.408
X16.13 Y-31.235
X15.784 Y-32.079
X15.477 Y-32.937
X15.208 Y-33.809
X14.979 Y-34.691
X14.788 Y-35.583
X14.636 Y-36.482
X14.524 Y-37.387
X14.453 Y-38.296
X14.423 Y-39.207
X14.435 Y-40.119
X14.488 Y-41.029
X14.58 Y-41.936
X14.713 Y-42.838
X14.885 Y-43.734
X15.095 Y-44.621
X15.344 Y-45.498
X15.633 Y-46.363
X15.961 Y-47.214
X16.327 Y-48.049
X16.73 Y-48.867
X17.168 Y-49.667
X17.641 Y-50.446
X18.147 Y-51.205
X18.686 Y-51.94
X19.256 Y-52.652
X19.859 Y-53.336
X20.492 Y-53.992
X21.153 Y-54.62
X21.842 Y-55.217
X22.556 Y-55.784
X23.294 Y-56.319
X24.055 Y-56.822
X24.837 Y-57.291
X25.639 Y-57.725
X26.46 Y-58.122
X27.298 Y-58.481
X28.151 Y-58.803
X29.018 Y-59.086
X29.896 Y-59.332
X30.784 Y-59.539
X31.68 Y-59.708
X32.582 Y-59.837
X33.49 Y-59.925
X34.401 Y-59.973
X35.312 Y-59.979
X36.224 Y-59.945
X37.132 Y-59.871
X38.037 Y-59.758
X38.936 Y-59.606
X39.828 Y-59.415
X40.71 Y-59.186
X41.582 Y-58.917
X42.44 Y-58.61
X43.284 Y-58.266
X44.113 Y-57.885
X44.924 Y-57.469
X45.718 Y-57.019
X46.491 Y-56.537
X47.244 Y-56.022
X47.975 Y-55.476
X48.681 Y-54.9
X49.361 Y-54.293
X50.015 Y-53.658
X50.642 Y-52.995
X51.241 Y-52.308
X51.81 Y-51.596
X52.35 Y-50.861
X52.86 Y-50.104
X53.337 Y-49.328
X53.781 Y-48.531
X54.191 Y-47.717
X54.566 Y-46.886
X54.905 Y-46.039
X55.209 Y-45.179
X55.476 Y-44.308
X55.708 Y-43.426
X55.903 Y-42.535
X56.061 Y-41.637
X56.181 Y-40.733
X56.262 Y-39.825
X56.303 Y-38.914
X56.306 Y-38.002
X56.271 Y-37.091
X56.198 Y-36.182
X56.086 Y-35.277
X55.938 Y-34.378
X55.752 Y-33.485
X55.529 Y-32.601
X55.267 Y-31.728
X54.968 Y-30.866
X54.632 Y-30.018
X54.261 Y-29.185
X53.856 Y-28.369
X53.416 Y-27.57
X52.944 Y-26.79
X52.44 Y-26.03
X51.904 Y-25.293
X51.336 Y-24.579
X50.738 Y-23.891
X50.112 Y-23.228
X49.458 Y-22.593
X48.778 Y-21.986
X48.073 Y-21.407
X47.345 Y-20.858
X46.595 Y-20.339
X45.824 Y-19.853
X45.033 Y-19.4
X44.223 Y-18.981
X43.396 Y-18.596
X42.554 Y-18.246
X41.698 Y-17.932
X40.83 Y-17.653
X39.951 Y-17.41
X39.063 Y-17.202
X38.167 Y-17.032
X37.265 Y-16.899
X36.358 Y-16.805
X35.448 Y-16.749
X34.537 Y-16.73
X33.625 Y-16.749
X32.715 Y-16.805
X31.808 Y-16.898
X30.905 Y-17.027
X30.009 Y-17.193
X29.12 Y-17.395
X28.24 Y-17.635
X27.371 Y-17.91
X26.514 Y-18.221
X25.67 Y-18.567
X24.841 Y-18.947
X24.028 Y-19.359
X23.232 Y-19.804
X22.454 Y-20.28
X21.696 Y-20.788
X20.96 Y-21.326
X20.247 Y-21.893
X19.557 Y-22.49
X18.892 Y-23.114
X18.253 Y-23.764
X17.64 Y-24.439
X17.054 Y-25.138
X16.497 Y-25.859
X15.968 Y-26.602
X15.471 Y-27.366
X15.005 Y-28.15
X14.571 Y-28.952
X14.169 Y-29.771
X13.801 Y-30.605
X13.467 Y-31.453
X13.166 Y-32.314
X12.899 Y-33.186
X12.667 Y-34.068
X12.471 Y-34.958
X12.31 Y-35.856
X12.186 Y-36.759
X12.099 Y-37.667
X12.048 Y-38.577
X12.033 Y-39.489
X12.054 Y-40.4
X12.111 Y-41.31
X12.204 Y-42.217
X12.333 Y-43.12
X12.497 Y-44.017
X12.698 Y-44.906
X12.934 Y-45.787
X13.206 Y-46.657
X13.512 Y-47.516
X13.851 Y-48.363
X14.224 Y-49.195
X14.629 Y-50.012
X15.066 Y-50.812
X15.534 Y-51.595
X16.033 Y-52.358
X16.562 Y-53.1
X17.121 Y-53.821
X17.708 Y-54.518
X18.322 Y-55.192
X18.963 Y-55.841
X19.628 Y-56.465
X20.317 Y-57.062
X21.029 Y-57.631
X21.764 Y-58.172
X22.519 Y-58.682
X23.294 Y-59.162
X24.088 Y-59.611
X24.899 Y-60.028
X25.726 Y-60.412
X26.567 Y-60.763
X27.422 Y-61.082
X28.288 Y-61.366
X29.165 Y-61.616
X30.051 Y-61.831
X30.945 Y-62.011
X31.846 Y-62.154
X32.751 Y-62.261
X33.66 Y-62.333
X34.571 Y-62.368
X35.483
X36.394 Y-62.332
X37.303 Y-62.261
X38.209 Y-62.153
X39.109 Y-62.01
X40.003 Y-61.831
X40.89 Y-61.617
X41.767 Y-61.369
X42.634 Y-61.086
X43.489 Y-60.77
X44.331 Y-60.421
X45.16 Y-60.04
X45.973 Y-59.627
X46.769 Y-59.184
X47.548 Y-58.709
X48.308 Y-58.206
X49.048 Y-57.673
X49.767 Y-57.112
X50.465 Y-56.525
X51.139 Y-55.911
X51.79 Y-55.272
X52.416 Y-54.61
X53.018 Y-53.925
X53.592 Y-53.217
X54.14 Y-52.488
X54.66 Y-51.738
X55.15 Y-50.97
X55.612 Y-50.183
X56.043 Y-49.38
X56.444 Y-48.561
X56.814 Y-47.727
X57.152 Y-46.881
X57.458 Y-46.022
X57.732 Y-45.152
X57.973 Y-44.273
X58.18 Y-43.385
X58.353 Y-42.489
X58.492 Y-41.588
X58.596 Y-40.683
X58.667 Y-39.773
X58.703 Y-38.862
X58.704 Y-37.95
X58.672 Y-37.039
X58.605 Y-36.13
X58.503 Y-35.224
X58.366 Y-34.322
X58.196 Y-33.427
X57.991 Y-32.538
X57.752 Y-31.658
X57.481 Y-30.788
X57.176 Y-29.928
X56.84 Y-29.081
X56.471 Y-28.247
X56.071 Y-27.427
X55.64 Y-26.624
X55.178 Y-25.837
X54.687 Y-25.069
X54.167 Y-24.32
X53.618 Y-23.592
X53.043 Y-22.885
X52.441 Y-22.2
X51.813 Y-21.538
X51.161 Y-20.901
X50.486 Y-20.289
X49.787 Y-19.703
X49.067 Y-19.144
X48.326 Y-18.613
X47.565 Y-18.11
X46.786 Y-17.636
X45.99 Y-17.192
X45.177 Y-16.778
X44.35 Y-16.395
X43.509 Y-16.042
X42.655 Y-15.722
X41.79 Y-15.434
X40.914 Y-15.179
X40.03 Y-14.957
X39.138 Y-14.769
X38.24 Y-14.613
X37.336 Y-14.492
X36.428 Y-14.404
X35.518 Y-14.349
X34.607 Y-14.329
X33.695 Y-14.342
X32.784 Y-14.389
X31.876 Y-14.471
X30.971 Y-14.585
X30.072 Y-14.733
X29.178 Y-14.915
X28.292 Y-15.129
X27.414 Y-15.376
X26.546 Y-15.654
X25.688 Y-15.964
X24.843 Y-16.306
X24.011 Y-16.679
X23.193 Y-17.082
X22.39 Y-17.515
X21.604 Y-17.977
X20.836 Y-18.467
X20.085 Y-18.985
X19.354 Y-19.53
X18.644 Y-20.102
X17.954 Y-20.698
X17.287 Y-21.32
X16.643 Y-21.966
X16.024 Y-22.634
X15.429 Y-23.325
X14.859 Y-24.037
X14.316 Y-24.77
X13.799 Y-25.521
X13.311 Y-26.291
X12.85 Y-27.078
X12.418 Y-27.881
X12.015 Y-28.699
X11.643 Y-29.531
X11.301 Y-30.376
X10.99 Y-31.233
X10.71 Y-32.101
X10.462 Y-32.979
X10.245 Y-33.864
X10.061 Y-34.757
X9.909 Y-35.656
X9.789 Y-36.56
X9.702 Y-37.468
X9.647 Y-38.378
X9.626 Y-39.29
X9.638 Y-40.201
X9.683 Y-41.112
X9.761 Y-42.021
X9.871 Y-42.926
X10.014 Y-43.826
X10.189 Y-44.721
X10.395 Y-45.609
X10.634 Y-46.489
X10.904 Y-47.36
X11.205 Y-48.221
X11.538 Y-49.07
X11.901 Y-49.906
X12.293 Y-50.729
X12.715 Y-51.538
X13.166 Y-52.33
X13.645 Y-53.106
X14.151 Y-53.865
X14.684 Y-54.604
X15.243 Y-55.325
X15.828 Y-56.024
X16.438 Y-56.702
X17.072 Y-57.358
X17.729 Y-57.99
X18.408 Y-58.598
X19.109 Y-59.182
X19.83 Y-59.74
X20.57 Y-60.272
X21.329 Y-60.777
X22.106 Y-61.254
X22.899 Y-61.704
X23.708 Y-62.125
X24.532 Y-62.515
X25.369 Y-62.876
X26.219 Y-63.207
X27.08 Y-63.507
X27.951 Y-63.776
X28.832 Y-64.014
X29.72 Y-64.22
X30.615 Y-64.395
X31.515 Y-64.537
X32.421 Y-64.647
X33.329 Y-64.724
X34.24 Y-64.768
X35.152 Y-64.78
X36.063 Y-64.759
X36.973 Y-64.705
X37.881 Y-64.619
X38.785 Y-64.501
X39.685 Y-64.351
X40.578 Y-64.169
X41.465 Y-63.955
X42.343 Y-63.71
X43.212 Y-63.434
X44.07 Y-63.127
X44.918 Y-62.79
X45.753 Y-62.423
X46.574 Y-62.028
X47.381 Y-61.604
X48.173 Y-61.152
X48.949 Y-60.673
X49.708 Y-60.167
X50.448 Y-59.635
X51.17 Y-59.078
X51.872 Y-58.496
X52.553 Y-57.89
X53.213 Y-57.261
X53.851 Y-56.609
X54.466 Y-55.936
X55.058 Y-55.242
X55.625 Y-54.529
X56.168 Y-53.796
X56.686 Y-53.045
X57.178 Y-52.278
X57.643 Y-51.493
X58.08 Y-50.693
X58.49 Y-49.879
X58.871 Y-49.05
X59.223 Y-48.209
X59.547 Y-47.357
X59.841 Y-46.494
X60.106 Y-45.621
X60.341 Y-44.74
X60.545 Y-43.852
X60.719 Y-42.957
X60.862 Y-42.056
X60.974 Y-41.151
X61.054 Y-40.243
X61.102 Y-39.332
X61.12 Y-38.421
X61.105 Y-37.509
X61.06 Y-36.598
X60.983 Y-35.69
X60.876 Y-34.784
X60.737 Y-33.883
X60.567 Y-32.987
X60.367 Y-32.098
X60.135 Y-31.216
X59.873 Y-30.343
X59.58 Y-29.479
X59.258 Y-28.626
X58.907 Y-27.784
X58.527 Y-26.956
X58.118 Y-26.14
X57.682 Y-25.34
X57.219 Y-24.554
X56.729 Y-23.785
X56.212 Y-23.034
X55.67 Y-22.301
X55.102 Y-21.588
X54.51 Y-20.895
X53.894 Y-20.222
X53.255 Y-19.571
X52.595 Y-18.943
X51.913 Y-18.337
X51.211 Y-17.755
X50.49 Y-17.197
X49.75 Y-16.665
X48.992 Y-16.158
X48.216 Y-15.678
X47.425 Y-15.225
X46.619 Y-14.8
X45.798 Y-14.402
X44.964 Y-14.033
X44.119 Y-13.692
X43.262 Y-13.38
X42.395 Y-13.097
X41.519 Y-12.844
X40.635 Y-12.621
X39.744 Y-12.427
X38.847 Y-12.265
X37.944 Y-12.134
X37.038 Y-12.033
X36.129 Y-11.964
X35.218 Y-11.925
X34.306 Y-11.917
X33.395 Y-11.939
X32.484 Y-11.992
X31.576 Y-12.076
X30.672 Y-12.189
X29.771 Y-12.334
X28.876 Y-12.509
X27.988 Y-12.714
X27.107 Y-12.949
X26.235 Y-13.214
X25.371 Y-13.507
X24.518 Y-13.83
X23.677 Y-14.18
X22.847 Y-14.559
X22.031 Y-14.965
X21.228 Y-15.398
X20.44 Y-15.857
X19.669 Y-16.342
X18.914 Y-16.854
X18.176 Y-17.39
X17.457 Y-17.951
X16.757 Y-18.535
X16.077 Y-19.142
X15.417 Y-19.771
X14.778 Y-20.422
X14.162 Y-21.094
X13.567 Y-21.785
X12.996 Y-22.496
X12.449 Y-23.225
X11.927 Y-23.973
X11.43 Y-24.737
X10.958 Y-25.518
X10.513 Y-26.313
X10.094 Y-27.123
X9.702 Y-27.946
X9.337 Y-28.782
X9.001 Y-29.63
X8.692 Y-30.487
X8.411 Y-31.355
X8.159 Y-32.231
X7.936 Y-33.115
X7.743 Y-34.007
X7.58 Y-34.904
X7.447 Y-35.806
X7.343 Y-36.712
X7.269 Y-37.62
X7.225 Y-38.531
X7.21 Y-39.443
X7.226 Y-40.355
X7.271 Y-41.265
X7.346 Y-42.174
X7.451 Y-43.08
X7.586 Y-43.981
X7.752 Y-44.878
X7.946 Y-45.769
X8.17 Y-46.653
X8.422 Y-47.529
X8.703 Y-48.396
X9.013 Y-49.254
X9.35 Y-50.101
X9.714 Y-50.937
X10.106 Y-51.761
X10.524 Y-52.571
X10.97 Y-53.366
X11.441 Y-54.147
X11.938 Y-54.912
X12.459 Y-55.659
X13.005 Y-56.39
X13.575 Y-57.102
X14.167 Y-57.795
X14.782 Y-58.469
X15.418 Y-59.122
X16.075 Y-59.753
X16.753 Y-60.364
X17.45 Y-60.951
X18.167 Y-61.515
X18.901 Y-62.055
X19.654 Y-62.571
X20.422 Y-63.062
X21.206 Y-63.527
X22.005 Y-63.966
X22.818 Y-64.379
X23.644 Y-64.766
X24.482 Y-65.125
X25.331 Y-65.457
X26.191 Y-65.761
X27.06 Y-66.036
X27.938 Y-66.282
X28.824 Y-66.499
X29.716 Y-66.687
X30.614 Y-66.846
X31.516 Y-66.975
X32.423 Y-67.075
X33.332 Y-67.146
X34.243 Y-67.186
X35.155 Y-67.197
X35.482 Y-67.19
X36.057 Y-67.165
X36.965 Y-67.08
X37.874 Y-67.017
X38.781 Y-66.92
X39.683 Y-66.789
X40.581 Y-66.628
X41.472 Y-66.436
X42.356 Y-66.214
X43.233 Y-65.962
X44.101 Y-65.683
X44.959 Y-65.375
X45.807 Y-65.039
X46.643 Y-64.676
X47.468 Y-64.287
X48.279 Y-63.87
X49.076 Y-63.428
X49.859 Y-62.96
X50.626 Y-62.468
X51.378 Y-61.952
X52.113 Y-61.412
X52.83 Y-60.849
X53.529 Y-60.263
X54.209 Y-59.656
X54.87 Y-59.028
X55.511 Y-58.379
X56.131 Y-57.71
X56.729 Y-57.022
X57.305 Y-56.316
X57.859 Y-55.591
X58.389 Y-54.849
X58.896 Y-54.092
X59.379 Y-53.318
X59.838 Y-52.53
X60.271 Y-51.728
X60.679 Y-50.913
X61.062 Y-50.085
X61.419 Y-49.246
X61.748 Y-48.396
X62.05 Y-47.535
X62.325 Y-46.666
X62.573 Y-45.788
X62.793 Y-44.903
X62.985 Y-44.012
X63.149 Y-43.115
X63.284 Y-42.213
X63.391 Y-41.308
X63.47 Y-40.4
X63.52 Y-39.489
X63.542 Y-38.578
X63.534 Y-37.666
X63.497 Y-36.755
X63.432 Y-35.845
X63.337 Y-34.938
X63.214 Y-34.035
X63.063 Y-33.136
X62.884 Y-32.242
X62.676 Y-31.354
X62.44 Y-30.473
X62.177 Y-29.6
X61.886 Y-28.736
X61.568 Y-27.881
X61.223 Y-27.037
X60.851 Y-26.205
X60.453 Y-25.384
X60.029 Y-24.577
X59.58 Y-23.784
X59.106 Y-23.005
X58.608 Y-22.241
X58.086 Y-21.494
X57.54 Y-20.763
X56.972 Y-20.05
X56.381 Y-19.355
X55.769 Y-18.679
X55.136 Y-18.024
X54.481 Y-17.388
X53.808 Y-16.774
X53.115 Y-16.181
X52.404 Y-15.611
X51.675 Y-15.063
X50.929 Y-14.538
X50.168 Y-14.037
X49.391 Y-13.56
X48.599 Y-13.107
X47.794 Y-12.679
X46.975 Y-12.277
X46.596 Y-12.106
X46.42 Y-12.039
X46.237 Y-11.995
X46.049 Y-11.975
X27.561 Y-11.175
X26.657 Y-11.181
X25.891 Y-11.248
X24.992 Y-11.4
X24.107 Y-11.621
X23.238 Y-11.897
X22.384 Y-12.218
X21.546 Y-12.577
X20.724 Y-12.971
X19.917 Y-13.396
X19.126 Y-13.849
X18.351 Y-14.329
X17.592 Y-14.834
X16.849 Y-15.364
X16.125 Y-15.917
X15.418 Y-16.493
X14.73 Y-17.091
X14.06 Y-17.711
X13.41 Y-18.35
X12.78 Y-19.009
X12.17 Y-19.687
X11.581 Y-20.383
X11.014 Y-21.096
X10.468 Y-21.827
X9.945 Y-22.574
X9.445 Y-23.336
X8.968 Y-24.114
X8.516 Y-24.905
X8.088 Y-25.711
X7.685 Y-26.529
X7.307 Y-27.358
X7.277 Y-27.43
X7.214 Y-27.615
X7.175 Y-27.808
X7.162 Y-28.003
Y-48.483
X7.208 Y-49.394
X7.265 Y-49.846
X7.405 Y-50.627
X7.638 Y-51.509
X7.935 Y-52.371
X8.285 Y-53.213
X8.677 Y-54.036
X9.106 Y-54.841
X9.566 Y-55.627
X10.056 Y-56.397
X10.572 Y-57.148
X11.113 Y-57.882
X11.678 Y-58.598
X12.265 Y-59.296
X12.874 Y-59.975
X13.503 Y-60.634
X14.153 Y-61.274
X14.822 Y-61.894
X15.51 Y-62.492
X16.215 Y-63.07
X16.938 Y-63.626
X17.677 Y-64.16
X18.432 Y-64.671
X19.202 Y-65.16
X19.986 Y-65.625
X20.784 Y-66.066
X21.595 Y-66.484
X22.418 Y-66.876
X23.252 Y-67.243
X24.018 Y-67.553
X24.219 Y-67.618
X24.426 Y-67.654
X24.637 Y-67.66
X35.482 Y-67.19
X35.541 Y-67.183
X35.598 Y-67.17
X35.68 Y-67.154
X35.762 Y-67.148
X35.845 Y-67.153
X35.95 Y-67.163
X36.057 Y-67.165
X45.588 Y-66.753
X46.422 Y-66.675
X47.119 Y-66.553
X47.959 Y-66.335
X48.82 Y-66.035
X49.659 Y-65.679
X50.477 Y-65.276
X51.276 Y-64.835
X52.054 Y-64.361
X52.815 Y-63.858
X53.557 Y-63.328
X54.281 Y-62.774
X54.987 Y-62.197
X55.674 Y-61.598
X56.343 Y-60.977
X56.992 Y-60.337
X57.622 Y-59.678
X58.231 Y-59
X58.821 Y-58.304
X59.39 Y-57.592
X59.938 Y-56.863
X60.465 Y-56.119
X60.97 Y-55.36
X61.453 Y-54.586
X61.914 Y-53.799
X62.351 Y-52.999
X62.765 Y-52.187
X63.155 Y-51.362
X63.52 Y-50.527
X63.861 Y-49.681
X64.177 Y-48.826
X64.468 Y-47.962
X64.734 Y-47.09
X64.975 Y-46.21
X65.19 Y-45.324
X65.38 Y-44.432
X65.543 Y-43.535
X65.681 Y-42.634
X65.793 Y-41.729
X65.878 Y-40.821
X65.936 Y-39.911
X65.967 Y-39
X65.972 Y-38.088
X65.95 Y-37.177
X65.902 Y-36.266
X65.827 Y-35.357
X65.726 Y-34.451
X65.598 Y-33.548
X65.445 Y-32.65
X65.265 Y-31.756
X65.06 Y-30.867
X64.829 Y-29.985
X64.572 Y-29.11
X64.29 Y-28.243
X63.981 Y-27.385
X63.648 Y-26.536
X63.29 Y-25.698
X62.908 Y-24.87
X62.502 Y-24.054
X62.072 Y-23.249
X61.62 Y-22.458
X61.144 Y-21.68
X60.646 Y-20.916
X60.126 Y-20.167
X59.585 Y-19.433
X59.022 Y-18.716
X58.438 Y-18.016
X57.834 Y-17.333
X57.21 Y-16.668
X56.567 Y-16.021
X55.905 Y-15.394
X55.226 Y-14.786
X54.529 Y-14.198
X53.815 Y-13.63
X53.086 Y-13.083
X52.341 Y-12.558
X52.184 Y-12.454
X51.949 Y-12.326
X51.694 Y-12.244
X51.429 Y-12.208
X46.049 Y-11.975
G3 X45.446 Y-12.397 I-0.005 J-0.635
G1 X45.413 Y-12.491 Z-1.492
X45.38 Y-12.582 Z-1.469
X45.349 Y-12.669 Z-1.431
X45.321 Y-12.749 Z-1.379
X45.295 Y-12.82 Z-1.314
X45.273 Y-12.881 Z-1.238
X45.256 Y-12.93 Z-1.153
X45.243 Y-12.966 Z-1.061
X45.235 Y-12.988 Z-0.964
X45.233 Y-12.995 Z-0.865
G0 Z5
X7.708 Y-47.184
Z-0.23
G1 Z-0.865 F1000
X7.704 Y-47.19 Z-0.964
X7.692 Y-47.21 Z-1.061
X7.673 Y-47.243 Z-1.153
X7.646 Y-47.288 Z-1.238
X7.613 Y-47.344 Z-1.314
X7.574 Y-47.409 Z-1.379
X7.531 Y-47.482 Z-1.431
X7.484 Y-47.561 Z-1.469
X7.434 Y-47.644 Z-1.492
X7.383 Y-47.729 Z-1.5
G3 X7.162 Y-48.483 I1.36 J-0.809
G1 Y-53.663
X7.194 Y-54.291
X7.258 Y-54.786
X7.382 Y-55.363
X7.587 Y-56.05
X7.903 Y-56.86
X8.301 Y-57.681
X8.754 Y-58.472
X9.25 Y-59.238
X9.781 Y-59.978
X10.343 Y-60.696
X10.933 Y-61.392
X11.546 Y-62.067
X12.181 Y-62.721
X12.837 Y-63.355
X13.511 Y-63.969
X14.203 Y-64.562
X14.913 Y-65.135
X15.638 Y-65.687
X16.379 Y-66.219
X17.134 Y-66.729
X17.904 Y-67.219
X18.702 Y-67.695
X18.951 Y-67.806
X19.217 Y-67.869
X19.49 Y-67.882
X24.637 Y-67.66
G3 X25.221 Y-66.977 Z-1.3 I-0.05 J0.633
X24.983 Y-66.529 I-0.633 J-0.049
G1 X8.192 Y-53.188
G3 X7.818 Y-53.05 I-0.395 J-0.497
X7.162 Y-53.663 Z-1.5 I-0.022 J-0.635
G1 Y-57.807
X7.188 Y-58.33
X7.243 Y-58.75
X7.343 Y-59.215
X7.508 Y-59.766
X7.758 Y-60.409
X8.115 Y-61.144
X8.577 Y-61.93
X9.096 Y-62.68
X9.657 Y-63.399
X10.253 Y-64.089
X10.878 Y-64.753
X11.528 Y-65.392
X12.199 Y-66.009
X12.89 Y-66.604
X13.598 Y-67.178
X14.323 Y-67.732
X14.397 Y-67.785
X14.683 Y-67.946
X14.998 Y-68.04
X15.327 Y-68.063
X19.49 Y-67.882
G3 X20.073 Y-67.2 Z-1.3 I-0.05 J0.633
X19.84 Y-66.756 I-0.633 J-0.049
G1 X8.196 Y-57.335
G3 X7.818 Y-57.194 I-0.399 J-0.494
X7.162 Y-57.807 Z-1.5 I-0.022 J-0.635
G1 Y-61.536
X7.182 Y-61.932
X7.231 Y-62.307
X7.318 Y-62.715
X7.463 Y-63.198
X7.674 Y-63.741
X7.976 Y-64.363
X8.403 Y-65.088
X8.927 Y-65.834
X9.503 Y-66.542
X10.118 Y-67.215
X10.692 Y-67.786
X10.93 Y-67.977
X11.201 Y-68.116
X11.496 Y-68.197
X11.801 Y-68.215
G3 X12.384 Y-67.533 Z-1.3 I-0.05 J0.633
X12.282 Y-67.234 I-0.633 J-0.049
G1 X8.327 Y-61.21
G3 X7.818 Y-60.924 I-0.531 J-0.348
X7.162 Y-61.536 Z-1.5 I-0.022 J-0.635
G1 Y-64.851
X7.183 Y-65.278
X7.228 Y-65.616
X7.309 Y-65.997
X7.44 Y-66.435
X7.632 Y-66.926
X7.87 Y-67.417
X7.974 Y-67.594
X8.165 Y-67.851
X8.407 Y-68.06
X8.688 Y-68.213
X8.996 Y-68.302
X9.315 Y-68.323
G3 X9.898 Y-67.641 Z-1.3 I-0.05 J0.633
X9.828 Y-67.396 I-0.633 J-0.049
G1 X8.36 Y-64.58
G3 X7.818 Y-64.239 I-0.563 J-0.294
X7.162 Y-64.851 Z-1.5 I-0.022 J-0.635
G1 Y-67.545
Y-67.752
X7.173 Y-67.855
X7.202 Y-67.959
X7.225 Y-68.012
X7.254 Y-68.066
X7.328 Y-68.166
X7.395 Y-68.233
X7.461 Y-68.284
X7.513 Y-68.314
X7.565 Y-68.338
X7.669 Y-68.371
X7.677 Y-68.373
X7.776 Y-68.386
X7.876 Y-68.385
X15.327 Y-68.063
G3 X15.891 Y-67.59 I-0.05 J0.633
G1 X15.916 Y-67.494 Z-1.492
X15.941 Y-67.4 Z-1.469
X15.964 Y-67.311 Z-1.431
X15.986 Y-67.229 Z-1.379
X16.005 Y-67.156 Z-1.314
X16.021 Y-67.093 Z-1.238
X16.034 Y-67.043 Z-1.153
X16.044 Y-67.006 Z-1.061
X16.05 Y-66.983 Z-0.964
X16.052 Y-66.976 Z-0.865
G0 Z5
X28.836 Y-11.777
Z-0.23
G1 Z-0.865 F1000
X28.829 Y-11.772 Z-0.964
X28.81 Y-11.76 Z-1.061
X28.778 Y-11.739 Z-1.153
X28.734 Y-11.71 Z-1.238
X28.68 Y-11.675 Z-1.314
X28.617 Y-11.633 Z-1.379
X28.546 Y-11.587 Z-1.431
X28.468 Y-11.536 Z-1.469
X28.387 Y-11.483 Z-1.492
X28.304 Y-11.429 Z-1.5
G3 X27.561 Y-11.175 I-0.867 J-1.324
G1 X22.173 Y-10.942
X21.596 Y-10.946
X21.09 Y-10.99
X20.478 Y-11.093
X19.751 Y-11.277
X18.893 Y-11.569
X18.056 Y-11.932
X17.245 Y-12.347
X16.457 Y-12.806
X15.691 Y-13.301
X14.946 Y-13.827
X14.221 Y-14.38
X13.516 Y-14.958
X12.83 Y-15.559
X12.163 Y-16.181
X11.516 Y-16.823
X10.887 Y-17.483
X10.278 Y-18.162
X9.689 Y-18.858
X9.12 Y-19.57
X8.571 Y-20.298
X8.043 Y-21.042
X7.538 Y-21.8
X7.388 Y-22.04
X7.264 Y-22.286
X7.188 Y-22.551
X7.162 Y-22.826
Y-28.003
G3 X7.818 Y-28.616 Z-1.3 I0.635 J0.022
X8.275 Y-28.399 I-0.022 J0.635
G1 X22.602 Y-11.993
G3 X22.757 Y-11.624 I-0.478 J0.418
X22.173 Y-10.942 Z-1.5 I-0.633 J0.049
G1 X18.029 Y-10.763
X17.478 Y-10.766
X17.049 Y-10.804
X16.572 Y-10.884
X16.003 Y-11.028
X15.336 Y-11.255
X14.564 Y-11.59
X13.759 Y-12.018
X12.986 Y-12.501
X12.242 Y-13.029
X11.524 Y-13.591
X10.831 Y-14.183
X10.16 Y-14.8
X9.51 Y-15.44
X8.882 Y-16.101
X8.273 Y-16.78
X7.684 Y-17.476
X7.486 Y-17.725
X7.309 Y-18.006
X7.199 Y-18.319
X7.162 Y-18.649
Y-22.826
G3 X7.818 Y-23.438 Z-1.3 I0.635 J0.022
X8.27 Y-23.227 I-0.022 J0.635
G1 X18.453 Y-11.818
G3 X18.613 Y-11.445 I-0.474 J0.423
X18.029 Y-10.763 Z-1.5 I-0.633 J0.049
G1 X14.299 Y-10.601
X13.837 Y-10.604
X13.456 Y-10.638
X13.039 Y-10.708
X12.544 Y-10.833
X11.983 Y-11.024
X11.337 Y-11.304
X10.58 Y-11.706
X9.812 Y-12.198
X9.08 Y-12.741
X8.379 Y-13.324
X7.706 Y-13.94
X7.599 Y-14.047
X7.414 Y-14.272
X7.276 Y-14.529
X7.191 Y-14.808
X7.162 Y-15.098
G3 X7.818 Y-15.71 Z-1.3 I0.635 J0.022
X8.121 Y-15.621 I-0.022 J0.635
G1 X14.575 Y-11.78
G3 X14.883 Y-11.283 I-0.325 J0.546
X14.299 Y-10.601 Z-1.5 I-0.633 J0.049
G1 X10.777 Y-10.449
X10.48 Y-10.451
X10.134 Y-10.481
X9.748 Y-10.546
X9.298 Y-10.66
X8.794 Y-10.832
X8.242 Y-11.071
X7.948 Y-11.227
X7.683 Y-11.407
X7.463 Y-11.639
X7.299 Y-11.914
X7.197 Y-12.217
X7.162 Y-12.535
G3 X7.818 Y-13.148 Z-1.3 I0.635 J0.022
X8.075 Y-13.084 I-0.022 J0.635
G1 X11.006 Y-11.652
G3 X11.36 Y-11.131 I-0.279 J0.571
X10.777 Y-10.449 Z-1.5 I-0.633 J0.049
G1 X8.083 Y-10.332
X7.916 Y-10.333
X7.679 Y-10.39
X7.468 Y-10.514
X7.303 Y-10.694
X7.198 Y-10.915
X7.162 Y-11.156
G3 X7.392 Y-11.728 Z-1.374 I0.905 J0.032
X7.689 Y-11.941 Z-1.3 I0.625 J0.56
X8.818 Y-10.917 I0.329 J0.772
X8.083 Y-10.332 Z-1.5 I-0.801 J-0.252
G1 X7.876 Y-10.323
X7.772 Y-10.322
X7.669 Y-10.337
X7.59 Y-10.36
X7.526 Y-10.388
X7.461 Y-10.425
X7.384 Y-10.484
X7.342 Y-10.526
X7.307 Y-10.567
X7.254 Y-10.643
X7.219 Y-10.709
X7.194 Y-10.774
X7.169 Y-10.878
X7.162 Y-10.982
Y-18.649
G3 X7.61 Y-19.234 I0.635 J0.022
G1 X7.705 Y-19.263 Z-1.492
X7.797 Y-19.292 Z-1.469
X7.885 Y-19.319 Z-1.431
X7.966 Y-19.344 Z-1.379
X8.039 Y-19.366 Z-1.314
X8.101 Y-19.385 Z-1.238
X8.15 Y-19.401 Z-1.153
X8.187 Y-19.412 Z-1.061
X8.209 Y-19.419 Z-0.964
X8.216 Y-19.421 Z-0.865
G0 Z5
X44.267 Y-66.264
Z-0.23
G1 Z-0.865 F1000
X44.274 Y-66.267 Z-0.964
X44.294 Y-66.278 Z-1.061
X44.328 Y-66.296 Z-1.153
X44.374 Y-66.321 Z-1.238
X44.431 Y-66.352 Z-1.314
X44.497 Y-66.388 Z-1.379
X44.572 Y-66.428 Z-1.431
X44.653 Y-66.471 Z-1.469
X44.739 Y-66.517 Z-1.492
X44.826 Y-66.564 Z-1.5
G3 X45.588 Y-66.753 I0.749 J1.394
G1 X50.769 Y-66.529
X51.3 Y-66.479
X51.791 Y-66.393
X52.378 Y-66.24
X53.06 Y-66.004
X53.865 Y-65.649
X54.667 Y-65.216
X55.439 Y-64.731
X56.183 Y-64.204
X56.902 Y-63.643
X57.597 Y-63.053
X58.27 Y-62.438
X58.922 Y-61.8
X59.553 Y-61.142
X60.164 Y-60.465
X60.755 Y-59.771
X61.326 Y-59.06
X61.877 Y-58.333
X62.408 Y-57.592
X62.918 Y-56.836
X63.406 Y-56.066
X63.874 Y-55.283
X64.32 Y-54.488
X64.744 Y-53.681
X65.146 Y-52.862
X65.525 Y-52.033
X65.882 Y-51.194
X66.216 Y-50.346
X66.528 Y-49.489
X66.816 Y-48.624
X67.081 Y-47.751
X67.323 Y-46.872
X67.541 Y-45.987
X67.735 Y-45.096
X67.905 Y-44.2
X68.051 Y-43.3
X68.172 Y-42.396
X68.268 Y-41.49
X68.339 Y-40.581
X68.386 Y-39.67
X68.409 Y-38.758
X68.407 Y-37.847
X68.38 Y-36.935
X68.329 Y-36.025
X68.253 Y-35.116
X68.153 Y-34.21
X68.029 Y-33.306
X67.881 Y-32.407
X67.708 Y-31.512
X67.51 Y-30.621
X67.289 Y-29.737
X67.043 Y-28.859
X66.774 Y-27.988
X66.481 Y-27.124
X66.164 Y-26.269
X65.825 Y-25.423
X65.463 Y-24.586
X65.079 Y-23.759
X64.672 Y-22.943
X64.244 Y-22.138
X63.795 Y-21.344
X63.324 Y-20.564
X62.832 Y-19.796
X62.319 Y-19.042
X61.785 Y-18.302
X61.232 Y-17.578
X60.659 Y-16.868
X60.068 Y-16.175
X59.457 Y-15.497
X58.829 Y-14.836
X58.183 Y-14.193
X57.52 Y-13.567
X56.841 Y-12.959
X56.586 Y-12.743
X56.316 Y-12.561
X56.013 Y-12.442
X55.692 Y-12.393
X51.429 Y-12.208
G3 X50.826 Y-12.63 I-0.005 J-0.635
G1 X50.792 Y-12.723 Z-1.492
X50.76 Y-12.815 Z-1.469
X50.729 Y-12.901 Z-1.431
X50.7 Y-12.981 Z-1.379
X50.675 Y-13.053 Z-1.314
X50.653 Y-13.114 Z-1.238
X50.636 Y-13.163 Z-1.153
X50.623 Y-13.199 Z-1.061
X50.615 Y-13.221 Z-0.964
X50.612 Y-13.228 Z-0.865
G0 Z5
X49.447 Y-66.039
Z-0.23
G1 Z-0.865 F1000
X49.454 Y-66.043 Z-0.964
X49.474 Y-66.054 Z-1.061
X49.508 Y-66.072 Z-1.153
X49.554 Y-66.097 Z-1.238
X49.611 Y-66.128 Z-1.314
X49.678 Y-66.163 Z-1.379
X49.752 Y-66.204 Z-1.431
X49.834 Y-66.247 Z-1.469
X49.919 Y-66.293 Z-1.492
X50.006 Y-66.34 Z-1.5
G3 X50.769 Y-66.529 I0.749 J1.394
G1 X54.913 Y-66.349
X55.362 Y-66.307
X55.782 Y-66.234
X56.247 Y-66.113
X56.796 Y-65.922
X57.437 Y-65.64
X58.174 Y-65.242
X58.939 Y-64.746
X59.667 Y-64.197
X60.363 Y-63.608
X61.029 Y-62.986
X61.67 Y-62.337
X62.286 Y-61.664
X62.879 Y-60.972
X63.451 Y-60.262
X64.001 Y-59.535
X64.531 Y-58.792
X65.04 Y-58.036
X65.529 Y-57.266
X65.997 Y-56.484
X66.444 Y-55.689
X66.872 Y-54.884
X67.278 Y-54.068
X67.663 Y-53.241
X68.027 Y-52.405
X68.369 Y-51.56
X68.69 Y-50.707
X68.99 Y-49.845
X69.268 Y-48.977
X69.524 Y-48.102
X69.758 Y-47.221
X69.97 Y-46.334
X70.159 Y-45.442
X70.326 Y-44.545
X70.471 Y-43.645
X70.592 Y-42.741
X70.691 Y-41.835
X70.767 Y-40.926
X70.82 Y-40.016
X70.85 Y-39.105
X70.856 Y-38.193
X70.84 Y-37.281
X70.801 Y-36.37
X70.739 Y-35.461
X70.654 Y-34.553
X70.546 Y-33.647
X70.416 Y-32.745
X70.263 Y-31.846
X70.088 Y-30.951
X69.89 Y-30.061
X69.669 Y-29.176
X69.426 Y-28.297
X69.162 Y-27.425
X68.874 Y-26.56
X68.565 Y-25.702
X68.235 Y-24.852
X67.882 Y-24.011
X67.509 Y-23.179
X67.115 Y-22.357
X66.701 Y-21.544
X66.267 Y-20.743
X65.812 Y-19.952
X65.338 Y-19.174
X64.844 Y-18.407
X64.331 Y-17.654
X63.799 Y-16.913
X63.248 Y-16.186
X62.679 Y-15.473
X62.092 Y-14.776
X61.488 Y-14.093
X60.867 Y-13.426
X60.449 Y-12.999
X60.236 Y-12.819
X59.994 Y-12.682
X59.73 Y-12.593
X59.454 Y-12.555
X55.692 Y-12.393
G3 X55.088 Y-12.814 I-0.005 J-0.635
G1 X55.055 Y-12.908 Z-1.492
X55.022 Y-12.999 Z-1.469
X54.992 Y-13.086 Z-1.431
X54.963 Y-13.166 Z-1.379
X54.938 Y-13.237 Z-1.314
X54.916 Y-13.298 Z-1.238
X54.898 Y-13.347 Z-1.153
X54.886 Y-13.383 Z-1.061
X54.878 Y-13.405 Z-0.964
X54.875 Y-13.413 Z-0.865
G0 Z5
X53.591 Y-65.86
Z-0.23
G1 Z-0.865 F1000
X53.598 Y-65.864 Z-0.964
X53.619 Y-65.875 Z-1.061
X53.652 Y-65.893 Z-1.153
X53.698 Y-65.918 Z-1.238
X53.755 Y-65.948 Z-1.314
X53.822 Y-65.984 Z-1.379
X53.897 Y-66.024 Z-1.431
X53.978 Y-66.068 Z-1.469
X54.063 Y-66.114 Z-1.492
X54.151 Y-66.161 Z-1.5
G3 X54.913 Y-66.349 I0.749 J1.394
G1 X58.643 Y-66.188
X58.99 Y-66.155
X59.365 Y-66.09
X59.775 Y-65.983
X60.258 Y-65.816
X60.801 Y-65.576
X61.422 Y-65.241
X62.145 Y-64.773
X62.867 Y-64.217
X63.551 Y-63.613
X64.199 Y-62.972
X64.817 Y-62.301
X65.407 Y-61.606
X65.973 Y-60.891
X66.514 Y-60.157
X67.034 Y-59.408
X67.532 Y-58.644
X68.009 Y-57.867
X68.465 Y-57.078
X68.901 Y-56.277
X69.317 Y-55.465
X69.712 Y-54.643
X70.087 Y-53.812
X70.442 Y-52.972
X70.776 Y-52.124
X71.091 Y-51.268
X71.385 Y-50.405
X71.659 Y-49.536
X71.912 Y-48.66
X72.145 Y-47.778
X72.356 Y-46.891
X72.547 Y-46
X72.717 Y-45.104
X72.866 Y-44.204
X72.994 Y-43.301
X73.099 Y-42.396
X73.183 Y-41.488
X73.246 Y-40.578
X73.287 Y-39.667
X73.306 Y-38.756
X73.304 Y-37.844
X73.28 Y-36.932
X73.235 Y-36.021
X73.169 Y-35.112
X73.081 Y-34.204
X72.973 Y-33.299
X72.843 Y-32.397
X72.691 Y-31.497
X72.519 Y-30.602
X72.326 Y-29.711
X72.111 Y-28.825
X71.875 Y-27.944
X71.618 Y-27.069
X71.341 Y-26.201
X71.043 Y-25.339
X70.724 Y-24.485
X70.386 Y-23.638
X70.027 Y-22.8
X69.649 Y-21.97
X69.252 Y-21.149
X68.836 Y-20.338
X68.4 Y-19.537
X67.946 Y-18.746
X67.474 Y-17.966
X66.983 Y-17.198
X66.474 Y-16.441
X65.947 Y-15.697
X65.403 Y-14.966
X64.841 Y-14.247
X64.262 Y-13.543
X63.982 Y-13.218
X63.763 Y-13.011
X63.506 Y-12.852
X63.223 Y-12.749
X62.924 Y-12.706
X59.454 Y-12.555
G3 X58.851 Y-12.977 I-0.005 J-0.635
G1 X58.817 Y-13.071 Z-1.492
X58.785 Y-13.162 Z-1.469
X58.754 Y-13.249 Z-1.431
X58.726 Y-13.329 Z-1.379
X58.7 Y-13.4 Z-1.314
X58.678 Y-13.461 Z-1.238
X58.661 Y-13.51 Z-1.153
X58.648 Y-13.546 Z-1.061
X58.64 Y-13.568 Z-0.964
X58.638 Y-13.575 Z-0.865
G0 Z5
X57.321 Y-65.699
Z-0.23
G1 Z-0.865 F1000
X57.328 Y-65.702 Z-0.964
X57.348 Y-65.713 Z-1.061
X57.382 Y-65.731 Z-1.153
X57.428 Y-65.756 Z-1.238
X57.485 Y-65.787 Z-1.314
X57.552 Y-65.823 Z-1.379
X57.627 Y-65.863 Z-1.431
X57.708 Y-65.906 Z-1.469
X57.793 Y-65.952 Z-1.492
X57.88 Y-65.999 Z-1.5
G3 X58.643 Y-66.188 I0.749 J1.394
G1 X61.958 Y-66.044
X62.363 Y-66.007
X62.704 Y-65.947
X63.084 Y-65.848
X63.523 Y-65.696
X64.013 Y-65.48
X64.566 Y-65.181
X65.204 Y-64.768
X65.927 Y-64.212
X66.603 Y-63.6
X67.239 Y-62.947
X67.84 Y-62.262
X68.411 Y-61.55
X68.954 Y-60.818
X69.471 Y-60.067
X69.965 Y-59.3
X70.436 Y-58.52
X70.885 Y-57.726
X71.314 Y-56.922
X71.722 Y-56.106
X72.111 Y-55.281
X72.48 Y-54.447
X72.829 Y-53.605
X73.159 Y-52.755
X73.47 Y-51.898
X73.761 Y-51.034
X74.033 Y-50.164
X74.286 Y-49.288
X74.519 Y-48.406
X74.733 Y-47.52
X74.926 Y-46.629
X75.101 Y-45.734
X75.255 Y-44.835
X75.388 Y-43.933
X75.501 Y-43.028
X75.594 Y-42.121
X75.667 Y-41.212
X75.719 Y-40.302
X75.751 Y-39.391
X75.763 Y-38.479
X75.755 Y-37.567
X75.727 Y-36.656
X75.679 Y-35.745
X75.611 Y-34.836
X75.522 Y-33.928
X75.414 Y-33.023
X75.286 Y-32.12
X75.138 Y-31.221
X74.97 Y-30.324
X74.782 Y-29.432
X74.574 Y-28.544
X74.345 Y-27.662
X74.097 Y-26.784
X73.83 Y-25.913
X73.543 Y-25.047
X73.237 Y-24.188
X72.912 Y-23.336
X72.568 Y-22.492
X72.206 Y-21.655
X71.825 Y-20.826
X71.427 Y-20.006
X71.01 Y-19.195
X70.575 Y-18.394
X70.123 Y-17.602
X69.654 Y-16.82
X69.167 Y-16.049
X68.663 Y-15.289
X68.142 Y-14.541
X67.604 Y-13.805
X67.309 Y-13.423
X67.086 Y-13.191
X66.818 Y-13.012
X66.518 Y-12.896
X66.2 Y-12.847
X62.924 Y-12.706
G3 X62.321 Y-13.127 I-0.005 J-0.635
G1 X62.287 Y-13.221 Z-1.492
X62.255 Y-13.312 Z-1.469
X62.224 Y-13.399 Z-1.431
X62.195 Y-13.479 Z-1.379
X62.17 Y-13.55 Z-1.314
X62.148 Y-13.611 Z-1.238
X62.131 Y-13.66 Z-1.153
X62.118 Y-13.696 Z-1.061
X62.11 Y-13.718 Z-0.964
X62.107 Y-13.726 Z-0.865
G0 Z5
X60.636 Y-65.555
Z-0.23
G1 Z-0.865 F1000
X60.643 Y-65.559 Z-0.964
X60.664 Y-65.57 Z-1.061
X60.697 Y-65.588 Z-1.153
X60.743 Y-65.613 Z-1.238
X60.8 Y-65.643 Z-1.314
X60.867 Y-65.679 Z-1.379
X60.942 Y-65.719 Z-1.431
X61.023 Y-65.763 Z-1.469
X61.108 Y-65.809 Z-1.492
X61.196 Y-65.856 Z-1.5
G3 X61.958 Y-66.044 I0.749 J1.394
G1 X65.274 Y-65.901
X65.55 Y-65.875
X65.865 Y-65.82
X66.228 Y-65.726
X66.636 Y-65.584
X67.093 Y-65.383
X67.603 Y-65.108
X68.187 Y-64.729
X68.848 Y-64.22
X69.524 Y-63.608
X70.154 Y-62.949
X70.744 Y-62.255
X71.3 Y-61.532
X71.826 Y-60.787
X72.324 Y-60.023
X72.796 Y-59.243
X73.246 Y-58.45
X73.673 Y-57.644
X74.08 Y-56.828
X74.466 Y-56.002
X74.833 Y-55.167
X75.181 Y-54.325
X75.509 Y-53.474
X75.819 Y-52.617
X76.111 Y-51.753
X76.384 Y-50.883
X76.638 Y-50.007
X76.874 Y-49.126
X77.091 Y-48.241
X77.29 Y-47.351
X77.469 Y-46.457
X77.63 Y-45.559
X77.771 Y-44.658
X77.893 Y-43.755
X77.996 Y-42.849
X78.079 Y-41.941
X78.144 Y-41.031
X78.19 Y-40.121
X78.216 Y-39.209
X78.224 Y-38.297
X78.213 Y-37.386
X78.182 Y-36.474
X78.133 Y-35.564
X78.065 Y-34.655
X77.978 Y-33.747
X77.873 Y-32.841
X77.748 Y-31.938
X77.605 Y-31.037
X77.442 Y-30.14
X77.261 Y-29.247
X77.06 Y-28.357
X76.841 Y-27.472
X76.602 Y-26.592
X76.346 Y-25.717
X76.071 Y-24.848
X75.778 Y-23.984
X75.467 Y-23.127
X75.139 Y-22.277
X74.792 Y-21.433
X74.428 Y-20.597
X74.047 Y-19.769
X73.649 Y-18.948
X73.234 Y-18.136
X72.802 Y-17.333
X72.354 Y-16.539
X71.889 Y-15.755
X71.407 Y-14.981
X70.908 Y-14.218
X70.499 Y-13.623
X70.324 Y-13.413
X70.113 Y-13.239
X69.873 Y-13.106
X69.614 Y-13.02
X69.343 Y-12.983
X66.2 Y-12.847
G3 X65.597 Y-13.269 I-0.005 J-0.635
G1 X65.563 Y-13.363 Z-1.492
X65.531 Y-13.454 Z-1.469
X65.5 Y-13.541 Z-1.431
X65.471 Y-13.621 Z-1.379
X65.446 Y-13.692 Z-1.314
X65.424 Y-13.753 Z-1.238
X65.407 Y-13.802 Z-1.153
X65.394 Y-13.838 Z-1.061
X65.386 Y-13.86 Z-0.964
X65.384 Y-13.867 Z-0.865
G0 Z5
X63.952 Y-65.412
Z-0.23
G1 Z-0.865 F1000
X63.959 Y-65.415 Z-0.964
X63.979 Y-65.426 Z-1.061
X64.013 Y-65.445 Z-1.153
X64.059 Y-65.469 Z-1.238
X64.116 Y-65.5 Z-1.314
X64.182 Y-65.536 Z-1.379
X64.257 Y-65.576 Z-1.431
X64.338 Y-65.619 Z-1.469
X64.424 Y-65.665 Z-1.492
X64.511 Y-65.712 Z-1.5
G3 X65.274 Y-65.901 I0.749 J1.394
G1 X68.175 Y-65.775
X68.627 Y-65.733
X68.924 Y-65.681
X69.278 Y-65.589
X69.657 Y-65.457
X70.095 Y-65.265
X70.568 Y-65.009
X71.111 Y-64.657
X71.72 Y-64.189
X72.396 Y-63.576
X73.021 Y-62.912
X73.602 Y-62.21
X74.145 Y-61.477
X74.656 Y-60.722
X75.137 Y-59.947
X75.592 Y-59.157
X76.022 Y-58.353
X76.431 Y-57.538
X76.818 Y-56.713
X77.185 Y-55.878
X77.533 Y-55.035
X77.862 Y-54.185
X78.172 Y-53.327
X78.464 Y-52.463
X78.738 Y-51.594
X78.995 Y-50.719
X79.233 Y-49.839
X79.454 Y-48.954
X79.657 Y-48.065
X79.841 Y-47.172
X80.007 Y-46.276
X80.155 Y-45.376
X80.285 Y-44.473
X80.397 Y-43.568
X80.49 Y-42.661
X80.566 Y-41.753
X80.623 Y-40.843
X80.663 Y-39.932
X80.684 Y-39.02
X80.688 Y-38.108
X80.674 Y-37.197
X80.641 Y-36.285
X80.591 Y-35.375
X80.523 Y-34.466
X80.438 Y-33.558
X80.334 Y-32.652
X80.213 Y-31.748
X80.073 Y-30.847
X79.915 Y-29.949
X79.74 Y-29.055
X79.546 Y-28.164
X79.334 Y-27.277
X79.105 Y-26.394
X78.858 Y-25.516
X78.594 Y-24.644
X78.313 Y-23.776
X78.014 Y-22.915
X77.699 Y-22.059
X77.367 Y-21.21
X77.018 Y-20.368
X76.653 Y-19.532
X76.271 Y-18.704
X75.873 Y-17.883
X75.459 Y-17.071
X75.03 Y-16.267
X74.584 Y-15.471
X74.123 Y-14.685
X73.644 Y-13.909
X73.53 Y-13.746
X73.354 Y-13.539
X73.144 Y-13.367
X72.906 Y-13.236
X72.648 Y-13.151
X72.379 Y-13.115
X69.343 Y-12.983
G3 X68.739 Y-13.405 I-0.005 J-0.635
G1 X68.706 Y-13.499 Z-1.492
X68.673 Y-13.59 Z-1.469
X68.643 Y-13.677 Z-1.431
X68.614 Y-13.757 Z-1.379
X68.589 Y-13.828 Z-1.314
X68.567 Y-13.889 Z-1.238
X68.549 Y-13.938 Z-1.153
X68.537 Y-13.974 Z-1.061
X68.529 Y-13.996 Z-0.964
X68.526 Y-14.003 Z-0.865
G0 Z5
X66.853 Y-65.286
Z-0.23
G1 Z-0.865 F1000
X66.86 Y-65.29 Z-0.964
X66.88 Y-65.301 Z-1.061
X66.914 Y-65.319 Z-1.153
X66.96 Y-65.344 Z-1.238
X67.017 Y-65.374 Z-1.314
X67.083 Y-65.41 Z-1.379
X67.158 Y-65.45 Z-1.431
X67.239 Y-65.494 Z-1.469
X67.325 Y-65.54 Z-1.492
X67.412 Y-65.587 Z-1.5
G3 X68.175 Y-65.775 I0.749 J1.394
G1 X71.283 Y-65.641
X71.583 Y-65.613
X71.874 Y-65.562
X72.221 Y-65.472
X72.58 Y-65.347
X73.002 Y-65.161
X73.45 Y-64.919
X73.966 Y-64.585
X74.534 Y-64.148
X75.165 Y-63.576
X75.789 Y-62.912
X76.366 Y-62.206
X76.902 Y-61.468
X77.403 Y-60.706
X77.872 Y-59.924
X78.314 Y-59.127
X78.731 Y-58.316
X79.125 Y-57.494
X79.497 Y-56.661
X79.849 Y-55.82
X80.182 Y-54.971
X80.496 Y-54.115
X80.792 Y-53.253
X81.07 Y-52.384
X81.33 Y-51.51
X81.573 Y-50.632
X81.799 Y-49.748
X82.007 Y-48.86
X82.198 Y-47.969
X82.371 Y-47.074
X82.527 Y-46.175
X82.665 Y-45.274
X82.787 Y-44.37
X82.891 Y-43.464
X82.978 Y-42.557
X83.047 Y-41.648
X83.1 Y-40.737
X83.136 Y-39.826
X83.154 Y-38.914
X83.156 Y-38.003
X83.141 Y-37.091
X83.108 Y-36.18
X83.059 Y-35.269
X82.993 Y-34.36
X82.909 Y-33.452
X82.809 Y-32.546
X82.692 Y-31.641
X82.557 Y-30.74
X82.405 Y-29.84
X82.236 Y-28.944
X82.05 Y-28.052
X81.847 Y-27.163
X81.627 Y-26.278
X81.391 Y-25.397
X81.138 Y-24.521
X80.869 Y-23.65
X80.583 Y-22.784
X80.281 Y-21.924
X79.963 Y-21.069
X79.63 Y-20.221
X79.28 Y-19.379
X78.915 Y-18.543
X78.534 Y-17.714
X78.139 Y-16.893
X77.727 Y-16.079
X77.301 Y-15.273
X76.859 Y-14.476
X76.538 Y-13.951
X76.364 Y-13.72
X76.148 Y-13.527
X75.898 Y-13.379
X75.625 Y-13.284
X75.338 Y-13.243
X72.379 Y-13.115
G3 X71.776 Y-13.537 I-0.005 J-0.635
G1 X71.743 Y-13.63 Z-1.492
X71.71 Y-13.721 Z-1.469
X71.679 Y-13.808 Z-1.431
X71.651 Y-13.888 Z-1.379
X71.625 Y-13.96 Z-1.314
X71.603 Y-14.02 Z-1.238
X71.586 Y-14.07 Z-1.153
X71.573 Y-14.105 Z-1.061
X71.565 Y-14.127 Z-0.964
X71.563 Y-14.135 Z-0.865
G0 Z5
X69.961 Y-65.152
Z-0.23
G1 Z-0.865 F1000
X69.968 Y-65.155 Z-0.964
X69.988 Y-65.166 Z-1.061
X70.022 Y-65.184 Z-1.153
X70.068 Y-65.209 Z-1.238
X70.125 Y-65.24 Z-1.314
X70.192 Y-65.276 Z-1.379
X70.266 Y-65.316 Z-1.431
X70.348 Y-65.359 Z-1.469
X70.433 Y-65.405 Z-1.492
X70.52 Y-65.452 Z-1.5
G3 X71.283 Y-65.641 I0.749 J1.394
G1 X74.184 Y-65.515
X74.468 Y-65.489
X74.759 Y-65.438
X75.093 Y-65.351
X75.441 Y-65.23
X75.852 Y-65.049
X76.28 Y-64.818
X76.772 Y-64.499
X77.315 Y-64.081
X77.91 Y-63.543
X78.534 Y-62.879
X79.108 Y-62.17
X79.637 Y-61.427
X80.129 Y-60.66
X80.589 Y-59.872
X81.019 Y-59.068
X81.424 Y-58.251
X81.805 Y-57.423
X82.163 Y-56.585
X82.502 Y-55.738
X82.821 Y-54.884
X83.121 Y-54.023
X83.404 Y-53.156
X83.669 Y-52.283
X83.917 Y-51.406
X84.147 Y-50.524
X84.361 Y-49.637
X84.557 Y-48.747
X84.737 Y-47.853
X84.9 Y-46.956
X85.047 Y-46.056
X85.176 Y-45.153
X85.29 Y-44.249
X85.387 Y-43.342
X85.468 Y-42.434
X85.532 Y-41.524
X85.58 Y-40.614
X85.612 Y-39.702
X85.628 Y-38.791
X85.627 Y-37.879
X85.61 Y-36.967
X85.578 Y-36.056
X85.529 Y-35.146
X85.463 Y-34.236
X85.382 Y-33.328
X85.285 Y-32.421
X85.171 Y-31.517
X85.04 Y-30.614
X84.894 Y-29.714
X84.73 Y-28.817
X84.551 Y-27.923
X84.355 Y-27.033
X84.144 Y-26.146
X83.917 Y-25.263
X83.673 Y-24.384
X83.414 Y-23.51
X83.14 Y-22.64
X82.85 Y-21.776
X82.545 Y-20.916
X82.225 Y-20.063
X81.889 Y-19.215
X81.539 Y-18.373
X81.174 Y-17.537
X80.794 Y-16.709
X80.399 Y-15.887
X79.989 Y-15.072
X79.556 Y-14.27
X79.419 Y-14.054
X79.244 Y-13.83
X79.029 Y-13.643
X78.783 Y-13.5
X78.514 Y-13.408
X78.232 Y-13.368
X75.338 Y-13.243
G3 X74.734 Y-13.665 I-0.005 J-0.635
G1 X74.701 Y-13.758 Z-1.492
X74.668 Y-13.849 Z-1.469
X74.637 Y-13.936 Z-1.431
X74.609 Y-14.016 Z-1.379
X74.583 Y-14.088 Z-1.314
X74.562 Y-14.149 Z-1.238
X74.544 Y-14.198 Z-1.153
X74.531 Y-14.233 Z-1.061
X74.524 Y-14.255 Z-0.964
X74.521 Y-14.263 Z-0.865
G0 Z5
X72.862 Y-65.026
Z-0.23
G1 Z-0.865 F1000
X72.869 Y-65.03 Z-0.964
X72.889 Y-65.041 Z-1.061
X72.923 Y-65.059 Z-1.153
X72.969 Y-65.084 Z-1.238
X73.026 Y-65.114 Z-1.314
X73.093 Y-65.15 Z-1.379
X73.167 Y-65.19 Z-1.431
X73.249 Y-65.234 Z-1.469
X73.334 Y-65.28 Z-1.492
X73.421 Y-65.327 Z-1.5
G3 X74.184 Y-65.515 I0.749 J1.394
G1 X77.085 Y-65.39
X77.293 Y-65.37
X77.584 Y-65.319
X77.904 Y-65.236
X78.248 Y-65.117
X78.647 Y-64.941
X79.063 Y-64.717
X79.538 Y-64.408
X80.061 Y-64.006
X80.628 Y-63.492
X81.253 Y-62.828
X81.823 Y-62.117
X82.348 Y-61.371
X82.833 Y-60.599
X83.283 Y-59.806
X83.704 Y-58.997
X84.097 Y-58.174
X84.467 Y-57.341
X84.814 Y-56.498
X85.14 Y-55.646
X85.447 Y-54.788
X85.736 Y-53.922
X86.006 Y-53.052
X86.259 Y-52.176
X86.495 Y-51.295
X86.714 Y-50.41
X86.917 Y-49.521
X87.103 Y-48.628
X87.273 Y-47.732
X87.427 Y-46.834
X87.565 Y-45.932
X87.687 Y-45.029
X87.793 Y-44.123
X87.884 Y-43.216
X87.959 Y-42.307
X88.018 Y-41.397
X88.062 Y-40.487
X88.091 Y-39.575
X88.103 Y-38.663
X88.101 Y-37.752
X88.083 Y-36.84
X88.05 Y-35.929
X88.001 Y-35.018
X87.937 Y-34.109
X87.857 Y-33.2
X87.762 Y-32.294
X87.651 Y-31.389
X87.525 Y-30.486
X87.383 Y-29.585
X87.225 Y-28.687
X87.051 Y-27.792
X86.863 Y-26.9
X86.659 Y-26.011
X86.439 Y-25.126
X86.205 Y-24.245
X85.956 Y-23.368
X85.692 Y-22.495
X85.413 Y-21.627
X85.119 Y-20.764
X84.811 Y-19.905
X84.488 Y-19.053
X84.151 Y-18.205
X83.8 Y-17.364
X83.434 Y-16.529
X83.054 Y-15.7
X82.657 Y-14.879
X82.28 Y-14.189
X82.26 Y-14.159
X82.085 Y-13.94
X81.872 Y-13.759
X81.628 Y-13.62
X81.363 Y-13.53
X81.085 Y-13.491
X78.232 Y-13.368
G3 X77.629 Y-13.79 I-0.005 J-0.635
G1 X77.595 Y-13.883 Z-1.492
X77.563 Y-13.975 Z-1.469
X77.532 Y-14.061 Z-1.431
X77.503 Y-14.141 Z-1.379
X77.478 Y-14.213 Z-1.314
X77.456 Y-14.274 Z-1.238
X77.439 Y-14.323 Z-1.153
X77.426 Y-14.359 Z-1.061
X77.418 Y-14.381 Z-0.964
X77.416 Y-14.388 Z-0.865
G0 Z5
X75.763 Y-64.901
Z-0.23
G1 Z-0.865 F1000
X75.77 Y-64.904 Z-0.964
X75.79 Y-64.915 Z-1.061
X75.824 Y-64.933 Z-1.153
X75.87 Y-64.958 Z-1.238
X75.927 Y-64.989 Z-1.314
X75.994 Y-65.025 Z-1.379
X76.068 Y-65.065 Z-1.431
X76.149 Y-65.108 Z-1.469
X76.235 Y-65.154 Z-1.492
X76.322 Y-65.201 Z-1.5
G3 X77.085 Y-65.39 I0.749 J1.394
G1 X79.779 Y-65.273
X80.082 Y-65.245
X80.373 Y-65.194
X80.68 Y-65.114
X81.02 Y-64.996
X81.407 Y-64.826
X81.814 Y-64.606
X82.275 Y-64.307
X82.782 Y-63.917
X83.327 Y-63.423
X83.939 Y-62.772
X84.508 Y-62.059
X85.029 Y-61.311
X85.509 Y-60.535
X85.952 Y-59.739
X86.365 Y-58.926
X86.749 Y-58.099
X87.109 Y-57.261
X87.446 Y-56.414
X87.762 Y-55.558
X88.058 Y-54.696
X88.335 Y-53.827
X88.595 Y-52.953
X88.838 Y-52.074
X89.063 Y-51.191
X89.273 Y-50.303
X89.466 Y-49.412
X89.643 Y-48.518
X89.804 Y-47.62
X89.95 Y-46.72
X90.08 Y-45.818
X90.195 Y-44.913
X90.295 Y-44.007
X90.38 Y-43.099
X90.45 Y-42.19
X90.506 Y-41.28
X90.546 Y-40.369
X90.571 Y-39.458
X90.582 Y-38.546
X90.578 Y-37.634
X90.559 Y-36.722
X90.525 Y-35.811
X90.477 Y-34.901
X90.413 Y-33.991
X90.335 Y-33.083
X90.242 Y-32.176
X90.135 Y-31.27
X90.012 Y-30.367
X89.874 Y-29.465
X89.722 Y-28.566
X89.554 Y-27.67
X89.372 Y-26.777
X89.175 Y-25.886
X88.963 Y-24.999
X88.737 Y-24.116
X88.497 Y-23.237
X88.242 Y-22.361
X87.973 Y-21.49
X87.69 Y-20.623
X87.393 Y-19.761
X87.082 Y-18.904
X86.758 Y-18.052
X86.419 Y-17.205
X86.067 Y-16.364
X85.699 Y-15.53
X85.307 Y-14.707
X85.111 Y-14.361
X84.937 Y-14.117
X84.719 Y-13.913
X84.464 Y-13.757
X84.182 Y-13.656
X83.886 Y-13.613
X81.085 Y-13.491
G3 X80.482 Y-13.913 I-0.005 J-0.635
G1 X80.448 Y-14.007 Z-1.492
X80.416 Y-14.098 Z-1.469
X80.385 Y-14.185 Z-1.431
X80.357 Y-14.265 Z-1.379
X80.331 Y-14.336 Z-1.314
X80.309 Y-14.397 Z-1.238
X80.292 Y-14.446 Z-1.153
X80.279 Y-14.482 Z-1.061
X80.271 Y-14.504 Z-0.964
X80.269 Y-14.511 Z-0.865
G0 Z5
X78.457 Y-64.784
Z-0.23
G1 Z-0.865 F1000
X78.464 Y-64.788 Z-0.964
X78.484 Y-64.799 Z-1.061
X78.518 Y-64.817 Z-1.153
X78.564 Y-64.841 Z-1.238
X78.621 Y-64.872 Z-1.314
X78.687 Y-64.908 Z-1.379
X78.762 Y-64.948 Z-1.431
X78.843 Y-64.992 Z-1.469
X78.929 Y-65.038 Z-1.492
X79.016 Y-65.085 Z-1.5
G3 X79.779 Y-65.273 I0.749 J1.394
G1 X82.472 Y-65.157
X82.83 Y-65.123
X83.12 Y-65.072
X83.416 Y-64.995
X83.754 Y-64.878
X84.131 Y-64.712
X84.533 Y-64.495
X84.982 Y-64.204
X85.477 Y-63.823
X86.005 Y-63.345
X86.596 Y-62.717
X87.165 Y-62.004
X87.683 Y-61.254
X88.159 Y-60.476
X88.597 Y-59.677
X89.003 Y-58.86
X89.38 Y-58.03
X89.731 Y-57.188
X90.059 Y-56.338
X90.366 Y-55.479
X90.653 Y-54.614
X90.922 Y-53.742
X91.172 Y-52.865
X91.405 Y-51.984
X91.622 Y-51.098
X91.822 Y-50.209
X92.007 Y-49.316
X92.176 Y-48.42
X92.33 Y-47.521
X92.468 Y-46.62
X92.592 Y-45.716
X92.701 Y-44.811
X92.796 Y-43.904
X92.876 Y-42.996
X92.942 Y-42.087
X92.993 Y-41.176
X93.031 Y-40.265
X93.054 Y-39.354
X93.062 Y-38.442
X93.057 Y-37.53
X93.037 Y-36.618
X93.004 Y-35.707
X92.956 Y-34.797
X92.894 Y-33.887
X92.817 Y-32.978
X92.727 Y-32.071
X92.622 Y-31.165
X92.503 Y-30.261
X92.37 Y-29.359
X92.222 Y-28.46
X92.06 Y-27.562
X91.883 Y-26.668
X91.693 Y-25.776
X91.489 Y-24.887
X91.27 Y-24.002
X91.038 Y-23.12
X90.793 Y-22.242
X90.533 Y-21.368
X90.26 Y-20.498
X89.974 Y-19.632
X89.674 Y-18.771
X89.361 Y-17.915
X89.035 Y-17.064
X88.693 Y-16.218
X88.334 Y-15.38
X87.979 Y-14.65
X87.867 Y-14.46
X87.693 Y-14.223
X87.475 Y-14.024
X87.223 Y-13.873
X86.946 Y-13.774
X86.655 Y-13.733
X83.886 Y-13.613
G3 X83.283 Y-14.035 I-0.005 J-0.635
G1 X83.25 Y-14.128 Z-1.492
X83.217 Y-14.219 Z-1.469
X83.186 Y-14.306 Z-1.431
X83.158 Y-14.386 Z-1.379
X83.132 Y-14.458 Z-1.314
X83.11 Y-14.518 Z-1.238
X83.093 Y-14.568 Z-1.153
X83.08 Y-14.603 Z-1.061
X83.072 Y-14.625 Z-0.964
X83.07 Y-14.633 Z-0.865
G0 Z5
X81.151 Y-64.667
Z-0.23
G1 Z-0.865 F1000
X81.157 Y-64.671 Z-0.964
X81.178 Y-64.682 Z-1.061
X81.211 Y-64.7 Z-1.153
X81.257 Y-64.725 Z-1.238
X81.314 Y-64.755 Z-1.314
X81.381 Y-64.791 Z-1.379
X81.456 Y-64.832 Z-1.431
X81.537 Y-64.875 Z-1.469
X81.622 Y-64.921 Z-1.492
X81.71 Y-64.968 Z-1.5
G3 X82.472 Y-65.157 I0.749 J1.394
G1 X85.166 Y-65.04
X85.546 Y-65.004
X85.832 Y-64.954
X86.121 Y-64.879
X86.459 Y-64.762
X86.826 Y-64.6
X87.225 Y-64.385
X87.663 Y-64.101
X88.15 Y-63.726
X88.664 Y-63.261
X89.237 Y-62.651
X89.806 Y-61.939
X90.323 Y-61.187
X90.795 Y-60.407
X91.228 Y-59.605
X91.628 Y-58.785
X91.998 Y-57.952
X92.343 Y-57.108
X92.663 Y-56.254
X92.962 Y-55.393
X93.24 Y-54.525
X93.5 Y-53.651
X93.742 Y-52.772
X93.967 Y-51.888
X94.176 Y-51
X94.368 Y-50.109
X94.545 Y-49.214
X94.707 Y-48.317
X94.854 Y-47.417
X94.986 Y-46.515
X95.104 Y-45.611
X95.208 Y-44.705
X95.297 Y-43.798
X95.373 Y-42.889
X95.435 Y-41.979
X95.483 Y-41.069
X95.517 Y-40.157
X95.538 Y-39.246
X95.545 Y-38.334
X95.538 Y-37.422
X95.518 Y-36.511
X95.484 Y-35.6
X95.437 Y-34.689
X95.376 Y-33.779
X95.301 Y-32.87
X95.212 Y-31.963
X95.11 Y-31.057
X94.995 Y-30.152
X94.865 Y-29.25
X94.722 Y-28.349
X94.565 Y-27.451
X94.394 Y-26.556
X94.21 Y-25.663
X94.012 Y-24.772
X93.801 Y-23.885
X93.577 Y-23.002
X93.339 Y-22.121
X93.088 Y-21.245
X92.825 Y-20.372
X92.548 Y-19.503
X92.258 Y-18.638
X91.956 Y-17.778
X91.639 Y-16.923
X91.306 Y-16.074
X90.948 Y-15.236
X90.638 Y-14.619
X90.603 Y-14.561
X90.428 Y-14.329
X90.212 Y-14.136
X89.962 Y-13.988
X89.688 Y-13.892
X89.401 Y-13.851
X86.655 Y-13.733
G3 X86.051 Y-14.154 I-0.005 J-0.635
G1 X86.018 Y-14.248 Z-1.492
X85.985 Y-14.339 Z-1.469
X85.954 Y-14.426 Z-1.431
X85.926 Y-14.506 Z-1.379
X85.9 Y-14.577 Z-1.314
X85.879 Y-14.638 Z-1.238
X85.861 Y-14.687 Z-1.153
X85.848 Y-14.723 Z-1.061
X85.841 Y-14.745 Z-0.964
X85.838 Y-14.753 Z-0.865
G0 Z5
X83.844 Y-64.551
Z-0.23
G1 Z-0.865 F1000
X83.851 Y-64.555 Z-0.964
X83.872 Y-64.566 Z-1.061
X83.905 Y-64.584 Z-1.153
X83.951 Y-64.608 Z-1.238
X84.008 Y-64.639 Z-1.314
X84.075 Y-64.675 Z-1.379
X84.15 Y-64.715 Z-1.431
X84.231 Y-64.759 Z-1.469
X84.316 Y-64.804 Z-1.492
X84.404 Y-64.851 Z-1.5
G3 X85.166 Y-65.04 I0.749 J1.394
G1 X87.86 Y-64.923
X88.235 Y-64.888
X88.515 Y-64.839
X88.801 Y-64.765
X89.14 Y-64.647
X89.498 Y-64.49
X89.895 Y-64.276
X90.324 Y-63.997
X90.803 Y-63.628
X91.305 Y-63.174
X91.865 Y-62.579
X92.434 Y-61.866
X92.949 Y-61.114
X93.418 Y-60.332
X93.847 Y-59.527
X94.241 Y-58.705
X94.606 Y-57.869
X94.943 Y-57.022
X95.257 Y-56.166
X95.548 Y-55.302
X95.82 Y-54.432
X96.072 Y-53.556
X96.306 Y-52.674
X96.524 Y-51.789
X96.725 Y-50.899
X96.91 Y-50.007
X97.08 Y-49.111
X97.235 Y-48.212
X97.376 Y-47.311
X97.502 Y-46.408
X97.615 Y-45.504
X97.714 Y-44.597
X97.799 Y-43.689
X97.871 Y-42.78
X97.929 Y-41.87
X97.974 Y-40.96
X98.006 Y-40.048
X98.024 Y-39.137
X98.029 Y-38.225
X98.022 Y-37.313
X98.001 Y-36.402
X97.967 Y-35.49
X97.92 Y-34.58
X97.86 Y-33.67
X97.786 Y-32.761
X97.7 Y-31.853
X97.6 Y-30.947
X97.487 Y-30.042
X97.362 Y-29.139
X97.222 Y-28.238
X97.07 Y-27.339
X96.904 Y-26.442
X96.726 Y-25.548
X96.534 Y-24.657
X96.33 Y-23.768
X96.112 Y-22.883
X95.882 Y-22
X95.64 Y-21.121
X95.385 Y-20.246
X95.117 Y-19.374
X94.836 Y-18.507
X94.543 Y-17.644
X94.234 Y-16.786
X93.906 Y-15.935
X93.557 Y-15.124
X93.364 Y-14.757
X93.192 Y-14.501
X92.972 Y-14.286
X92.711 Y-14.121
X92.422 Y-14.014
X92.118 Y-13.969
X89.401 Y-13.851
G3 X88.798 Y-14.273 I-0.005 J-0.635
G1 X88.764 Y-14.367 Z-1.492
X88.732 Y-14.458 Z-1.469
X88.701 Y-14.545 Z-1.431
X88.672 Y-14.625 Z-1.379
X88.647 Y-14.696 Z-1.314
X88.625 Y-14.757 Z-1.238
X88.608 Y-14.806 Z-1.153
X88.595 Y-14.842 Z-1.061
X88.587 Y-14.864 Z-0.964
X88.585 Y-14.871 Z-0.865
G0 Z5
X86.538 Y-64.434
Z-0.23
G1 Z-0.865 F1000
X86.545 Y-64.438 Z-0.964
X86.565 Y-64.449 Z-1.061
X86.599 Y-64.467 Z-1.153
X86.645 Y-64.492 Z-1.238
X86.702 Y-64.522 Z-1.314
X86.769 Y-64.558 Z-1.379
X86.843 Y-64.598 Z-1.431
X86.925 Y-64.642 Z-1.469
X87.01 Y-64.688 Z-1.492
X87.097 Y-64.735 Z-1.5
G3 X87.86 Y-64.923 I0.749 J1.394
G1 X90.554 Y-64.807
X90.902 Y-64.774
X91.175 Y-64.726
X91.461 Y-64.652
X91.8 Y-64.535
X92.15 Y-64.38
X92.545 Y-64.167
X92.966 Y-63.894
X93.439 Y-63.53
X93.932 Y-63.084
X94.48 Y-62.501
X95.049 Y-61.789
X95.562 Y-61.035
X96.028 Y-60.252
X96.454 Y-59.445
X96.844 Y-58.621
X97.203 Y-57.783
X97.535 Y-56.934
X97.842 Y-56.075
X98.127 Y-55.209
X98.391 Y-54.336
X98.637 Y-53.458
X98.864 Y-52.575
X99.075 Y-51.688
X99.269 Y-50.797
X99.448 Y-49.903
X99.612 Y-49.006
X99.761 Y-48.107
X99.896 Y-47.205
X100.017 Y-46.301
X100.125 Y-45.396
X100.219 Y-44.489
X100.301 Y-43.581
X100.369 Y-42.671
X100.424 Y-41.761
X100.466 Y-40.85
X100.495 Y-39.939
X100.512 Y-39.027
X100.516 Y-38.116
X100.507 Y-37.204
X100.485 Y-36.292
X100.451 Y-35.381
X100.405 Y-34.47
X100.345 Y-33.561
X100.273 Y-32.652
X100.189 Y-31.744
X100.091 Y-30.837
X99.981 Y-29.932
X99.859 Y-29.028
X99.723 Y-28.127
X99.575 Y-27.227
X99.415 Y-26.329
X99.241 Y-25.434
X99.055 Y-24.542
X98.857 Y-23.652
X98.646 Y-22.764
X98.423 Y-21.88
X98.188 Y-20.999
X97.941 Y-20.122
X97.681 Y-19.248
X97.409 Y-18.378
X97.122 Y-17.512
X96.819 Y-16.652
X96.494 Y-15.8
X96.187 Y-15.112
X96.047 Y-14.856
X95.875 Y-14.605
X95.655 Y-14.395
X95.397 Y-14.234
X95.111 Y-14.13
X94.811 Y-14.085
X92.118 Y-13.969
G3 X91.514 Y-14.391 I-0.005 J-0.635
G1 X91.481 Y-14.484 Z-1.492
X91.448 Y-14.576 Z-1.469
X91.417 Y-14.662 Z-1.431
X91.389 Y-14.742 Z-1.379
X91.364 Y-14.814 Z-1.314
X91.342 Y-14.875 Z-1.238
X91.324 Y-14.924 Z-1.153
X91.312 Y-14.96 Z-1.061
X91.304 Y-14.982 Z-0.964
X91.301 Y-14.989 Z-0.865
G0 Z5
X89.232 Y-64.318
Z-0.23
G1 Z-0.865 F1000
X89.239 Y-64.321 Z-0.964
X89.259 Y-64.332 Z-1.061
X89.293 Y-64.35 Z-1.153
X89.339 Y-64.375 Z-1.238
X89.396 Y-64.406 Z-1.314
X89.462 Y-64.442 Z-1.379
X89.537 Y-64.482 Z-1.431
X89.618 Y-64.525 Z-1.469
X89.704 Y-64.571 Z-1.492
X89.791 Y-64.618 Z-1.5
G3 X90.554 Y-64.807 I0.749 J1.394
G1 X93.247 Y-64.69
X93.549 Y-64.662
X93.817 Y-64.615
X94.103 Y-64.541
X94.442 Y-64.423
X94.786 Y-64.272
X95.178 Y-64.06
X95.593 Y-63.791
X96.061 Y-63.431
X96.545 Y-62.992
X97.083 Y-62.42
X97.652 Y-61.708
X98.165 Y-60.953
X98.628 Y-60.168
X99.05 Y-59.36
X99.436 Y-58.534
X99.791 Y-57.694
X100.117 Y-56.842
X100.419 Y-55.982
X100.698 Y-55.114
X100.957 Y-54.239
X101.196 Y-53.36
X101.417 Y-52.475
X101.622 Y-51.586
X101.81 Y-50.694
X101.983 Y-49.799
X102.141 Y-48.901
X102.285 Y-48.001
X102.415 Y-47.098
X102.531 Y-46.194
X102.635 Y-45.288
X102.725 Y-44.381
X102.802 Y-43.472
X102.867 Y-42.563
X102.919 Y-41.652
X102.959 Y-40.741
X102.986 Y-39.83
X103.001 Y-38.918
X103.003 Y-38.006
X102.994 Y-37.095
X102.972 Y-36.183
X102.938 Y-35.272
X102.891 Y-34.361
X102.833 Y-33.451
X102.762 Y-32.542
X102.679 Y-31.634
X102.584 Y-30.727
X102.477 Y-29.822
X102.357 Y-28.918
X102.225 Y-28.016
X102.081 Y-27.115
X101.925 Y-26.217
X101.756 Y-25.321
X101.576 Y-24.427
X101.383 Y-23.536
X101.179 Y-22.647
X100.962 Y-21.762
X100.734 Y-20.879
X100.494 Y-19.999
X100.241 Y-19.123
X99.976 Y-18.251
X99.695 Y-17.383
X99.396 Y-16.522
X99.066 Y-15.672
X98.784 Y-15.068
X98.716 Y-14.948
X98.543 Y-14.705
X98.324 Y-14.502
X98.069 Y-14.346
X97.788 Y-14.245
X97.493 Y-14.202
X94.811 Y-14.085
G3 X94.207 Y-14.507 I-0.005 J-0.635
G1 X94.174 Y-14.601 Z-1.492
X94.141 Y-14.692 Z-1.469
X94.11 Y-14.779 Z-1.431
X94.082 Y-14.859 Z-1.379
X94.056 Y-14.93 Z-1.314
X94.035 Y-14.991 Z-1.238
X94.017 Y-15.04 Z-1.153
X94.004 Y-15.076 Z-1.061
X93.997 Y-15.098 Z-0.964
X93.994 Y-15.105 Z-0.865
G0 Z5
X91.926 Y-64.201
Z-0.23
G1 Z-0.865 F1000
X91.932 Y-64.205 Z-0.964
X91.953 Y-64.216 Z-1.061
X91.987 Y-64.234 Z-1.153
X92.032 Y-64.259 Z-1.238
X92.089 Y-64.289 Z-1.314
X92.156 Y-64.325 Z-1.379
X92.231 Y-64.365 Z-1.431
X92.312 Y-64.409 Z-1.469
X92.397 Y-64.455 Z-1.492
X92.485 Y-64.502 Z-1.5
G3 X93.247 Y-64.69 I0.749 J1.394
G1 X95.941 Y-64.574
X96.181 Y-64.551
X96.444 Y-64.505
X96.73 Y-64.431
X97.067 Y-64.314
X97.407 Y-64.164
X97.797 Y-63.954
X98.207 Y-63.688
X98.67 Y-63.332
X99.147 Y-62.899
X99.677 Y-62.336
X100.246 Y-61.623
X100.757 Y-60.868
X101.219 Y-60.082
X101.638 Y-59.272
X102.02 Y-58.444
X102.37 Y-57.602
X102.692 Y-56.749
X102.989 Y-55.887
X103.263 Y-55.017
X103.516 Y-54.141
X103.75 Y-53.26
X103.965 Y-52.374
X104.164 Y-51.484
X104.347 Y-50.591
X104.515 Y-49.695
X104.668 Y-48.796
X104.807 Y-47.895
X104.932 Y-46.992
X105.045 Y-46.087
X105.144 Y-45.18
X105.23 Y-44.273
X105.304 Y-43.364
X105.366 Y-42.454
X105.415 Y-41.544
X105.453 Y-40.633
X105.478 Y-39.721
X105.491 Y-38.809
X105.493 Y-37.898
X105.482 Y-36.986
X105.46 Y-36.074
X105.426 Y-35.163
X105.38 Y-34.252
X105.322 Y-33.342
X105.252 Y-32.433
X105.171 Y-31.525
X105.078 Y-30.618
X104.973 Y-29.712
X104.856 Y-28.808
X104.728 Y-27.905
X104.588 Y-27.004
X104.435 Y-26.105
X104.272 Y-25.208
X104.096 Y-24.314
X103.909 Y-23.421
X103.71 Y-22.531
X103.499 Y-21.644
X103.277 Y-20.76
X103.043 Y-19.879
X102.797 Y-19.001
X102.537 Y-18.127
X102.261 Y-17.258
X101.962 Y-16.396
X101.644 Y-15.589
X101.425 Y-15.144
X101.256 Y-14.877
X101.034 Y-14.651
X100.769 Y-14.477
X100.473 Y-14.364
X100.159 Y-14.317
X97.493 Y-14.202
G3 X96.889 Y-14.623 I-0.005 J-0.635
G1 X96.856 Y-14.717 Z-1.492
X96.823 Y-14.808 Z-1.469
X96.792 Y-14.895 Z-1.431
X96.764 Y-14.975 Z-1.379
X96.738 Y-15.046 Z-1.314
X96.717 Y-15.107 Z-1.238
X96.699 Y-15.156 Z-1.153
X96.686 Y-15.192 Z-1.061
X96.679 Y-15.214 Z-0.964
X96.676 Y-15.222 Z-0.865
G0 Z5
X94.619 Y-64.085
Z-0.23
G1 Z-0.865 F1000
X94.626 Y-64.088 Z-0.964
X94.647 Y-64.099 Z-1.061
X94.68 Y-64.117 Z-1.153
X94.726 Y-64.142 Z-1.238
X94.783 Y-64.173 Z-1.314
X94.85 Y-64.208 Z-1.379
X94.925 Y-64.249 Z-1.431
X95.006 Y-64.292 Z-1.469
X95.091 Y-64.338 Z-1.492
X95.179 Y-64.385 Z-1.5
G3 X95.941 Y-64.574 I0.749 J1.394
G1 X98.428 Y-64.466
X98.809 Y-64.43
X99.066 Y-64.385
X99.352 Y-64.311
X99.687 Y-64.195
X100.022 Y-64.047
X100.411 Y-63.837
X100.814 Y-63.576
X101.272 Y-63.224
X101.743 Y-62.797
X102.265 Y-62.242
X102.833 Y-61.531
X103.343 Y-60.775
X103.803 Y-59.988
X104.219 Y-59.177
X104.598 Y-58.347
X104.945 Y-57.504
X105.262 Y-56.649
X105.554 Y-55.785
X105.823 Y-54.914
X106.071 Y-54.037
X106.3 Y-53.154
X106.511 Y-52.267
X106.704 Y-51.376
X106.882 Y-50.482
X107.045 Y-49.584
X107.193 Y-48.685
X107.328 Y-47.783
X107.449 Y-46.879
X107.558 Y-45.974
X107.653 Y-45.067
X107.736 Y-44.159
X107.807 Y-43.25
X107.866 Y-42.34
X107.913 Y-41.429
X107.948 Y-40.518
X107.971 Y-39.607
X107.983 Y-38.695
Y-37.783
X107.972 Y-36.872
X107.949 Y-35.96
X107.915 Y-35.049
X107.869 Y-34.138
X107.812 Y-33.228
X107.744 Y-32.319
X107.664 Y-31.411
X107.573 Y-30.503
X107.47 Y-29.597
X107.356 Y-28.693
X107.23 Y-27.79
X107.094 Y-26.888
X106.945 Y-25.988
X106.785 Y-25.091
X106.614 Y-24.195
X106.432 Y-23.302
X106.238 Y-22.411
X106.033 Y-21.522
X105.817 Y-20.636
X105.589 Y-19.754
X105.348 Y-18.874
X105.092 Y-17.999
X104.818 Y-17.129
X104.517 Y-16.269
X104.232 Y-15.576
X104.061 Y-15.24
X103.891 Y-14.978
X103.669 Y-14.757
X103.406 Y-14.588
X103.114 Y-14.478
X102.805 Y-14.431
X100.159 Y-14.317
G3 X99.556 Y-14.739 I-0.005 J-0.635
G1 X99.522 Y-14.832 Z-1.492
X99.49 Y-14.924 Z-1.469
X99.459 Y-15.01 Z-1.431
X99.431 Y-15.09 Z-1.379
X99.405 Y-15.162 Z-1.314
X99.383 Y-15.223 Z-1.238
X99.366 Y-15.272 Z-1.153
X99.353 Y-15.308 Z-1.061
X99.345 Y-15.33 Z-0.964
X99.343 Y-15.337 Z-0.865
G0 Z5
X97.106 Y-63.977
Z-0.23
G1 Z-0.865 F1000
X97.113 Y-63.981 Z-0.964
X97.133 Y-63.992 Z-1.061
X97.167 Y-64.01 Z-1.153
X97.213 Y-64.034 Z-1.238
X97.27 Y-64.065 Z-1.314
X97.336 Y-64.101 Z-1.379
X97.411 Y-64.141 Z-1.431
X97.492 Y-64.185 Z-1.469
X97.578 Y-64.231 Z-1.492
X97.665 Y-64.278 Z-1.5
G3 X98.428 Y-64.466 I0.749 J1.394
G1 X101.121 Y-64.349
X101.41 Y-64.322
X101.665 Y-64.278
X101.951 Y-64.204
X102.285 Y-64.087
X102.618 Y-63.941
X103.005 Y-63.732
X103.405 Y-63.472
X103.86 Y-63.123
X104.326 Y-62.7
X104.842 Y-62.152
X105.402 Y-61.45
X105.912 Y-60.695
X106.371 Y-59.907
X106.786 Y-59.095
X107.163 Y-58.264
X107.506 Y-57.42
X107.82 Y-56.564
X108.109 Y-55.699
X108.374 Y-54.826
X108.618 Y-53.948
X108.842 Y-53.064
X109.048 Y-52.176
X109.238 Y-51.284
X109.411 Y-50.389
X109.57 Y-49.491
X109.715 Y-48.59
X109.845 Y-47.688
X109.963 Y-46.784
X110.068 Y-45.878
X110.16 Y-44.971
X110.24 Y-44.063
X110.309 Y-43.153
X110.365 Y-42.243
X110.41 Y-41.333
X110.443 Y-40.421
X110.465 Y-39.51
X110.476 Y-38.598
X110.475 Y-37.686
X110.463 Y-36.775
X110.44 Y-35.863
X110.406 Y-34.952
X110.361 Y-34.041
X110.305 Y-33.131
X110.238 Y-32.222
X110.159 Y-31.313
X110.07 Y-30.406
X109.97 Y-29.5
X109.858 Y-28.595
X109.736 Y-27.691
X109.603 Y-26.789
X109.458 Y-25.889
X109.302 Y-24.99
X109.136 Y-24.094
X108.958 Y-23.199
X108.77 Y-22.307
X108.57 Y-21.418
X108.359 Y-20.531
X108.136 Y-19.647
X107.899 Y-18.766
X107.646 Y-17.89
X107.373 Y-17.02
X107.067 Y-16.161
X106.802 Y-15.547
X106.687 Y-15.331
X106.516 Y-15.076
X106.295 Y-14.862
X106.035 Y-14.698
X105.747 Y-14.591
X105.443 Y-14.546
X102.805 Y-14.431
G3 X102.201 Y-14.853 I-0.005 J-0.635
G1 X102.168 Y-14.947 Z-1.492
X102.135 Y-15.038 Z-1.469
X102.104 Y-15.125 Z-1.431
X102.076 Y-15.205 Z-1.379
X102.05 Y-15.276 Z-1.314
X102.029 Y-15.337 Z-1.238
X102.011 Y-15.386 Z-1.153
X101.998 Y-15.422 Z-1.061
X101.991 Y-15.444 Z-0.964
X101.988 Y-15.451 Z-0.865
G0 Z5
X99.8 Y-63.86
Z-0.23
G1 Z-0.865 F1000
X99.807 Y-63.864 Z-0.964
X99.827 Y-63.875 Z-1.061
X99.861 Y-63.893 Z-1.153
X99.906 Y-63.918 Z-1.238
X99.963 Y-63.948 Z-1.314
X100.03 Y-63.984 Z-1.379
X100.105 Y-64.024 Z-1.431
X100.186 Y-64.068 Z-1.469
X100.271 Y-64.114 Z-1.492
X100.359 Y-64.161 Z-1.5
G3 X101.121 Y-64.349 I0.749 J1.394
G1 X103.815 Y-64.233
X104.003 Y-64.215
X104.255 Y-64.171
X104.541 Y-64.097
X104.873 Y-63.982
X105.204 Y-63.836
X105.591 Y-63.627
X105.987 Y-63.37
X106.438 Y-63.023
X106.901 Y-62.604
X107.412 Y-62.061
X107.965 Y-61.368
X108.475 Y-60.612
X108.933 Y-59.823
X109.346 Y-59.011
X109.721 Y-58.179
X110.062 Y-57.334
X110.373 Y-56.477
X110.658 Y-55.611
X110.92 Y-54.737
X111.16 Y-53.857
X111.381 Y-52.973
X111.583 Y-52.084
X111.768 Y-51.191
X111.938 Y-50.295
X112.093 Y-49.396
X112.234 Y-48.496
X112.361 Y-47.593
X112.476 Y-46.688
X112.577 Y-45.782
X112.667 Y-44.875
X112.744 Y-43.966
X112.81 Y-43.057
X112.865 Y-42.146
X112.908 Y-41.236
X112.939 Y-40.324
X112.96 Y-39.413
X112.969 Y-38.501
X112.968 Y-37.589
X112.956 Y-36.677
X112.933 Y-35.766
X112.899 Y-34.855
X112.854 Y-33.944
X112.799 Y-33.034
X112.733 Y-32.124
X112.656 Y-31.216
X112.569 Y-30.308
X112.47 Y-29.402
X112.362 Y-28.496
X112.242 Y-27.593
X112.112 Y-26.69
X111.971 Y-25.789
X111.819 Y-24.89
X111.657 Y-23.993
X111.483 Y-23.098
X111.299 Y-22.205
X111.104 Y-21.314
X110.898 Y-20.426
X110.679 Y-19.541
X110.446 Y-18.659
X110.195 Y-17.783
X109.92 Y-16.913
X109.612 Y-16.067
X109.354 Y-15.502
X109.306 Y-15.417
X109.133 Y-15.171
X108.914 Y-14.964
X108.658 Y-14.806
X108.375 Y-14.703
X108.077 Y-14.66
X105.443 Y-14.546
G3 X104.839 Y-14.967 I-0.005 J-0.635
G1 X104.806 Y-15.061 Z-1.492
X104.773 Y-15.152 Z-1.469
X104.743 Y-15.239 Z-1.431
X104.714 Y-15.319 Z-1.379
X104.689 Y-15.39 Z-1.314
X104.667 Y-15.451 Z-1.238
X104.649 Y-15.5 Z-1.153
X104.637 Y-15.536 Z-1.061
X104.629 Y-15.558 Z-0.964
X104.626 Y-15.566 Z-0.865
G0 Z5
X102.493 Y-63.744
Z-0.23
G1 Z-0.865 F1000
X102.5 Y-63.747 Z-0.964
X102.521 Y-63.758 Z-1.061
X102.554 Y-63.777 Z-1.153
X102.6 Y-63.801 Z-1.238
X102.657 Y-63.832 Z-1.314
X102.724 Y-63.868 Z-1.379
X102.799 Y-63.908 Z-1.431
X102.88 Y-63.951 Z-1.469
X102.965 Y-63.997 Z-1.492
X103.053 Y-64.044 Z-1.5
G3 X103.815 Y-64.233 I0.749 J1.394
G1 X106.302 Y-64.125
X106.597 Y-64.098
X106.846 Y-64.054
X107.131 Y-63.98
X107.459 Y-63.866
X107.788 Y-63.721
X108.175 Y-63.512
X108.566 Y-63.259
X109.014 Y-62.914
X109.473 Y-62.498
X109.978 Y-61.961
X110.525 Y-61.276
X111.035 Y-60.521
X111.493 Y-59.732
X111.904 Y-58.918
X112.277 Y-58.086
X112.615 Y-57.239
X112.924 Y-56.381
X113.206 Y-55.514
X113.464 Y-54.639
X113.7 Y-53.759
X113.917 Y-52.873
X114.116 Y-51.983
X114.298 Y-51.09
X114.464 Y-50.193
X114.616 Y-49.294
X114.753 Y-48.393
X114.877 Y-47.49
X114.989 Y-46.585
X115.087 Y-45.678
X115.174 Y-44.77
X115.249 Y-43.862
X115.313 Y-42.952
X115.365 Y-42.042
X115.406 Y-41.131
X115.436 Y-40.22
X115.456 Y-39.308
X115.464 Y-38.396
X115.462 Y-37.484
X115.449 Y-36.573
X115.426 Y-35.661
X115.392 Y-34.75
X115.348 Y-33.839
X115.294 Y-32.929
X115.229 Y-32.02
X115.153 Y-31.111
X115.067 Y-30.203
X114.971 Y-29.296
X114.865 Y-28.391
X114.748 Y-27.486
X114.62 Y-26.584
X114.483 Y-25.682
X114.334 Y-24.783
X114.176 Y-23.885
X114.007 Y-22.989
X113.827 Y-22.095
X113.636 Y-21.203
X113.433 Y-20.314
X113.217 Y-19.428
X112.986 Y-18.546
X112.735 Y-17.67
X112.457 Y-16.801
X112.177 Y-16.057
X111.925 Y-15.523
X111.921 Y-15.516
X111.748 Y-15.274
X111.529 Y-15.071
X111.275 Y-14.917
X110.995 Y-14.816
X110.7 Y-14.773
X108.077 Y-14.66
G3 X107.473 Y-15.081 I-0.005 J-0.635
G1 X107.44 Y-15.175 Z-1.492
X107.407 Y-15.266 Z-1.469
X107.377 Y-15.353 Z-1.431
X107.348 Y-15.433 Z-1.379
X107.323 Y-15.504 Z-1.314
X107.301 Y-15.565 Z-1.238
X107.283 Y-15.614 Z-1.153
X107.271 Y-15.65 Z-1.061
X107.263 Y-15.672 Z-0.964
X107.26 Y-15.68 Z-0.865
G0 Z5
X104.98 Y-63.636
Z-0.23
G1 Z-0.865 F1000
X104.987 Y-63.64 Z-0.964
X105.007 Y-63.651 Z-1.061
X105.041 Y-63.669 Z-1.153
X105.087 Y-63.694 Z-1.238
X105.144 Y-63.724 Z-1.314
X105.211 Y-63.76 Z-1.379
X105.285 Y-63.8 Z-1.431
X105.366 Y-63.844 Z-1.469
X105.452 Y-63.89 Z-1.492
X105.539 Y-63.937 Z-1.5
G3 X106.302 Y-64.125 I0.749 J1.394
G1 X108.995 Y-64.009
X109.168 Y-63.993
X109.417 Y-63.949
X109.702 Y-63.875
X110.029 Y-63.762
X110.357 Y-63.617
X110.743 Y-63.408
X111.132 Y-63.156
X111.578 Y-62.813
X112.034 Y-62.4
X112.535 Y-61.867
X113.078 Y-61.188
X113.588 Y-60.432
X114.045 Y-59.643
X114.455 Y-58.829
X114.826 Y-57.996
X115.162 Y-57.148
X115.468 Y-56.289
X115.748 Y-55.421
X116.003 Y-54.546
X116.236 Y-53.664
X116.45 Y-52.778
X116.646 Y-51.887
X116.825 Y-50.993
X116.988 Y-50.096
X117.136 Y-49.197
X117.271 Y-48.295
X117.392 Y-47.391
X117.5 Y-46.486
X117.597 Y-45.579
X117.681 Y-44.671
X117.754 Y-43.762
X117.815 Y-42.852
X117.866 Y-41.942
X117.905 Y-41.031
X117.934 Y-40.12
X117.952 Y-39.208
X117.96 Y-38.296
X117.957 Y-37.384
X117.944 Y-36.473
X117.921 Y-35.561
X117.887 Y-34.65
X117.844 Y-33.739
X117.79 Y-32.829
X117.726 Y-31.919
X117.652 Y-31.011
X117.567 Y-30.103
X117.473 Y-29.196
X117.369 Y-28.29
X117.254 Y-27.385
X117.13 Y-26.482
X116.995 Y-25.58
X116.85 Y-24.68
X116.695 Y-23.782
X116.53 Y-22.885
X116.354 Y-21.99
X116.166 Y-21.098
X115.967 Y-20.208
X115.753 Y-19.322
X115.523 Y-18.439
X115.272 Y-17.563
X114.989 Y-16.696
X114.724 Y-16.029
X114.568 Y-15.711
X114.399 Y-15.444
X114.176 Y-15.219
X113.911 Y-15.046
X113.616 Y-14.933
X113.303 Y-14.886
X110.7 Y-14.773
G3 X110.097 Y-15.195 I-0.005 J-0.635
G1 X110.063 Y-15.289 Z-1.492
X110.031 Y-15.38 Z-1.469
X110 Y-15.467 Z-1.431
X109.971 Y-15.547 Z-1.379
X109.946 Y-15.618 Z-1.314
X109.924 Y-15.679 Z-1.238
X109.907 Y-15.728 Z-1.153
X109.894 Y-15.764 Z-1.061
X109.886 Y-15.786 Z-0.964
X109.884 Y-15.793 Z-0.865
G0 Z5
X107.674 Y-63.52
Z-0.23
G1 Z-0.865 F1000
X107.681 Y-63.523 Z-0.964
X107.701 Y-63.534 Z-1.061
X107.735 Y-63.552 Z-1.153
X107.781 Y-63.577 Z-1.238
X107.838 Y-63.608 Z-1.314
X107.904 Y-63.643 Z-1.379
X107.979 Y-63.684 Z-1.431
X108.06 Y-63.727 Z-1.469
X108.146 Y-63.773 Z-1.492
X108.233 Y-63.82 Z-1.5
G3 X108.995 Y-64.009 I0.749 J1.394
G1 X111.482 Y-63.901
X111.745 Y-63.877
X111.991 Y-63.833
X112.277 Y-63.759
X112.599 Y-63.647
X112.927 Y-63.503
X113.312 Y-63.295
X113.697 Y-63.045
X114.14 Y-62.704
X114.594 Y-62.293
X115.091 Y-61.765
X115.628 Y-61.092
X116.139 Y-60.336
X116.594 Y-59.547
X117.004 Y-58.732
X117.373 Y-57.898
X117.707 Y-57.05
X118.011 Y-56.19
X118.288 Y-55.321
X118.54 Y-54.445
X118.771 Y-53.563
X118.982 Y-52.676
X119.174 Y-51.785
X119.35 Y-50.89
X119.51 Y-49.992
X119.656 Y-49.092
X119.788 Y-48.19
X119.906 Y-47.286
X120.012 Y-46.38
X120.106 Y-45.473
X120.188 Y-44.565
X120.259 Y-43.656
X120.318 Y-42.746
X120.367 Y-41.836
X120.405 Y-40.925
X120.432 Y-40.013
X120.45 Y-39.102
X120.456 Y-38.19
X120.453 Y-37.278
X120.44 Y-36.366
X120.416 Y-35.455
X120.383 Y-34.544
X120.34 Y-33.633
X120.286 Y-32.723
X120.223 Y-31.813
X120.15 Y-30.904
X120.068 Y-29.996
X119.975 Y-29.089
X119.873 Y-28.183
X119.761 Y-27.278
X119.639 Y-26.374
X119.507 Y-25.472
X119.365 Y-24.571
X119.213 Y-23.672
X119.051 Y-22.775
X118.878 Y-21.88
X118.693 Y-20.987
X118.496 Y-20.097
X118.284 Y-19.21
X118.054 Y-18.327
X117.8 Y-17.452
X117.51 Y-16.587
X117.262 Y-15.999
X117.157 Y-15.796
X116.986 Y-15.537
X116.765 Y-15.32
X116.503 Y-15.153
X116.213 Y-15.044
X115.906 Y-14.998
X113.303 Y-14.886
G3 X112.699 Y-15.308 I-0.005 J-0.635
G1 X112.666 Y-15.401 Z-1.492
X112.633 Y-15.492 Z-1.469
X112.603 Y-15.579 Z-1.431
X112.574 Y-15.659 Z-1.379
X112.549 Y-15.731 Z-1.314
X112.527 Y-15.792 Z-1.238
X112.509 Y-15.841 Z-1.153
X112.497 Y-15.877 Z-1.061
X112.489 Y-15.898 Z-0.964
X112.486 Y-15.906 Z-0.865
G0 Z5
X110.16 Y-63.412
Z-0.23
G1 Z-0.865 F1000
X110.167 Y-63.416 Z-0.964
X110.188 Y-63.427 Z-1.061
X110.221 Y-63.445 Z-1.153
X110.267 Y-63.469 Z-1.238
X110.324 Y-63.5 Z-1.314
X110.391 Y-63.536 Z-1.379
X110.466 Y-63.576 Z-1.431
X110.547 Y-63.62 Z-1.469
X110.632 Y-63.666 Z-1.492
X110.72 Y-63.713 Z-1.5
G3 X111.482 Y-63.901 I0.749 J1.394
G1 X113.969 Y-63.793
X114.312 Y-63.761
X114.557 Y-63.718
X114.843 Y-63.644
X115.162 Y-63.533
X115.49 Y-63.389
X115.874 Y-63.182
X116.257 Y-62.933
X116.697 Y-62.595
X117.149 Y-62.185
X117.642 Y-61.661
X118.175 Y-60.994
X118.685 Y-60.238
X119.14 Y-59.448
X119.549 Y-58.632
X119.916 Y-57.798
X120.249 Y-56.949
X120.551 Y-56.089
X120.825 Y-55.219
X121.075 Y-54.342
X121.303 Y-53.459
X121.511 Y-52.572
X121.701 Y-51.68
X121.874 Y-50.785
X122.032 Y-49.886
X122.175 Y-48.986
X122.304 Y-48.083
X122.42 Y-47.179
X122.523 Y-46.273
X122.615 Y-45.366
X122.695 Y-44.457
X122.764 Y-43.548
X122.822 Y-42.638
X122.869 Y-41.728
X122.905 Y-40.817
X122.932 Y-39.905
X122.948 Y-38.993
X122.954 Y-38.082
X122.95 Y-37.17
X122.936 Y-36.258
X122.913 Y-35.347
X122.879 Y-34.435
X122.836 Y-33.525
X122.784 Y-32.614
X122.722 Y-31.705
X122.65 Y-30.796
X122.569 Y-29.888
X122.478 Y-28.98
X122.377 Y-28.074
X122.267 Y-27.169
X122.148 Y-26.265
X122.019 Y-25.362
X121.88 Y-24.461
X121.73 Y-23.562
X121.571 Y-22.664
X121.401 Y-21.768
X121.219 Y-20.875
X121.023 Y-19.984
X120.812 Y-19.097
X120.581 Y-18.215
X120.322 Y-17.341
X120.043 Y-16.54
X119.799 Y-15.987
X119.744 Y-15.886
X119.572 Y-15.634
X119.352 Y-15.423
X119.094 Y-15.261
X118.807 Y-15.155
X118.505 Y-15.111
X115.906 Y-14.998
G3 X115.302 Y-15.42 I-0.005 J-0.635
G1 X115.269 Y-15.514 Z-1.492
X115.237 Y-15.605 Z-1.469
X115.206 Y-15.692 Z-1.431
X115.177 Y-15.772 Z-1.379
X115.152 Y-15.843 Z-1.314
X115.13 Y-15.904 Z-1.238
X115.113 Y-15.953 Z-1.153
X115.1 Y-15.989 Z-1.061
X115.092 Y-16.011 Z-0.964
X115.089 Y-16.018 Z-0.865
G0 Z5
X112.647 Y-63.304
Z-0.23
G1 Z-0.865 F1000
X112.654 Y-63.308 Z-0.964
X112.674 Y-63.319 Z-1.061
X112.708 Y-63.337 Z-1.153
X112.754 Y-63.362 Z-1.238
X112.811 Y-63.392 Z-1.314
X112.877 Y-63.428 Z-1.379
X112.952 Y-63.468 Z-1.431
X113.033 Y-63.512 Z-1.469
X113.119 Y-63.558 Z-1.492
X113.206 Y-63.605 Z-1.5
G3 X113.969 Y-63.793 I0.749 J1.394
G1 X116.662 Y-63.677
X116.862 Y-63.658
X117.107 Y-63.615
X117.393 Y-63.541
X117.711 Y-63.43
X118.039 Y-63.286
X118.423 Y-63.079
X118.805 Y-62.831
X119.244 Y-62.493
X119.694 Y-62.086
X120.185 Y-61.564
X120.715 Y-60.9
X121.225 Y-60.144
X121.68 Y-59.354
X122.088 Y-58.538
X122.454 Y-57.703
X122.785 Y-56.854
X123.085 Y-55.993
X123.358 Y-55.122
X123.606 Y-54.245
X123.831 Y-53.362
X124.037 Y-52.473
X124.225 Y-51.581
X124.395 Y-50.685
X124.55 Y-49.787
X124.691 Y-48.886
X124.818 Y-47.983
X124.932 Y-47.078
X125.033 Y-46.172
X125.123 Y-45.265
X125.201 Y-44.356
X125.268 Y-43.447
X125.325 Y-42.537
X125.37 Y-41.626
X125.406 Y-40.715
X125.431 Y-39.804
X125.446 Y-38.892
X125.452 Y-37.98
X125.448 Y-37.068
X125.434 Y-36.157
X125.41 Y-35.245
X125.377 Y-34.334
X125.335 Y-33.423
X125.283 Y-32.513
X125.221 Y-31.603
X125.151 Y-30.694
X125.071 Y-29.786
X124.982 Y-28.878
X124.883 Y-27.972
X124.775 Y-27.066
X124.658 Y-26.162
X124.531 Y-25.259
X124.395 Y-24.358
X124.248 Y-23.458
X124.091 Y-22.559
X123.923 Y-21.663
X123.743 Y-20.769
X123.549 Y-19.878
X123.337 Y-18.992
X123.104 Y-18.11
X122.84 Y-17.237
X122.577 Y-16.518
X122.335 Y-15.992
X122.327 Y-15.978
X122.155 Y-15.733
X121.936 Y-15.527
X121.679 Y-15.369
X121.397 Y-15.267
X121.099 Y-15.223
X118.505 Y-15.111
G3 X117.902 Y-15.533 I-0.005 J-0.635
G1 X117.869 Y-15.626 Z-1.492
X117.836 Y-15.718 Z-1.469
X117.805 Y-15.804 Z-1.431
X117.777 Y-15.884 Z-1.379
X117.751 Y-15.956 Z-1.314
X117.73 Y-16.017 Z-1.238
X117.712 Y-16.066 Z-1.153
X117.699 Y-16.102 Z-1.061
X117.691 Y-16.124 Z-0.964
X117.689 Y-16.131 Z-0.865
G0 Z5
X115.341 Y-63.188
Z-0.23
G1 Z-0.865 F1000
X115.347 Y-63.191 Z-0.964
X115.368 Y-63.202 Z-1.061
X115.402 Y-63.221 Z-1.153
X115.447 Y-63.245 Z-1.238
X115.504 Y-63.276 Z-1.314
X115.571 Y-63.312 Z-1.379
X115.646 Y-63.352 Z-1.431
X115.727 Y-63.395 Z-1.469
X115.812 Y-63.441 Z-1.492
X115.9 Y-63.488 Z-1.5
G3 X116.662 Y-63.677 I0.749 J1.394
G1 X119.149 Y-63.569
X119.42 Y-63.544
X119.664 Y-63.501
X119.949 Y-63.427
X120.265 Y-63.318
X120.593 Y-63.173
X120.975 Y-62.967
X121.355 Y-62.72
X121.792 Y-62.384
X122.24 Y-61.978
X122.728 Y-61.459
X123.254 Y-60.8
X123.765 Y-60.044
X124.219 Y-59.254
X124.625 Y-58.438
X124.991 Y-57.602
X125.32 Y-56.752
X125.619 Y-55.89
X125.889 Y-55.02
X126.135 Y-54.142
X126.359 Y-53.258
X126.562 Y-52.369
X126.748 Y-51.476
X126.916 Y-50.58
X127.069 Y-49.681
X127.207 Y-48.78
X127.332 Y-47.877
X127.444 Y-46.972
X127.544 Y-46.065
X127.631 Y-45.158
X127.708 Y-44.249
X127.773 Y-43.34
X127.828 Y-42.43
X127.873 Y-41.519
X127.907 Y-40.608
X127.931 Y-39.696
X127.946 Y-38.784
X127.951 Y-37.873
X127.946 Y-36.961
X127.932 Y-36.049
X127.908 Y-35.138
X127.875 Y-34.226
X127.833 Y-33.316
X127.782 Y-32.405
X127.722 Y-31.495
X127.652 Y-30.586
X127.573 Y-29.678
X127.486 Y-28.77
X127.389 Y-27.864
X127.283 Y-26.958
X127.167 Y-26.053
X127.043 Y-25.15
X126.909 Y-24.248
X126.764 Y-23.348
X126.61 Y-22.449
X126.443 Y-21.553
X126.264 Y-20.659
X126.07 Y-19.768
X125.858 Y-18.881
X125.621 Y-18.001
X125.349 Y-17.13
X125.1 Y-16.487
X124.858 Y-15.985
X124.704 Y-15.775
X124.512 Y-15.599
X124.289 Y-15.464
X124.043 Y-15.377
X123.785 Y-15.339
X121.099 Y-15.223
G3 X120.496 Y-15.645 I-0.005 J-0.635
G1 X120.463 Y-15.739 Z-1.492
X120.43 Y-15.83 Z-1.469
X120.399 Y-15.917 Z-1.431
X120.371 Y-15.997 Z-1.379
X120.345 Y-16.068 Z-1.314
X120.323 Y-16.129 Z-1.238
X120.306 Y-16.178 Z-1.153
X120.293 Y-16.214 Z-1.061
X120.285 Y-16.236 Z-0.964
X120.283 Y-16.243 Z-0.865
G0 Z5
X117.827 Y-63.08
Z-0.23
G1 Z-0.865 F1000
X117.834 Y-63.084 Z-0.964
X117.854 Y-63.095 Z-1.061
X117.888 Y-63.113 Z-1.153
X117.934 Y-63.138 Z-1.238
X117.991 Y-63.168 Z-1.314
X118.058 Y-63.204 Z-1.379
X118.132 Y-63.244 Z-1.431
X118.214 Y-63.288 Z-1.469
X118.299 Y-63.334 Z-1.492
X118.386 Y-63.381 Z-1.5
G3 X119.149 Y-63.569 I0.749 J1.394
G1 X121.635 Y-63.462
X121.971 Y-63.43
X122.214 Y-63.388
X122.5 Y-63.314
X122.813 Y-63.205
X123.141 Y-63.06
X123.521 Y-62.855
X123.901 Y-62.609
X124.335 Y-62.275
X124.782 Y-61.87
X125.267 Y-61.354
X125.791 Y-60.698
X126.301 Y-59.943
X126.755 Y-59.152
X127.161 Y-58.335
X127.525 Y-57.499
X127.853 Y-56.649
X128.15 Y-55.786
X128.419 Y-54.915
X128.663 Y-54.037
X128.884 Y-53.152
X129.086 Y-52.263
X129.269 Y-51.37
X129.436 Y-50.473
X129.586 Y-49.574
X129.723 Y-48.672
X129.846 Y-47.769
X129.956 Y-46.864
X130.053 Y-45.957
X130.14 Y-45.049
X130.214 Y-44.141
X130.278 Y-43.231
X130.332 Y-42.321
X130.375 Y-41.41
X130.409 Y-40.499
X130.432 Y-39.587
X130.446 Y-38.676
X130.45 Y-37.764
X130.445 Y-36.852
X130.431 Y-35.94
X130.407 Y-35.029
X130.374 Y-34.118
X130.333 Y-33.207
X130.282 Y-32.296
X130.222 Y-31.386
X130.154 Y-30.477
X130.076 Y-29.569
X129.99 Y-28.661
X129.895 Y-27.754
X129.79 Y-26.848
X129.677 Y-25.944
X129.554 Y-25.04
X129.422 Y-24.138
X129.28 Y-23.237
X129.126 Y-22.338
X128.961 Y-21.442
X128.783 Y-20.548
X128.589 Y-19.657
X128.374 Y-18.77
X128.132 Y-17.891
X127.852 Y-17.024
X127.613 Y-16.435
X127.374 Y-15.962
X127.215 Y-15.76
X127.011 Y-15.603
X126.775 Y-15.5
X126.522 Y-15.458
X123.785 Y-15.339
G3 X123.182 Y-15.761 I-0.005 J-0.635
G1 X123.148 Y-15.855 Z-1.492
X123.116 Y-15.946 Z-1.469
X123.085 Y-16.033 Z-1.431
X123.056 Y-16.113 Z-1.379
X123.031 Y-16.184 Z-1.314
X123.009 Y-16.245 Z-1.238
X122.992 Y-16.294 Z-1.153
X122.979 Y-16.33 Z-1.061
X122.971 Y-16.352 Z-0.964
X122.969 Y-16.359 Z-0.865
G0 Z5
X120.314 Y-62.973
Z-0.23
G1 Z-0.865 F1000
X120.321 Y-62.976 Z-0.964
X120.341 Y-62.987 Z-1.061
X120.375 Y-63.005 Z-1.153
X120.42 Y-63.03 Z-1.238
X120.477 Y-63.061 Z-1.314
X120.544 Y-63.096 Z-1.379
X120.619 Y-63.137 Z-1.431
X120.7 Y-63.18 Z-1.469
X120.785 Y-63.226 Z-1.492
X120.873 Y-63.273 Z-1.5
G3 X121.635 Y-63.462 I0.749 J1.394
G1 X124.329 Y-63.345
X124.507 Y-63.328
X124.75 Y-63.286
X125.036 Y-63.212
X125.349 Y-63.103
X125.677 Y-62.959
X126.058 Y-62.753
X126.436 Y-62.507
X126.871 Y-62.173
X127.316 Y-61.77
X127.8 Y-61.255
X128.322 Y-60.602
X128.832 Y-59.846
X129.286 Y-59.055
X129.691 Y-58.238
X130.054 Y-57.402
X130.381 Y-56.551
X130.677 Y-55.688
X130.944 Y-54.817
X131.187 Y-53.938
X131.407 Y-53.053
X131.607 Y-52.163
X131.788 Y-51.27
X131.953 Y-50.373
X132.102 Y-49.473
X132.236 Y-48.571
X132.358 Y-47.668
X132.466 Y-46.762
X132.562 Y-45.856
X132.647 Y-44.948
X132.72 Y-44.039
X132.783 Y-43.129
X132.836 Y-42.219
X132.878 Y-41.308
X132.91 Y-40.397
X132.933 Y-39.485
X132.946 Y-38.574
X132.95 Y-37.662
X132.945 Y-36.75
X132.93 Y-35.838
X132.907 Y-34.927
X132.874 Y-34.016
X132.833 Y-33.105
X132.783 Y-32.194
X132.724 Y-31.284
X132.657 Y-30.375
X132.581 Y-29.466
X132.496 Y-28.559
X132.402 Y-27.652
X132.299 Y-26.746
X132.187 Y-25.841
X132.066 Y-24.937
X131.936 Y-24.034
X131.795 Y-23.134
X131.643 Y-22.234
X131.479 Y-21.338
X131.301 Y-20.443
X131.105 Y-19.553
X130.888 Y-18.667
X130.642 Y-17.789
X130.354 Y-16.924
X130.116 Y-16.363
X129.889 Y-15.929
X129.774 Y-15.788
X129.629 Y-15.679
X129.463 Y-15.607
X129.284 Y-15.577
X126.522 Y-15.458
G3 X125.918 Y-15.88 I-0.005 J-0.635
G1 X125.885 Y-15.973 Z-1.492
X125.852 Y-16.065 Z-1.469
X125.821 Y-16.151 Z-1.431
X125.793 Y-16.231 Z-1.379
X125.767 Y-16.303 Z-1.314
X125.746 Y-16.364 Z-1.238
X125.728 Y-16.413 Z-1.153
X125.715 Y-16.449 Z-1.061
X125.708 Y-16.471 Z-0.964
X125.705 Y-16.478 Z-0.865
G0 Z5
X123.007 Y-62.856
Z-0.23
G1 Z-0.865 F1000
X123.014 Y-62.86 Z-0.964
X123.035 Y-62.871 Z-1.061
X123.068 Y-62.889 Z-1.153
X123.114 Y-62.913 Z-1.238
X123.171 Y-62.944 Z-1.314
X123.238 Y-62.98 Z-1.379
X123.313 Y-63.02 Z-1.431
X123.394 Y-63.064 Z-1.469
X123.479 Y-63.11 Z-1.492
X123.567 Y-63.157 Z-1.5
G3 X124.329 Y-63.345 I0.749 J1.394
G1 X126.816 Y-63.237
X127.052 Y-63.215
X127.295 Y-63.173
X127.58 Y-63.099
X127.891 Y-62.991
X128.219 Y-62.847
X128.598 Y-62.642
X128.975 Y-62.397
X129.408 Y-62.064
X129.852 Y-61.662
X130.333 Y-61.15
X130.853 Y-60.5
X131.363 Y-59.744
X131.816 Y-58.953
X132.221 Y-58.136
X132.583 Y-57.299
X132.909 Y-56.448
X133.203 Y-55.584
X133.469 Y-54.712
X133.71 Y-53.833
X133.929 Y-52.948
X134.127 Y-52.058
X134.307 Y-51.164
X134.47 Y-50.267
X134.617 Y-49.367
X134.75 Y-48.465
X134.87 Y-47.561
X134.977 Y-46.655
X135.071 Y-45.748
X135.155 Y-44.84
X135.227 Y-43.931
X135.288 Y-43.022
X135.34 Y-42.111
X135.381 Y-41.2
X135.412 Y-40.289
X135.434 Y-39.378
X135.447 Y-38.466
X135.451 Y-37.554
X135.445 Y-36.642
X135.43 Y-35.731
X135.407 Y-34.819
X135.375 Y-33.908
X135.334 Y-32.997
X135.285 Y-32.087
X135.227 Y-31.177
X135.16 Y-30.267
X135.085 Y-29.358
X135.001 Y-28.451
X134.908 Y-27.543
X134.807 Y-26.637
X134.697 Y-25.732
X134.578 Y-24.828
X134.449 Y-23.926
X134.309 Y-23.024
X134.158 Y-22.125
X133.994 Y-21.228
X133.815 Y-20.334
X133.618 Y-19.444
X133.398 Y-18.559
X133.148 Y-17.682
X132.865 Y-16.855
X132.638 Y-16.333
X132.42 Y-15.924
X132.314 Y-15.806
X132.178 Y-15.728
X132.023 Y-15.696
X129.284 Y-15.577
G3 X128.68 Y-15.999 I-0.005 J-0.635
G1 X128.647 Y-16.093 Z-1.492
X128.614 Y-16.184 Z-1.469
X128.583 Y-16.271 Z-1.431
X128.555 Y-16.351 Z-1.379
X128.53 Y-16.422 Z-1.314
X128.508 Y-16.483 Z-1.238
X128.49 Y-16.532 Z-1.153
X128.478 Y-16.568 Z-1.061
X128.47 Y-16.59 Z-0.964
X128.467 Y-16.597 Z-0.865
G0 Z5
X125.494 Y-62.748
Z-0.23
G1 Z-0.865 F1000
X125.501 Y-62.752 Z-0.964
X125.521 Y-62.763 Z-1.061
X125.555 Y-62.781 Z-1.153
X125.601 Y-62.806 Z-1.238
X125.658 Y-62.836 Z-1.314
X125.725 Y-62.872 Z-1.379
X125.799 Y-62.912 Z-1.431
X125.88 Y-62.956 Z-1.469
X125.966 Y-63.002 Z-1.492
X126.053 Y-63.049 Z-1.5
G3 X126.816 Y-63.237 I0.749 J1.394
G1 X129.302 Y-63.13
X129.592 Y-63.103
X129.834 Y-63.06
X130.119 Y-62.986
X130.428 Y-62.879
X130.756 Y-62.735
X131.134 Y-62.531
X131.511 Y-62.286
X131.942 Y-61.955
X132.385 Y-61.553
X132.865 Y-61.043
X133.382 Y-60.396
X133.892 Y-59.64
X134.345 Y-58.849
X134.748 Y-58.031
X135.11 Y-57.194
X135.435 Y-56.342
X135.728 Y-55.479
X135.993 Y-54.606
X136.232 Y-53.727
X136.449 Y-52.841
X136.646 Y-51.951
X136.824 Y-51.056
X136.986 Y-50.159
X137.132 Y-49.259
X137.263 Y-48.357
X137.381 Y-47.453
X137.487 Y-46.547
X137.58 Y-45.64
X137.662 Y-44.732
X137.733 Y-43.823
X137.794 Y-42.913
X137.844 Y-42.002
X137.884 Y-41.092
X137.915 Y-40.18
X137.936 Y-39.269
X137.949 Y-38.357
X137.952 Y-37.445
X137.946 Y-36.533
X137.931 Y-35.622
X137.908 Y-34.71
X137.876 Y-33.799
X137.836 Y-32.888
X137.787 Y-31.978
X137.729 Y-31.067
X137.664 Y-30.158
X137.589 Y-29.249
X137.507 Y-28.341
X137.415 Y-27.434
X137.315 Y-26.528
X137.206 Y-25.622
X137.088 Y-24.718
X136.96 Y-23.815
X136.822 Y-22.914
X136.671 Y-22.015
X136.507 Y-21.118
X136.328 Y-20.224
X136.129 Y-19.334
X135.906 Y-18.45
X135.65 Y-17.575
X135.385 Y-16.816
X135.162 Y-16.314
X134.962 Y-15.947
X134.9 Y-15.878
X134.819 Y-15.832
X134.727 Y-15.813
X132.023 Y-15.696
G3 X131.42 Y-16.118 I-0.005 J-0.635
G1 X131.386 Y-16.211 Z-1.492
X131.354 Y-16.303 Z-1.469
X131.323 Y-16.389 Z-1.431
X131.294 Y-16.469 Z-1.379
X131.269 Y-16.541 Z-1.314
X131.247 Y-16.602 Z-1.238
X131.23 Y-16.651 Z-1.153
X131.217 Y-16.687 Z-1.061
X131.209 Y-16.709 Z-0.964
X131.207 Y-16.716 Z-0.865
G0 Z5
X127.98 Y-62.641
Z-0.23
G1 Z-0.865 F1000
X127.987 Y-62.644 Z-0.964
X128.008 Y-62.655 Z-1.061
X128.041 Y-62.673 Z-1.153
X128.087 Y-62.698 Z-1.238
X128.144 Y-62.729 Z-1.314
X128.211 Y-62.765 Z-1.379
X128.286 Y-62.805 Z-1.431
X128.367 Y-62.848 Z-1.469
X128.452 Y-62.894 Z-1.492
X128.54 Y-62.941 Z-1.5
G3 X129.302 Y-63.13 I0.749 J1.394
G1 X131.789 Y-63.022
X132.127 Y-62.991
X132.369 Y-62.948
X132.655 Y-62.874
X132.962 Y-62.767
X133.29 Y-62.623
X133.667 Y-62.419
X134.043 Y-62.175
X134.473 Y-61.845
X134.916 Y-61.444
X135.393 Y-60.936
X135.908 Y-60.291
X136.418 Y-59.535
X136.871 Y-58.744
X137.274 Y-57.926
X137.635 Y-57.089
X137.959 Y-56.237
X138.251 Y-55.373
X138.515 Y-54.5
X138.753 Y-53.62
X138.969 Y-52.734
X139.164 Y-51.843
X139.341 Y-50.949
X139.501 Y-50.051
X139.646 Y-49.151
X139.776 Y-48.248
X139.892 Y-47.344
X139.997 Y-46.438
X140.089 Y-45.531
X140.169 Y-44.623
X140.239 Y-43.714
X140.299 Y-42.804
X140.348 Y-41.893
X140.388 Y-40.982
X140.418 Y-40.071
X140.439 Y-39.159
X140.45 Y-38.248
X140.453 Y-37.336
X140.447 Y-36.424
X140.433 Y-35.512
X140.409 Y-34.601
X140.378 Y-33.69
X140.338 Y-32.779
X140.289 Y-31.868
X140.233 Y-30.958
X140.168 Y-30.049
X140.094 Y-29.14
X140.013 Y-28.232
X139.922 Y-27.324
X139.823 Y-26.418
X139.716 Y-25.512
X139.599 Y-24.608
X139.471 Y-23.705
X139.333 Y-22.804
X139.183 Y-21.905
X139.019 Y-21.008
X138.838 Y-20.114
X138.637 Y-19.225
X138.411 Y-18.341
X138.151 Y-17.467
X137.901 Y-16.776
X137.692 Y-16.316
X137.498 Y-15.966
X137.481 Y-15.948
X137.459 Y-15.935
X137.434 Y-15.93
X134.727 Y-15.813
G3 X134.124 Y-16.235 I-0.005 J-0.635
G1 X134.09 Y-16.328 Z-1.492
X134.058 Y-16.42 Z-1.469
X134.027 Y-16.506 Z-1.431
X133.999 Y-16.586 Z-1.379
X133.973 Y-16.658 Z-1.314
X133.951 Y-16.719 Z-1.238
X133.934 Y-16.768 Z-1.153
X133.921 Y-16.804 Z-1.061
X133.913 Y-16.826 Z-0.964
X133.911 Y-16.833 Z-0.865
G0 Z5
X130.467 Y-62.533
Z-0.23
G1 Z-0.865 F1000
X130.474 Y-62.537 Z-0.964
X130.494 Y-62.548 Z-1.061
X130.528 Y-62.566 Z-1.153
X130.574 Y-62.591 Z-1.238
X130.631 Y-62.621 Z-1.314
X130.698 Y-62.657 Z-1.379
X130.772 Y-62.697 Z-1.431
X130.854 Y-62.741 Z-1.469
X130.939 Y-62.787 Z-1.492
X131.026 Y-62.834 Z-1.5
G3 X131.789 Y-63.022 I0.749 J1.394
G1 X134.483 Y-62.906
X134.651 Y-62.89
X134.893 Y-62.848
X135.178 Y-62.773
X135.486 Y-62.666
X135.814 Y-62.522
X136.192 Y-62.318
X136.568 Y-62.074
X136.998 Y-61.744
X137.439 Y-61.344
X137.916 Y-60.836
X138.431 Y-60.193
X138.941 Y-59.437
X139.393 Y-58.645
X139.796 Y-57.827
X140.157 Y-56.99
X140.48 Y-56.137
X140.771 Y-55.273
X141.034 Y-54.4
X141.271 Y-53.519
X141.486 Y-52.633
X141.68 Y-51.742
X141.855 Y-50.848
X142.014 Y-49.95
X142.158 Y-49.049
X142.287 Y-48.147
X142.402 Y-47.242
X142.505 Y-46.336
X142.596 Y-45.429
X142.676 Y-44.521
X142.745 Y-43.611
X142.804 Y-42.702
X142.852 Y-41.791
X142.891 Y-40.88
X142.921 Y-39.969
X142.941 Y-39.057
X142.953 Y-38.145
X142.955 Y-37.234
X142.949 Y-36.322
X142.935 Y-35.41
X142.912 Y-34.499
X142.88 Y-33.587
X142.841 Y-32.676
X142.793 Y-31.766
X142.737 Y-30.856
X142.673 Y-29.946
X142.6 Y-29.037
X142.519 Y-28.129
X142.43 Y-27.222
X142.332 Y-26.315
X142.226 Y-25.409
X142.109 Y-24.505
X141.983 Y-23.602
X141.845 Y-22.701
X141.695 Y-21.801
X141.53 Y-20.905
X141.348 Y-20.011
X141.146 Y-19.122
X140.917 Y-18.239
X140.651 Y-17.367
X140.501 Y-16.967
X140.375 Y-16.708
X140.2 Y-16.479
X139.984 Y-16.287
X139.736 Y-16.141
X139.463 Y-16.046
X139.178 Y-16.006
X137.434 Y-15.93
G3 X136.831 Y-16.352 I-0.005 J-0.635
G1 X136.797 Y-16.446 Z-1.492
X136.765 Y-16.537 Z-1.469
X136.734 Y-16.624 Z-1.431
X136.705 Y-16.704 Z-1.379
X136.68 Y-16.775 Z-1.314
X136.658 Y-16.836 Z-1.238
X136.641 Y-16.885 Z-1.153
X136.628 Y-16.921 Z-1.061
X136.62 Y-16.943 Z-0.964
X136.618 Y-16.95 Z-0.865
G0 Z5
X133.161 Y-62.417
Z-0.23
G1 Z-0.865 F1000
X133.168 Y-62.42 Z-0.964
X133.188 Y-62.431 Z-1.061
X133.222 Y-62.449 Z-1.153
X133.268 Y-62.474 Z-1.238
X133.325 Y-62.505 Z-1.314
X133.391 Y-62.54 Z-1.379
X133.466 Y-62.581 Z-1.431
X133.547 Y-62.624 Z-1.469
X133.633 Y-62.67 Z-1.492
X133.72 Y-62.717 Z-1.5
G3 X134.483 Y-62.906 I0.749 J1.394
G1 X136.969 Y-62.798
X137.184 Y-62.778
X137.425 Y-62.736
X137.711 Y-62.661
X138.017 Y-62.555
X138.345 Y-62.411
X138.721 Y-62.208
X139.096 Y-61.964
X139.525 Y-61.635
X139.966 Y-61.236
X140.441 Y-60.73
X140.953 Y-60.088
X141.464 Y-59.333
X141.916 Y-58.541
X142.318 Y-57.723
X142.678 Y-56.885
X143.001 Y-56.032
X143.291 Y-55.168
X143.553 Y-54.294
X143.789 Y-53.414
X144.002 Y-52.527
X144.195 Y-51.636
X144.37 Y-50.741
X144.528 Y-49.843
X144.67 Y-48.942
X144.798 Y-48.039
X144.912 Y-47.135
X145.014 Y-46.229
X145.104 Y-45.321
X145.183 Y-44.413
X145.251 Y-43.504
X145.309 Y-42.594
X145.357 Y-41.683
X145.395 Y-40.772
X145.424 Y-39.861
X145.444 Y-38.949
X145.455 Y-38.038
X145.458 Y-37.126
X145.452 Y-36.214
X145.437 Y-35.302
X145.414 Y-34.391
X145.383 Y-33.479
X145.344 Y-32.568
X145.296 Y-31.658
X145.241 Y-30.748
X145.177 Y-29.838
X145.106 Y-28.929
X145.026 Y-28.021
X144.938 Y-27.113
X144.84 Y-26.207
X144.734 Y-25.301
X144.619 Y-24.397
X144.493 Y-23.494
X144.355 Y-22.592
X144.205 Y-21.693
X144.039 Y-20.796
X143.856 Y-19.903
X143.651 Y-19.015
X143.418 Y-18.133
X143.199 Y-17.475
X142.989 Y-16.979
X142.952 Y-16.908
X142.781 Y-16.651
X142.56 Y-16.434
X142.299 Y-16.269
X142.009 Y-16.16
X141.703 Y-16.115
X139.178 Y-16.006
G3 X138.574 Y-16.427 I-0.005 J-0.635
G1 X138.541 Y-16.521 Z-1.492
X138.508 Y-16.612 Z-1.469
X138.477 Y-16.699 Z-1.431
X138.449 Y-16.779 Z-1.379
X138.423 Y-16.85 Z-1.314
X138.402 Y-16.911 Z-1.238
X138.384 Y-16.96 Z-1.153
X138.371 Y-16.996 Z-1.061
X138.364 Y-17.018 Z-0.964
X138.361 Y-17.026 Z-0.865
G0 Z5
X135.647 Y-62.309
Z-0.23
G1 Z-0.865 F1000
X135.654 Y-62.313 Z-0.964
X135.675 Y-62.324 Z-1.061
X135.708 Y-62.342 Z-1.153
X135.754 Y-62.366 Z-1.238
X135.811 Y-62.397 Z-1.314
X135.878 Y-62.433 Z-1.379
X135.953 Y-62.473 Z-1.431
X136.034 Y-62.517 Z-1.469
X136.119 Y-62.563 Z-1.492
X136.207 Y-62.61 Z-1.5
G3 X136.969 Y-62.798 I0.749 J1.394
G1 X139.456 Y-62.69
X139.713 Y-62.666
X139.954 Y-62.624
X140.24 Y-62.55
X140.545 Y-62.444
X140.873 Y-62.3
X141.248 Y-62.097
X141.623 Y-61.854
X142.05 Y-61.525
X142.49 Y-61.127
X142.964 Y-60.622
X143.475 Y-59.983
X143.985 Y-59.227
X144.437 Y-58.435
X144.839 Y-57.617
X145.199 Y-56.779
X145.521 Y-55.926
X145.81 Y-55.061
X146.071 Y-54.187
X146.306 Y-53.306
X146.518 Y-52.42
X146.71 Y-51.528
X146.884 Y-50.633
X147.041 Y-49.735
X147.182 Y-48.834
X147.309 Y-47.931
X147.422 Y-47.026
X147.523 Y-46.12
X147.612 Y-45.213
X147.69 Y-44.304
X147.758 Y-43.395
X147.815 Y-42.485
X147.862 Y-41.574
X147.9 Y-40.663
X147.928 Y-39.752
X147.948 Y-38.84
X147.958 Y-37.929
X147.961 Y-37.017
X147.954 Y-36.105
X147.94 Y-35.193
X147.917 Y-34.282
X147.886 Y-33.37
X147.847 Y-32.459
X147.8 Y-31.549
X147.746 Y-30.639
X147.683 Y-29.729
X147.612 Y-28.82
X147.532 Y-27.912
X147.445 Y-27.004
X147.348 Y-26.097
X147.243 Y-25.192
X147.128 Y-24.287
X147.002 Y-23.384
X146.864 Y-22.483
X146.713 Y-21.584
X146.547 Y-20.687
X146.362 Y-19.794
X146.151 Y-18.907
X145.902 Y-18.03
X145.678 Y-17.42
X145.522 Y-17.083
X145.355 Y-16.806
X145.132 Y-16.572
X144.863 Y-16.392
X144.561 Y-16.274
X144.241 Y-16.225
X141.703 Y-16.115
G3 X141.1 Y-16.537 I-0.005 J-0.635
G1 X141.066 Y-16.63 Z-1.492
X141.034 Y-16.722 Z-1.469
X141.003 Y-16.808 Z-1.431
X140.974 Y-16.888 Z-1.379
X140.949 Y-16.96 Z-1.314
X140.927 Y-17.021 Z-1.238
X140.91 Y-17.07 Z-1.153
X140.897 Y-17.106 Z-1.061
X140.889 Y-17.128 Z-0.964
X140.887 Y-17.135 Z-0.865
G0 Z5
X138.134 Y-62.201
Z-0.23
G1 Z-0.865 F1000
X138.141 Y-62.205 Z-0.964
X138.161 Y-62.216 Z-1.061
X138.195 Y-62.234 Z-1.153
X138.241 Y-62.259 Z-1.238
X138.298 Y-62.289 Z-1.314
X138.364 Y-62.325 Z-1.379
X138.439 Y-62.365 Z-1.431
X138.52 Y-62.409 Z-1.469
X138.606 Y-62.455 Z-1.492
X138.693 Y-62.502 Z-1.5
G3 X139.456 Y-62.69 I0.749 J1.394
G1 X141.942 Y-62.583
X142.239 Y-62.555
X142.48 Y-62.513
X142.766 Y-62.439
X143.07 Y-62.333
X143.398 Y-62.189
X143.772 Y-61.987
X144.147 Y-61.744
X144.573 Y-61.416
X145.013 Y-61.018
X145.486 Y-60.514
X145.995 Y-59.877
X146.505 Y-59.121
X146.957 Y-58.329
X147.359 Y-57.51
X147.718 Y-56.672
X148.039 Y-55.819
X148.328 Y-54.954
X148.588 Y-54.08
X148.822 Y-53.199
X149.034 Y-52.312
X149.225 Y-51.42
X149.397 Y-50.525
X149.553 Y-49.626
X149.693 Y-48.725
X149.819 Y-47.822
X149.932 Y-46.918
X150.032 Y-46.011
X150.12 Y-45.104
X150.197 Y-44.195
X150.264 Y-43.286
X150.32 Y-42.376
X150.367 Y-41.465
X150.404 Y-40.554
X150.432 Y-39.643
X150.451 Y-38.731
X150.462 Y-37.819
X150.464 Y-36.907
X150.458 Y-35.996
X150.443 Y-35.084
X150.42 Y-34.172
X150.39 Y-33.261
X150.351 Y-32.35
X150.305 Y-31.44
X150.25 Y-30.529
X150.188 Y-29.62
X150.118 Y-28.711
X150.039 Y-27.802
X149.952 Y-26.895
X149.856 Y-25.988
X149.751 Y-25.082
X149.636 Y-24.177
X149.51 Y-23.274
X149.372 Y-22.373
X149.221 Y-21.474
X149.052 Y-20.578
X148.862 Y-19.686
X148.642 Y-18.801
X148.389 Y-17.962
X148.167 Y-17.396
X148.054 Y-17.165
X147.885 Y-16.896
X147.662 Y-16.67
X147.397 Y-16.496
X147.1 Y-16.383
X146.786 Y-16.335
X144.241 Y-16.225
G3 X143.638 Y-16.647 I-0.005 J-0.635
G1 X143.605 Y-16.74 Z-1.492
X143.572 Y-16.831 Z-1.469
X143.541 Y-16.918 Z-1.431
X143.513 Y-16.998 Z-1.379
X143.487 Y-17.07 Z-1.314
X143.465 Y-17.131 Z-1.238
X143.448 Y-17.18 Z-1.153
X143.435 Y-17.215 Z-1.061
X143.427 Y-17.237 Z-0.964
X143.425 Y-17.245 Z-0.865
G0 Z5
X140.62 Y-62.094
Z-0.23
G1 Z-0.865 F1000
X140.627 Y-62.097 Z-0.964
X140.648 Y-62.108 Z-1.061
X140.681 Y-62.126 Z-1.153
X140.727 Y-62.151 Z-1.238
X140.784 Y-62.182 Z-1.314
X140.851 Y-62.218 Z-1.379
X140.926 Y-62.258 Z-1.431
X141.007 Y-62.301 Z-1.469
X141.092 Y-62.347 Z-1.492
X141.18 Y-62.394 Z-1.5
G3 X141.942 Y-62.583 I0.749 J1.394
G1 X144.429 Y-62.475
X144.764 Y-62.444
X145.005 Y-62.402
X145.29 Y-62.327
X145.593 Y-62.222
X145.921 Y-62.078
X146.295 Y-61.876
X146.669 Y-61.633
X147.095 Y-61.306
X147.534 Y-60.908
X148.006 Y-60.406
X148.514 Y-59.77
X149.024 Y-59.014
X149.476 Y-58.222
X149.877 Y-57.403
X150.236 Y-56.565
X150.557 Y-55.711
X150.845 Y-54.846
X151.104 Y-53.972
X151.337 Y-53.091
X151.548 Y-52.203
X151.738 Y-51.312
X151.91 Y-50.416
X152.065 Y-49.518
X152.204 Y-48.617
X152.329 Y-47.713
X152.441 Y-46.808
X152.54 Y-45.902
X152.628 Y-44.994
X152.704 Y-44.086
X152.77 Y-43.176
X152.826 Y-42.266
X152.872 Y-41.356
X152.909 Y-40.445
X152.936 Y-39.533
X152.955 Y-38.622
X152.966 Y-37.71
X152.967 Y-36.798
X152.961 Y-35.886
X152.947 Y-34.974
X152.924 Y-34.063
X152.894 Y-33.152
X152.856 Y-32.241
X152.809 Y-31.33
X152.755 Y-30.42
X152.693 Y-29.51
X152.624 Y-28.601
X152.545 Y-27.692
X152.459 Y-26.785
X152.363 Y-25.878
X152.258 Y-24.972
X152.144 Y-24.068
X152.018 Y-23.165
X151.879 Y-22.263
X151.726 Y-21.365
X151.554 Y-20.469
X151.357 Y-19.579
X151.128 Y-18.696
X150.884 Y-17.937
X150.661 Y-17.395
X150.588 Y-17.252
X150.418 Y-16.991
X150.196 Y-16.77
X149.933 Y-16.601
X149.641 Y-16.491
X149.332 Y-16.445
X146.786 Y-16.335
G3 X146.183 Y-16.757 I-0.005 J-0.635
G1 X146.15 Y-16.85 Z-1.492
X146.117 Y-16.942 Z-1.469
X146.086 Y-17.028 Z-1.431
X146.058 Y-17.108 Z-1.379
X146.032 Y-17.18 Z-1.314
X146.01 Y-17.241 Z-1.238
X145.993 Y-17.29 Z-1.153
X145.98 Y-17.326 Z-1.061
X145.972 Y-17.348 Z-0.964
X145.97 Y-17.355 Z-0.865
G0 Z5
X143.107 Y-61.986
Z-0.23
G1 Z-0.865 F1000
X143.114 Y-61.99 Z-0.964
X143.134 Y-62.001 Z-1.061
X143.168 Y-62.019 Z-1.153
X143.214 Y-62.043 Z-1.238
X143.271 Y-62.074 Z-1.314
X143.338 Y-62.11 Z-1.379
X143.412 Y-62.15 Z-1.431
X143.493 Y-62.194 Z-1.469
X143.579 Y-62.24 Z-1.492
X143.666 Y-62.287 Z-1.5
G3 X144.429 Y-62.475 I0.749 J1.394
G1 X146.915 Y-62.368
X147.286 Y-62.333
X147.527 Y-62.291
X147.813 Y-62.217
X148.115 Y-62.112
X148.443 Y-61.967
X148.816 Y-61.766
X149.19 Y-61.523
X149.615 Y-61.196
X150.053 Y-60.799
X150.525 Y-60.298
X151.032 Y-59.663
X151.542 Y-58.907
X151.994 Y-58.115
X152.395 Y-57.296
X152.753 Y-56.457
X153.073 Y-55.604
X153.36 Y-54.738
X153.619 Y-53.864
X153.852 Y-52.982
X154.062 Y-52.095
X154.251 Y-51.203
X154.422 Y-50.307
X154.576 Y-49.409
X154.714 Y-48.508
X154.839 Y-47.604
X154.95 Y-46.699
X155.048 Y-45.793
X155.135 Y-44.885
X155.211 Y-43.976
X155.276 Y-43.067
X155.331 Y-42.157
X155.377 Y-41.246
X155.413 Y-40.335
X155.441 Y-39.424
X155.459 Y-38.512
X155.47 Y-37.6
X155.471 Y-36.688
X155.465 Y-35.777
X155.451 Y-34.865
X155.428 Y-33.953
X155.398 Y-33.042
X155.36 Y-32.131
X155.314 Y-31.22
X155.261 Y-30.31
X155.199 Y-29.4
X155.13 Y-28.491
X155.052 Y-27.583
X154.965 Y-26.675
X154.87 Y-25.768
X154.766 Y-24.862
X154.651 Y-23.958
X154.599 Y-23.591
X154.524 Y-23.288
X154.386 Y-23.007
X154.192 Y-22.761
X153.952 Y-22.562
X153.753 Y-22.43
X153.676 Y-22.377
X153.546 Y-22.274
X153.339 Y-22.094
X153.211 Y-21.963
X152.717 Y-21.426
X152.641 Y-21.341
X152.462 Y-21.134
X152.303 Y-20.924
X152.167 Y-20.72
X152.096 Y-20.591
X152.056 Y-20.512
X151.863 Y-20.098
X151.582 Y-19.476
X151.44 Y-19.062
X151.413 Y-18.958
X151.393 Y-18.855
X151.306 Y-18.233
X151.236 Y-17.612
X151.221 Y-17.404
X151.217 Y-17.094
X151.199 Y-16.99
X151.163 Y-16.887
X151.136 Y-16.835
X151.104 Y-16.783
X151.06 Y-16.727
X150.965 Y-16.638
X150.918 Y-16.604
X150.871 Y-16.576
X150.852 Y-16.566
X150.801 Y-16.543
X150.749 Y-16.525
X150.645 Y-16.504
X150.438 Y-16.493
X149.332 Y-16.445
G3 X148.729 Y-16.867 I-0.005 J-0.635
G1 X148.695 Y-16.96 Z-1.492
X148.663 Y-17.052 Z-1.469
X148.632 Y-17.138 Z-1.431
X148.603 Y-17.219 Z-1.379
X148.578 Y-17.29 Z-1.314
X148.556 Y-17.351 Z-1.238
X148.539 Y-17.4 Z-1.153
X148.526 Y-17.436 Z-1.061
X148.518 Y-17.458 Z-0.964
X148.516 Y-17.465 Z-0.865
G0 Z5
X145.594 Y-61.878
Z-0.23
G1 Z-0.865 F1000
X145.6 Y-61.882 Z-0.964
X145.621 Y-61.893 Z-1.061
X145.655 Y-61.911 Z-1.153
X145.7 Y-61.936 Z-1.238
X145.757 Y-61.967 Z-1.314
X145.824 Y-62.002 Z-1.379
X145.899 Y-62.043 Z-1.431
X145.98 Y-62.086 Z-1.469
