(trek_back_rack_plexy_outline_v1)
(T8 D=6.35 CR=0 - ZMIN=-7.9 - flat end mill)
G90 G94
G17
G21
G28 G91 Z0
G90

(2D Contour3)
T8
S18000 M3
G17 G90 G94
G54
G0 X235.954 Y-72.609
Z15
G0 Z5
G1 Z1 F16.7
Z-7.265
Y-72.601 Z-7.364 F50
X235.953 Y-72.578 Z-7.461
X235.951 Y-72.54 Z-7.553
X235.948 Y-72.488 Z-7.638
X235.945 Y-72.423 Z-7.714
X235.941 Y-72.348 Z-7.779
X235.937 Y-72.263 Z-7.831
X235.933 Y-72.171 Z-7.869
X235.928 Y-72.074 Z-7.892
X235.924 Y-71.975 Z-7.9
X235.893 Y-71.34
G3 X235.228 Y-70.737 I-0.634 J-0.03
G1 X198.298 Y-72.509
G2 X191.827 Y-66.393 I-0.296 J6.168
G1 X191.796 Y-62.597
X160.115 Y-64.124
X160.309 Y-68.151
G2 X154.439 Y-74.617 I-6.168 J-0.297
G1 X3.297 Y-81.901
G2 X-3.175 Y-75.733 I-0.297 J6.168
G1 Y-3
G2 X3.296 Y3.168 I6.175 J0
G1 X154.437 Y-4.092
G2 X160.309 Y-10.557 I-0.296 J-6.168
G1 X160.115 Y-14.584
X191.796 Y-16.111
X191.827 Y-12.315
G2 X198.298 Y-6.199 I6.175 J-0.051
G1 X235.268 Y-7.975
G2 X241.14 Y-14.438 I-0.296 J-6.168
G1 X241.107 Y-15.13
Y-64.569
G2 X235.228 Y-70.737 I-6.175 J0
G3 X234.625 Y-71.401 I0.03 J-0.634
G1 X234.655 Y-72.036
X234.66 Y-72.135 Z-7.892
X234.665 Y-72.232 Z-7.869
X234.669 Y-72.324 Z-7.831
X234.673 Y-72.408 Z-7.779
X234.677 Y-72.484 Z-7.714
X234.68 Y-72.549 Z-7.638
X234.682 Y-72.601 Z-7.553
X234.684 Y-72.639 Z-7.461
X234.685 Y-72.662 Z-7.364
X234.686 Y-72.67 Z-7.265
G0 Z15
G28 G91 Z0
G90
G28 G91 X0 Y0
G90
M5
M30
