(1001)
(T2  D=6.35 CR=0 TAPER=45deg - ZMIN=-1.092 - chamfer mill)
G90 G94
G17
G21
G28 G91 Z0
G90

(Engrave9)
T2
S5000 M3
G54
M8
G0 X17.616 Y-65.33
Z15
Z4
G1 Z-1.001 F1000
X17.691 Y-65.386 Z-1.068
X17.75 Y-65.31 Z-1.001
X17.691 Y-65.386 Z-1.068
X17.696 Y-65.439 Z-1.067
X17.722 Y-65.547
X17.765 Y-65.639
X17.82 Y-65.707 Z-1.065
X17.83 Y-65.716 Z-1.064
X17.903 Y-65.772
X17.914 Y-65.779 Z-1.063
X18.003 Y-65.817 Z-1.064
X18.024 Y-65.823 Z-1.063
X18.13 Y-65.844 Z-1.064
X18.245 Y-65.853 Z-1.061
X18.886 Y-65.855
X18.977 Y-65.853
X19.058 Y-65.848
X19.184 Y-65.827 Z-1.06
X19.289 Y-65.788 Z-1.061
X19.303 Y-65.781 Z-1.062
X19.382 Y-65.727 Z-1.064
X19.401 Y-65.709
X19.438 Y-65.666 Z-1.065
X19.457 Y-65.637
X19.484 Y-65.587 Z-1.064
X19.5 Y-65.545 Z-1.063
X19.515 Y-65.49
X19.522 Y-65.445
X19.526 Y-65.389 Z-1.064
Y-65.298 Z-1.066
X19.525 Y-65.237 Z-1.063
X19.52 Y-65.18 Z-1.064
X19.511 Y-65.135
X19.494 Y-65.079 Z-1.065
X19.475 Y-65.039
X19.447 Y-64.989 Z-1.067
X19.426 Y-64.962 Z-1.066
X19.391 Y-64.924 Z-1.065
X19.304 Y-64.861 Z-1.064
X19.202 Y-64.821 Z-1.063
X19.078 Y-64.797 Z-1.064
X18.976 Y-64.79 Z-1.063
X18.361 Y-64.788 Z-1.064
X18.32
X18.194 Y-64.782 Z-1.063
X18.063 Y-64.761 Z-1.062
X17.956 Y-64.722
X17.943 Y-64.716 Z-1.063
X17.864 Y-64.66 Z-1.066
X17.845 Y-64.642 Z-1.065
X17.807 Y-64.598 Z-1.067
X17.788 Y-64.569 Z-1.066
X17.761 Y-64.518
X17.745 Y-64.474 Z-1.064
X17.729 Y-64.419 Z-1.063
X17.724 Y-64.385
X17.72 Y-64.326
X17.719 Y-64.235 Z-1.065
X17.721 Y-64.179 Z-1.063
X17.726 Y-64.122
X17.736 Y-64.076
X17.752 Y-64.021 Z-1.064
X17.766 Y-63.989
X17.794 Y-63.938 Z-1.065
X17.815 Y-63.91
X17.853 Y-63.867 Z-1.064
X17.942 Y-63.803 Z-1.062
X18.045 Y-63.762 Z-1.061
X18.171 Y-63.738 Z-1.062
X18.271 Y-63.731 Z-1.06
X18.86 Y-63.729 Z-1.061
X18.904
X19.029 Y-63.736 Z-1.062
X19.067 Y-63.74 Z-1.064
X19.162 Y-63.759 Z-1.063
X19.194 Y-63.767 Z-1.065
X19.268 Y-63.799 Z-1.063
X19.282 Y-63.805
X19.354 Y-63.856
X19.366 Y-63.866
X19.421 Y-63.928 Z-1.065
X19.431 Y-63.942 Z-1.066
X19.47 Y-64.02 Z-1.067
X19.497 Y-64.123
X19.506 Y-64.198
X19.58 Y-64.254 Z-1.001
X19.506 Y-64.198 Z-1.067
X19.447 Y-64.273 Z-1.001
G0 Z5
X20.783 Y-65.914
Z4
G1 Z-1.001 F1000
X20.852 Y-65.845 Z-1.069
X20.92 Y-65.914 Z-1.001
X20.852 Y-65.845 Z-1.069
Y-64.847
X20.855 Y-64.816 Z-1.073
X20.866 Y-64.785 Z-1.083
X20.854 Y-64.752 Z-1.071
X20.85 Y-64.719 Z-1.067
Y-63.73
X20.916 Y-63.664 Z-1.001
X20.85 Y-63.73 Z-1.067
X20.783 Y-63.664 Z-1.001
X20.85 Y-63.73 Z-1.067
Y-64.719
X20.854 Y-64.752 Z-1.071
X20.866 Y-64.785 Z-1.083
X20.887 Y-64.784 Z-1.071
X20.901 Z-1.067
X22.633 Y-64.783 Z-1.064
X22.649 Z-1.066
X22.685 Z-1.083
X22.696 Y-64.751 Z-1.071
X22.7 Y-64.719 Z-1.067
Y-63.73
X22.766 Y-63.664 Z-1.001
X22.7 Y-63.73 Z-1.067
X22.633 Y-63.664 Z-1.001
X22.7 Y-63.73 Z-1.067
Y-64.719
X22.696 Y-64.751 Z-1.071
X22.685 Y-64.783 Z-1.083
X22.696 Y-64.815 Z-1.071
X22.7 Y-64.847 Z-1.067
Y-65.847
X22.633 Y-65.914 Z-1.001
X22.7 Y-65.847 Z-1.067
X22.766 Y-65.914 Z-1.001
G0 Z5
X23.983 Y-65.91
Z4
G1 Z-1.001 F1000
X24.059 Y-65.834 Z-1.076
X24.088 Y-65.845 Z-1.066
X24.117 Y-65.848 Z-1.063
X25.699
X25.761 Y-65.91 Z-1.001
X25.699 Y-65.848 Z-1.063
X25.761 Y-65.786 Z-1.001
X25.699 Y-65.848 Z-1.063
X24.117
X24.088 Y-65.845 Z-1.066
X24.059 Y-65.834 Z-1.076
X24.052 Y-65.81 Z-1.07
X24.05 Y-65.785 Z-1.067
Y-64.844
X24.054 Y-64.813 Z-1.071
X24.064 Y-64.781 Z-1.082
X24.087 Z-1.069
X24.101 Z-1.064
X25.595 Z-1.062
X25.645 Y-64.843 Z-1.001
X25.595 Y-64.781 Z-1.062
X25.669 Y-64.72 Z-1.001
X25.595 Y-64.781 Z-1.062
X24.101 Z-1.064
X24.087 Z-1.069
X24.064 Z-1.082
X24.054 Y-64.75 Z-1.071
X24.05 Y-64.719 Z-1.067
Y-63.788
X24.052 Y-63.763 Z-1.07
X24.059 Y-63.739 Z-1.076
X23.983 Y-63.664 Z-1.001
X24.059 Y-63.739 Z-1.076
X24.088 Y-63.729 Z-1.066
X24.117 Y-63.725 Z-1.062
X25.608
X25.669 Y-63.664 Z-1.001
X25.608 Y-63.725 Z-1.062
X25.669 Y-63.787 Z-1.001
G0 Z5
X26.866 Y-65.914
Z4
G1 Z-1.001 F1000
X26.932 Y-65.847 Z-1.067
X26.999 Y-65.914 Z-1.001
X26.932 Y-65.847 Z-1.067
X26.931 Y-65.128 Z-1.066
X26.935 Y-65.096 Z-1.07
X26.946 Y-65.064 Z-1.081
X26.936 Y-65.034 Z-1.071
X26.932 Y-65.003 Z-1.067
Y-63.784
X26.934 Y-63.761 Z-1.069
X26.94 Y-63.738 Z-1.075
X26.866 Y-63.664 Z-1.001
X26.94 Y-63.738 Z-1.075
X26.97 Y-63.727 Z-1.064
X27 Y-63.724 Z-1.06
X28.214 Y-63.725
X28.332 Y-63.734 Z-1.062
X28.432 Y-63.753 Z-1.06
X28.459 Y-63.761 Z-1.062
X28.542 Y-63.796 Z-1.061
X28.558 Y-63.806 Z-1.063
X28.63 Y-63.863
X28.638 Y-63.871 Z-1.064
X28.702 Y-63.953 Z-1.065
X28.746 Y-64.059 Z-1.066
X28.771 Y-64.19 Z-1.068
X28.776 Y-64.27
X28.778 Y-64.448
X28.775 Y-64.537 Z-1.069
X28.769 Y-64.612 Z-1.068
X28.758 Y-64.676 Z-1.066
X28.742 Y-64.745 Z-1.067
X28.701 Y-64.838 Z-1.066
X28.691 Y-64.853 Z-1.065
X28.632 Y-64.925 Z-1.064
X28.619 Y-64.936
X28.559 Y-64.982 Z-1.065
X28.529 Y-64.999 Z-1.063
X28.466 Y-65.025 Z-1.065
X28.422 Y-65.038 Z-1.062
X28.34 Y-65.053 Z-1.063
X28.262 Y-65.061 Z-1.062
X28.168 Y-65.065 Z-1.063
X28.146 Y-65.068 Z-1.065
X28.124 Y-65.074 Z-1.071
X28.09 Y-65.092 Z-1.089
X28.061 Y-65.078 Z-1.075
X28.033 Y-65.069 Z-1.066
X28.004 Y-65.065 Z-1.062
X27
X26.981 Z-1.065
X26.946 Y-65.064 Z-1.081
X26.981 Y-65.065 Z-1.065
X27 Z-1.062
X28.004
X28.033 Y-65.069 Z-1.066
X28.061 Y-65.078 Z-1.075
X28.09 Y-65.092 Z-1.089
X28.097 Y-65.121 Z-1.074
X28.108 Y-65.147 Z-1.066
X28.123 Y-65.169 Z-1.063
X28.717 Y-65.846 Z-1.068
X28.686 Y-65.914 Z-1.001
X28.717 Y-65.846 Z-1.068
X28.868 Y-65.914 Z-1
G0 Z5
X29.725
Z4
G1 Z-1.001 F1000
X29.83 Y-65.85 Z-1.064
X29.868 Y-65.914 Z-1.001
X29.83 Y-65.85 Z-1.064
X30.225 Y-65.098 Z-1.063
X30.237 Y-65.08 Z-1.065
X30.252 Y-65.063 Z-1.071
X30.271 Y-65.048 Z-1.08
X30.309 Y-65.062 Z-1.066
X30.338 Y-65.065 Z-1.062
X31.621
X31.651 Y-65.062 Z-1.066
X31.682 Y-65.05 Z-1.077
X31.69 Y-65.046 Z-1.082
X31.709 Y-65.062 Z-1.071
X31.725 Y-65.079 Z-1.065
X31.738 Y-65.098 Z-1.063
X32.13 Y-65.848 Z-1.066
X32.239 Y-65.914 Z-1.001
X32.13 Y-65.848 Z-1.066
X32.091 Y-65.914 Z-1.001
X32.13 Y-65.848 Z-1.066
X31.738 Y-65.098 Z-1.063
X31.725 Y-65.079 Z-1.065
X31.709 Y-65.062 Z-1.071
X31.69 Y-65.046 Z-1.082
X31.689 Y-65.02 Z-1.07
X31.684 Y-64.997 Z-1.064
X31.675 Y-64.975 Z-1.061
X31.031 Y-63.748 Z-1.059
X31.022 Y-63.733 Z-1.06
X31.011 Y-63.719 Z-1.064
X31.048 Y-63.657 Z-1.001
X31.011 Y-63.719 Z-1.064
X30.995 Y-63.716 Z-1.061
X30.979 Y-63.715 Z-1.059
X30.952 Y-63.718 Z-1.063
X30.915 Y-63.657 Z-1.001
X30.952 Y-63.718 Z-1.063
X30.939 Y-63.733 Z-1.058
X30.286 Y-64.976 Z-1.059
X30.277 Y-64.998 Z-1.062
X30.272 Y-65.022 Z-1.069
X30.271 Y-65.048 Z-1.08
G0 Z5
X33.035 Y-65.914
Z4
G1 Z-1.001 F1000
X33.116 Y-65.833 Z-1.081
X33.139 Y-65.843 Z-1.071
X33.161 Y-65.85 Z-1.065
X33.184 Y-65.852 Z-1.063
X34.727
X34.789 Y-65.914 Z-1.001
X34.727 Y-65.852 Z-1.063
X34.789 Y-65.79 Z-1.001
X34.727 Y-65.852 Z-1.063
X33.184
X33.161 Y-65.85 Z-1.065
X33.139 Y-65.843 Z-1.071
X33.116 Y-65.833 Z-1.081
X33.112 Y-65.816 Z-1.077
X33.036 Y-65.789 Z-1.001
X33.112 Y-65.816 Z-1.077
X33.117 Y-65.792 Z-1.067
X33.126 Y-65.771 Z-1.06
X33.138 Y-65.753 Z-1.058
X34.683 Y-63.824
X34.695 Y-63.806 Z-1.06
X34.704 Y-63.784 Z-1.067
X34.71 Y-63.761 Z-1.077
X34.786 Y-63.787 Z-1.001
X34.71 Y-63.761 Z-1.077
X34.706 Y-63.744 Z-1.081
X34.786 Y-63.664 Z-1.001
X34.706 Y-63.744 Z-1.081
X34.683 Y-63.734 Z-1.071
X34.66 Y-63.727 Z-1.064
X34.638 Y-63.725 Z-1.062
X33.129
X33.077 Y-63.664 Z-1.001
X33.129 Y-63.725 Z-1.062
X33.056 Y-63.787 Z-1.001
G0 Z5
X35.782 Y-65.914
Z4
G1 Z-1.001 F1000
X35.873 Y-65.823 Z-1.092
X35.964 Y-65.914 Z-1.001
X35.873 Y-65.823 Z-1.092
Y-65.78
X35.782 Y-65.689 Z-1.001
X35.873 Y-65.78 Z-1.092
X35.964 Y-65.689 Z-1.001
G0 Z5
X38.888 Y-64.273
Z4
G1 Z-1.001 F1000
X38.947 Y-64.195 Z-1.067
X39.021 Y-64.25 Z-1.001
X38.947 Y-64.195 Z-1.067
X38.936 Y-64.119
X38.909 Y-64.017
X38.862 Y-63.928 Z-1.065
X38.808 Y-63.866 Z-1.064
X38.796 Y-63.856
X38.726 Y-63.804 Z-1.065
X38.712 Y-63.797 Z-1.064
X38.634 Y-63.765 Z-1.067
X38.604 Y-63.757 Z-1.065
X38.508 Y-63.738 Z-1.066
X38.471 Y-63.734 Z-1.064
X38.345 Y-63.727
X38.301 Y-63.726 Z-1.063
X37.671 Y-63.728
X37.59 Y-63.733
X37.554 Y-63.737 Z-1.065
X37.454 Y-63.756 Z-1.064
X37.427 Y-63.764 Z-1.066
X37.344 Y-63.8 Z-1.065
X37.328 Y-63.809 Z-1.066
X37.254 Y-63.866 Z-1.065
X37.247 Y-63.873 Z-1.066
X37.182 Y-63.955
X37.139 Y-64.06
X37.125 Y-64.123
X37.115 Y-64.194 Z-1.067
X37.11 Y-64.275
X37.108 Y-64.366
X37.11 Y-65.326 Z-1.068
X37.116 Y-65.401 Z-1.067
X37.143 Y-65.534 Z-1.065
X37.183 Y-65.628 Z-1.064
X37.194 Y-65.643 Z-1.063
X37.255 Y-65.717 Z-1.062
X37.267 Y-65.727
X37.326 Y-65.771 Z-1.063
X37.36 Y-65.79 Z-1.06
X37.426 Y-65.817 Z-1.062
X37.467 Y-65.829 Z-1.059
X37.554 Y-65.844 Z-1.061
X37.596 Y-65.849 Z-1.059
X37.718 Y-65.855 Z-1.06
X37.762 Z-1.059
X38.392 Y-65.853
X38.509 Y-65.844 Z-1.061
X38.611 Y-65.825 Z-1.059
X38.635 Y-65.818 Z-1.061
X38.72 Y-65.781 Z-1.06
X38.734 Y-65.773 Z-1.062
X38.806 Y-65.717 Z-1.061
X38.816 Y-65.707 Z-1.063
X38.874 Y-65.637 Z-1.064
X38.916 Y-65.546
X38.941 Y-65.441 Z-1.065
X38.947 Y-65.385 Z-1.066
X39.021 Y-65.328 Z-1.001
X38.947 Y-65.385 Z-1.066
X38.888 Y-65.312 Z-1.001
G0 Z5
X39.85 Y-65.914
Z4
G1 Z-1.001 F1000
X39.955 Y-65.85 Z-1.064
X39.993 Y-65.914 Z-1.001
X39.955 Y-65.85 Z-1.064
X40.35 Y-65.098 Z-1.063
X40.363 Y-65.079 Z-1.065
X40.379 Y-65.062 Z-1.071
X40.398 Y-65.047 Z-1.081
X40.436 Y-65.062 Z-1.066
X40.466 Y-65.065 Z-1.062
X41.749
X41.779 Y-65.062 Z-1.066
X41.81 Y-65.05 Z-1.077
X41.818 Y-65.046 Z-1.082
X41.838 Y-65.062 Z-1.071
X41.854 Y-65.079 Z-1.065
X41.866 Y-65.098 Z-1.063
X42.26 Y-65.849 Z-1.066
X42.221 Y-65.914 Z-1.001
X42.26 Y-65.849 Z-1.066
X42.369 Y-65.914 Z-1.001
X42.26 Y-65.849 Z-1.066
X41.866 Y-65.098 Z-1.063
X41.854 Y-65.079 Z-1.065
X41.838 Y-65.062 Z-1.071
X41.818 Y-65.046 Z-1.082
X41.817 Y-65.02 Z-1.07
X41.812 Y-64.997 Z-1.064
X41.803 Y-64.975 Z-1.061
X41.149 Y-63.733 Z-1.059
X41.136 Y-63.719 Z-1.063
X41.174 Y-63.657 Z-1.001
X41.136 Y-63.719 Z-1.063
X41.107 Y-63.715 Z-1.059
X41.078 Y-63.719 Z-1.063
X41.04 Y-63.657 Z-1.001
X41.078 Y-63.719 Z-1.063
X41.066 Y-63.733 Z-1.059
X40.413 Y-64.975 Z-1.061
X40.404 Y-64.997 Z-1.063
X40.399 Y-65.021 Z-1.07
X40.398 Y-65.047 Z-1.081
G0 Z15
M9
G28 G91 Z0
G90
G28 G91 X0 Y0
G90
M5
M30
