(1001)
(T2  D=6.35 CR=0 TAPER=45deg - ZMIN=-1.092 - chamfer mill)
G90 G94
G17
G21
G28 G91 Z0
G90

(Engrave9)
T2
S5000 M3
G54
M8
G0 X17.616 Y-68.707
Z15
Z4
G1 Z-1.001 F300
X17.691 Y-68.763 Z-1.068
X17.75 Y-68.687 Z-1.001
X17.691 Y-68.763 Z-1.068
X17.696 Y-68.816 Z-1.067
X17.722 Y-68.924
X17.765 Y-69.016
X17.82 Y-69.084 Z-1.065
X17.83 Y-69.093 Z-1.064
X17.903 Y-69.149
X17.914 Y-69.155 Z-1.063
X18.003 Y-69.194 Z-1.064
X18.023 Y-69.2 Z-1.063
X18.13 Y-69.221 Z-1.064
X18.245 Y-69.23 Z-1.061
X18.886 Y-69.232
X18.976 Y-69.23
X19.058 Y-69.225
X19.184 Y-69.204 Z-1.06
X19.289 Y-69.165 Z-1.061
X19.303 Y-69.158 Z-1.062
X19.382 Y-69.104 Z-1.064
X19.401 Y-69.086
X19.438 Y-69.043 Z-1.065
X19.457 Y-69.014
X19.484 Y-68.964 Z-1.064
X19.5 Y-68.922 Z-1.063
X19.515 Y-68.867
X19.522 Y-68.822
X19.526 Y-68.766 Z-1.064
Y-68.675 Z-1.066
X19.525 Y-68.614 Z-1.063
X19.52 Y-68.557 Z-1.064
X19.511 Y-68.512
X19.494 Y-68.456 Z-1.065
X19.475 Y-68.416
X19.447 Y-68.366 Z-1.067
X19.426 Y-68.339 Z-1.066
X19.391 Y-68.301 Z-1.065
X19.304 Y-68.238 Z-1.064
X19.202 Y-68.198 Z-1.063
X19.078 Y-68.174 Z-1.064
X18.976 Y-68.167 Z-1.063
X18.361 Y-68.165 Z-1.064
X18.32
X18.193 Y-68.159 Z-1.063
X18.063 Y-68.138 Z-1.062
X17.956 Y-68.099
X17.943 Y-68.093 Z-1.063
X17.864 Y-68.037 Z-1.066
X17.845 Y-68.019 Z-1.065
X17.807 Y-67.975 Z-1.067
X17.788 Y-67.946 Z-1.066
X17.761 Y-67.895
X17.745 Y-67.851 Z-1.064
X17.729 Y-67.796 Z-1.063
X17.724 Y-67.762
X17.72 Y-67.703
X17.719 Y-67.612 Z-1.065
X17.721 Y-67.556 Z-1.063
X17.726 Y-67.498
X17.736 Y-67.453
X17.752 Y-67.398 Z-1.064
X17.766 Y-67.366
X17.794 Y-67.315 Z-1.065
X17.815 Y-67.287
X17.853 Y-67.244 Z-1.064
X17.942 Y-67.18 Z-1.062
X18.045 Y-67.139 Z-1.061
X18.171 Y-67.115 Z-1.062
X18.271 Y-67.108 Z-1.06
X18.86 Y-67.106 Z-1.061
X18.904
X19.029 Y-67.113
X19.067 Y-67.117 Z-1.064
X19.162 Y-67.135 Z-1.063
X19.194 Y-67.144 Z-1.065
X19.268 Y-67.176 Z-1.063
X19.282 Y-67.182
X19.354 Y-67.233
X19.366 Y-67.243
X19.421 Y-67.305 Z-1.065
X19.431 Y-67.319 Z-1.066
X19.47 Y-67.397 Z-1.067
X19.497 Y-67.499
X19.506 Y-67.575
X19.58 Y-67.631 Z-1.001
X19.506 Y-67.575 Z-1.067
X19.447 Y-67.65 Z-1.001
G0 Z5
X20.783 Y-69.291
Z4
G1 Z-1.001 F300
X20.852 Y-69.222 Z-1.069
X20.92 Y-69.291 Z-1.001
X20.852 Y-69.222 Z-1.069
Y-68.224
X20.855 Y-68.193 Z-1.073
X20.866 Y-68.162 Z-1.083
X20.854 Y-68.129 Z-1.071
X20.85 Y-68.096 Z-1.067
Y-67.107
X20.783 Y-67.041 Z-1.001
X20.85 Y-67.107 Z-1.067
X20.916 Y-67.041 Z-1.001
X20.85 Y-67.107 Z-1.067
Y-68.096
X20.854 Y-68.129 Z-1.071
X20.866 Y-68.162 Z-1.083
X20.887 Y-68.161 Z-1.071
X20.901 Z-1.067
X22.633 Y-68.16 Z-1.064
X22.649 Z-1.066
X22.685 Z-1.083
X22.696 Y-68.128 Z-1.071
X22.7 Y-68.096 Z-1.067
Y-67.107
X22.633 Y-67.041 Z-1.001
X22.7 Y-67.107 Z-1.067
X22.766 Y-67.041 Z-1.001
X22.7 Y-67.107 Z-1.067
Y-68.096
X22.696 Y-68.128 Z-1.071
X22.685 Y-68.16 Z-1.083
X22.696 Y-68.192 Z-1.071
X22.7 Y-68.224 Z-1.067
Y-69.224
X22.633 Y-69.291 Z-1.001
X22.7 Y-69.224 Z-1.067
X22.766 Y-69.291 Z-1.001
G0 Z5
X23.983 Y-69.287
Z4
G1 Z-1.001 F300
X24.059 Y-69.211 Z-1.076
X24.088 Y-69.222 Z-1.066
X24.117 Y-69.225 Z-1.063
X25.699
X25.761 Y-69.287 Z-1.001
X25.699 Y-69.225 Z-1.063
X25.761 Y-69.163 Z-1.001
X25.699 Y-69.225 Z-1.063
X24.117
X24.088 Y-69.222 Z-1.066
X24.059 Y-69.211 Z-1.076
X24.052 Y-69.187 Z-1.07
X24.05 Y-69.162 Z-1.067
Y-68.221
X24.054 Y-68.19 Z-1.071
X24.064 Y-68.158 Z-1.082
X24.101 Z-1.064
X24.117 Z-1.062
X25.594
X25.669 Y-68.097 Z-1.001
X25.594 Y-68.158 Z-1.062
X25.645 Y-68.22 Z-1.001
X25.594 Y-68.158 Z-1.062
X24.117
X24.101 Z-1.064
X24.064 Z-1.082
X24.054 Y-68.127 Z-1.071
X24.05 Y-68.096 Z-1.067
Y-67.165
X24.052 Y-67.14 Z-1.07
X24.059 Y-67.116 Z-1.076
X23.983 Y-67.041 Z-1.001
X24.059 Y-67.116 Z-1.076
X24.088 Y-67.106 Z-1.066
X24.117 Y-67.102 Z-1.062
X25.608
X25.669 Y-67.164 Z-1.001
X25.608 Y-67.102 Z-1.062
X25.669 Y-67.041 Z-1.001
G0 Z5
X26.866 Y-69.291
Z4
G1 Z-1.001 F300
X26.932 Y-69.224 Z-1.067
X26.999 Y-69.291 Z-1.001
X26.932 Y-69.224 Z-1.067
X26.931 Y-68.505 Z-1.066
X26.935 Y-68.473 Z-1.07
X26.946 Y-68.441 Z-1.081
X26.936 Y-68.411 Z-1.071
X26.932 Y-68.38 Z-1.067
Y-67.161
X26.934 Y-67.138 Z-1.069
X26.94 Y-67.115 Z-1.075
X26.866 Y-67.041 Z-1.001
X26.94 Y-67.115 Z-1.075
X26.97 Y-67.104 Z-1.064
X27 Y-67.101 Z-1.06
X28.124
X28.169 Z-1.061
X28.29 Y-67.107 Z-1.06
X28.332 Y-67.111 Z-1.062
X28.42 Y-67.127 Z-1.06
X28.459 Y-67.138 Z-1.062
X28.527 Y-67.166 Z-1.06
X28.558 Y-67.183 Z-1.063
X28.619 Y-67.229 Z-1.062
X28.63 Y-67.24 Z-1.063
X28.691 Y-67.314 Z-1.064
X28.701 Y-67.328 Z-1.065
X28.742 Y-67.422 Z-1.066
X28.769 Y-67.556 Z-1.068
X28.776 Y-67.631
X28.778 Y-67.72
X28.776 Y-67.895
X28.77 Y-67.976
X28.759 Y-68.047 Z-1.066
X28.745 Y-68.111 Z-1.067
X28.701 Y-68.215 Z-1.066
X28.637 Y-68.296 Z-1.065
X28.632 Y-68.302 Z-1.064
X28.559 Y-68.359 Z-1.065
X28.544 Y-68.368 Z-1.063
X28.466 Y-68.402 Z-1.065
X28.434 Y-68.412 Z-1.062
X28.34 Y-68.43 Z-1.063
X28.291 Y-68.436 Z-1.062
X28.168 Y-68.442 Z-1.063
X28.147 Y-68.445 Z-1.065
X28.125 Y-68.451 Z-1.071
X28.09 Y-68.469 Z-1.088
X28.061 Y-68.455 Z-1.075
X28.033 Y-68.446 Z-1.065
X28.004 Y-68.442 Z-1.062
X27
X26.981 Z-1.065
X26.946 Y-68.441 Z-1.081
X26.981 Y-68.442 Z-1.065
X27 Z-1.062
X28.004
X28.033 Y-68.446 Z-1.065
X28.061 Y-68.455 Z-1.075
X28.09 Y-68.469 Z-1.088
X28.097 Y-68.498 Z-1.074
X28.108 Y-68.524 Z-1.066
X28.123 Y-68.546 Z-1.063
X28.717 Y-69.223 Z-1.068
X28.686 Y-69.291 Z-1.001
X28.717 Y-69.223 Z-1.068
X28.868 Y-69.291 Z-1
G0 Z5
X29.725
Z4
G1 Z-1.001 F300
X29.83 Y-69.227 Z-1.064
X29.868 Y-69.291 Z-1.001
X29.83 Y-69.227 Z-1.064
X30.225 Y-68.475 Z-1.063
X30.237 Y-68.457 Z-1.065
X30.252 Y-68.44 Z-1.071
X30.271 Y-68.425 Z-1.08
X30.272 Y-68.399 Z-1.069
X30.277 Y-68.375 Z-1.062
X30.286 Y-68.353 Z-1.059
X30.939 Y-67.11 Z-1.058
X30.952 Y-67.095 Z-1.063
X30.915 Y-67.034 Z-1.001
X30.952 Y-67.095 Z-1.063
X30.979 Y-67.092 Z-1.059
X30.995 Y-67.093 Z-1.061
X31.011 Y-67.096 Z-1.064
X31.048 Y-67.034 Z-1.001
X31.011 Y-67.096 Z-1.064
X31.022 Y-67.11 Z-1.06
X31.031 Y-67.125 Z-1.059
X31.675 Y-68.352 Z-1.061
X31.684 Y-68.374 Z-1.064
X31.689 Y-68.397 Z-1.07
X31.69 Y-68.423 Z-1.082
X31.709 Y-68.439 Z-1.071
X31.725 Y-68.456 Z-1.065
X31.738 Y-68.475 Z-1.063
X32.13 Y-69.225 Z-1.066
X32.239 Y-69.291 Z-1.001
X32.13 Y-69.225 Z-1.066
X32.091 Y-69.291 Z-1.001
X32.13 Y-69.225 Z-1.066
X31.738 Y-68.475 Z-1.063
X31.725 Y-68.456 Z-1.065
X31.709 Y-68.439 Z-1.071
X31.69 Y-68.423 Z-1.082
X31.682 Y-68.427 Z-1.077
X31.651 Y-68.439 Z-1.066
X31.621 Y-68.442 Z-1.062
X30.338
X30.309 Y-68.439 Z-1.066
X30.271 Y-68.425 Z-1.08
G0 Z5
X33.035 Y-69.291
Z4
G1 Z-1.001 F300
X33.116 Y-69.21 Z-1.081
X33.139 Y-69.22 Z-1.071
X33.161 Y-69.227 Z-1.065
X33.184 Y-69.229 Z-1.063
X34.727
X34.789 Y-69.291 Z-1.001
X34.727 Y-69.229 Z-1.063
X34.789 Y-69.167 Z-1.001
X34.727 Y-69.229 Z-1.063
X33.184
X33.161 Y-69.227 Z-1.065
X33.139 Y-69.22 Z-1.071
X33.116 Y-69.21 Z-1.081
X33.112 Y-69.193 Z-1.077
X33.036 Y-69.166 Z-1.001
X33.112 Y-69.193 Z-1.077
X33.117 Y-69.169 Z-1.067
X33.126 Y-69.148 Z-1.06
X33.138 Y-69.13 Z-1.058
X34.683 Y-67.201
X34.695 Y-67.182 Z-1.06
X34.704 Y-67.161 Z-1.067
X34.71 Y-67.138 Z-1.077
X34.786 Y-67.164 Z-1.001
X34.71 Y-67.138 Z-1.077
X34.706 Y-67.121 Z-1.081
X34.786 Y-67.041 Z-1.001
X34.706 Y-67.121 Z-1.081
X34.683 Y-67.111 Z-1.071
X34.66 Y-67.104 Z-1.064
X34.638 Y-67.102 Z-1.062
X33.129
X33.077 Y-67.041 Z-1.001
X33.129 Y-67.102 Z-1.062
X33.056 Y-67.164 Z-1.001
G0 Z5
X35.782 Y-69.291
Z4
G1 Z-1.001 F300
X35.873 Y-69.2 Z-1.092
X35.964 Y-69.291 Z-1.001
X35.873 Y-69.2 Z-1.092
Y-69.157
X35.782 Y-69.066 Z-1.001
X35.873 Y-69.157 Z-1.092
X35.964 Y-69.066 Z-1.001
G0 Z5
X38.888 Y-67.65
Z4
G1 Z-1.001 F300
X38.947 Y-67.572 Z-1.067
X39.021 Y-67.627 Z-1.001
X38.947 Y-67.572 Z-1.067
X38.94 Y-67.518 Z-1.066
X38.914 Y-67.41
X38.871 Y-67.319
X38.814 Y-67.249 Z-1.065
X38.808 Y-67.243 Z-1.064
X38.732 Y-67.185 Z-1.066
X38.634 Y-67.142 Z-1.067
X38.616 Y-67.136 Z-1.065
X38.508 Y-67.115 Z-1.066
X38.394 Y-67.106 Z-1.063
X37.762 Y-67.103
X37.718 Y-67.104 Z-1.064
X37.596 Y-67.11 Z-1.063
X37.554 Y-67.114 Z-1.065
X37.467 Y-67.13 Z-1.063
X37.427 Y-67.141 Z-1.066
X37.359 Y-67.169 Z-1.064
X37.328 Y-67.186 Z-1.066
X37.266 Y-67.232 Z-1.065
X37.254 Y-67.243
X37.193 Y-67.316
X37.183 Y-67.329 Z-1.066
X37.142 Y-67.425 Z-1.067
X37.126 Y-67.495 Z-1.066
X37.117 Y-67.554 Z-1.068
X37.111 Y-67.629
X37.108 Y-68.596 Z-1.067
X37.11 Y-68.686
X37.115 Y-68.766
X37.138 Y-68.897 Z-1.065
X37.182 Y-69.003
X37.245 Y-69.084 Z-1.064
X37.255 Y-69.094 Z-1.063
X37.326 Y-69.149
X37.346 Y-69.16 Z-1.061
X37.426 Y-69.194 Z-1.062
X37.455 Y-69.203 Z-1.059
X37.554 Y-69.221 Z-1.061
X37.59 Y-69.225 Z-1.059
X37.672 Y-69.23
X38.301 Y-69.232 Z-1.06
X38.345 Y-69.231
X38.469 Y-69.225 Z-1.059
X38.509 Y-69.221 Z-1.061
X38.599 Y-69.205 Z-1.059
X38.635 Y-69.194 Z-1.061
X38.706 Y-69.165 Z-1.059
X38.734 Y-69.15 Z-1.062
X38.795 Y-69.103 Z-1.061
X38.806 Y-69.094
X38.864 Y-69.027 Z-1.063
X38.911 Y-68.939 Z-1.065
X38.938 Y-68.836 Z-1.066
X38.947 Y-68.762
X39.021 Y-68.705 Z-1.001
X38.947 Y-68.762 Z-1.066
X38.888 Y-68.689 Z-1.001
G0 Z5
X39.85 Y-69.291
Z4
G1 Z-1.001 F300
X39.955 Y-69.227 Z-1.064
X39.993 Y-69.291 Z-1.001
X39.955 Y-69.227 Z-1.064
X40.35 Y-68.475 Z-1.063
X40.363 Y-68.456 Z-1.065
X40.379 Y-68.439 Z-1.071
X40.398 Y-68.424 Z-1.081
X40.406 Y-68.428 Z-1.077
X40.436 Y-68.439 Z-1.066
X40.466 Y-68.442 Z-1.062
X41.749
X41.779 Y-68.439 Z-1.066
X41.818 Y-68.423 Z-1.082
X41.838 Y-68.439 Z-1.071
X41.854 Y-68.456 Z-1.065
X41.866 Y-68.475 Z-1.063
X42.26 Y-69.226 Z-1.066
X42.369 Y-69.291 Z-1.001
X42.26 Y-69.226 Z-1.066
X42.221 Y-69.291 Z-1.001
X42.26 Y-69.226 Z-1.066
X41.866 Y-68.475 Z-1.063
X41.854 Y-68.456 Z-1.065
X41.838 Y-68.439 Z-1.071
X41.818 Y-68.423 Z-1.082
X41.817 Y-68.397 Z-1.07
X41.812 Y-68.374 Z-1.064
X41.803 Y-68.352 Z-1.061
X41.149 Y-67.11 Z-1.059
X41.136 Y-67.096 Z-1.063
X41.174 Y-67.034 Z-1.001
X41.136 Y-67.096 Z-1.063
X41.107 Y-67.092 Z-1.059
X41.078 Y-67.096 Z-1.063
X41.04 Y-67.034 Z-1.001
X41.078 Y-67.096 Z-1.063
X41.066 Y-67.11 Z-1.059
X40.413 Y-68.352 Z-1.061
X40.404 Y-68.374 Z-1.063
X40.399 Y-68.398 Z-1.07
X40.398 Y-68.424 Z-1.081
G0 Z15
M9
G28 G91 Z0
G90
G28 G91 X0 Y0
G90
M5
M30
