(1001)
(T2  D=6.35 CR=0 TAPER=45deg - ZMIN=-1.092 - chamfer mill)
G90 G94
G17
G21
G28 G91 Z0
G90

(Engrave9)
T2
S5000 M3
G54
M8
G0 X17.616 Y-65.33
Z15
Z4
G1 Z-1.001 F1000
X17.691 Y-65.386 Z-1.068
X17.75 Y-65.31 Z-1.001
X17.691 Y-65.386 Z-1.068
X17.7 Y-65.461
X17.727 Y-65.563
X17.765 Y-65.64 Z-1.067
X17.774 Y-65.652 Z-1.066
X17.83 Y-65.716 Z-1.064
X17.842 Y-65.727 Z-1.063
X17.914 Y-65.779
X17.929 Y-65.786 Z-1.062
X18.003 Y-65.817 Z-1.064
X18.035 Y-65.826 Z-1.062
X18.13 Y-65.844 Z-1.064
X18.168 Y-65.848 Z-1.062
X18.292 Y-65.854
X18.337 Y-65.855 Z-1.061
X18.977 Y-65.853
X19.078 Y-65.846 Z-1.062
X19.203 Y-65.822
X19.304 Y-65.781
X19.394 Y-65.716 Z-1.064
X19.432 Y-65.673
X19.452 Y-65.646 Z-1.065
X19.479 Y-65.596 Z-1.064
X19.493 Y-65.565
X19.51 Y-65.51 Z-1.063
X19.52 Y-65.466 Z-1.064
X19.525 Y-65.409 Z-1.063
X19.526 Y-65.349 Z-1.066
Y-65.253 Z-1.064
X19.522 Y-65.201 Z-1.063
X19.516 Y-65.156 Z-1.064
X19.501 Y-65.101
X19.485 Y-65.058 Z-1.066
X19.458 Y-65.008
X19.439 Y-64.979 Z-1.067
X19.402 Y-64.936 Z-1.065
X19.383 Y-64.916 Z-1.066
X19.304 Y-64.861 Z-1.064
X19.289 Y-64.854 Z-1.063
X19.183 Y-64.816 Z-1.062
X19.058 Y-64.795 Z-1.063
X18.976 Y-64.79
X18.886 Y-64.788 Z-1.064
X18.27 Y-64.786 Z-1.063
X18.171 Y-64.78 Z-1.064
X18.045 Y-64.756 Z-1.062
X17.94 Y-64.714 Z-1.063
X17.853 Y-64.65 Z-1.066
X17.814 Y-64.606
X17.799 Y-64.587 Z-1.067
X17.771 Y-64.537 Z-1.065
X17.752 Y-64.496
X17.735 Y-64.44 Z-1.063
X17.725 Y-64.395
X17.72 Y-64.337 Z-1.062
X17.719 Y-64.276 Z-1.065
X17.72 Y-64.191 Z-1.063
X17.725 Y-64.132
X17.73 Y-64.097
X17.746 Y-64.042
X17.762 Y-63.998 Z-1.065
X17.789 Y-63.947
X17.808 Y-63.918
X17.846 Y-63.874 Z-1.064
X17.866 Y-63.856
X17.945 Y-63.802 Z-1.062
X17.959 Y-63.795 Z-1.061
X18.064 Y-63.757 Z-1.06
X18.189 Y-63.736 Z-1.061
X18.271 Y-63.731 Z-1.06
X18.361 Y-63.729 Z-1.061
X18.952 Y-63.731
X19.067 Y-63.74 Z-1.064
X19.173 Y-63.761 Z-1.063
X19.194 Y-63.767 Z-1.065
X19.282 Y-63.805 Z-1.063
X19.294 Y-63.812 Z-1.065
X19.366 Y-63.866 Z-1.063
X19.377 Y-63.877 Z-1.065
X19.432 Y-63.944 Z-1.066
X19.474 Y-64.033
X19.5 Y-64.141 Z-1.067
X19.506 Y-64.198
X19.58 Y-64.254 Z-1.001
X19.506 Y-64.198 Z-1.067
X19.447 Y-64.273 Z-1.001
G0 Z5
X20.783 Y-65.914
Z4
G1 Z-1.001 F1000
X20.852 Y-65.845 Z-1.069
X20.92 Y-65.914 Z-1.001
X20.852 Y-65.845 Z-1.069
Y-64.847
X20.855 Y-64.816 Z-1.073
X20.866 Y-64.785 Z-1.083
X20.854 Y-64.752 Z-1.071
X20.85 Y-64.719 Z-1.067
Y-63.73
X20.916 Y-63.664 Z-1.001
X20.85 Y-63.73 Z-1.067
X20.783 Y-63.664 Z-1.001
X20.85 Y-63.73 Z-1.067
Y-64.719
X20.854 Y-64.752 Z-1.071
X20.866 Y-64.785 Z-1.083
X20.887 Y-64.784 Z-1.071
X20.901 Z-1.067
X22.633 Y-64.783 Z-1.064
X22.649 Z-1.066
X22.685 Z-1.083
X22.696 Y-64.751 Z-1.071
X22.7 Y-64.719 Z-1.067
Y-63.73
X22.633 Y-63.664 Z-1.001
X22.7 Y-63.73 Z-1.067
X22.766 Y-63.664 Z-1.001
X22.7 Y-63.73 Z-1.067
Y-64.719
X22.696 Y-64.751 Z-1.071
X22.685 Y-64.783 Z-1.083
X22.696 Y-64.815 Z-1.071
X22.7 Y-64.847 Z-1.067
Y-65.847
X22.633 Y-65.914 Z-1.001
X22.7 Y-65.847 Z-1.067
X22.766 Y-65.914 Z-1.001
G0 Z5
X23.983 Y-65.91
Z4
G1 Z-1.001 F1000
X24.059 Y-65.834 Z-1.076
X24.088 Y-65.845 Z-1.066
X24.117 Y-65.848 Z-1.063
X25.699
X25.761 Y-65.91 Z-1.001
X25.699 Y-65.848 Z-1.063
X25.761 Y-65.786 Z-1.001
X25.699 Y-65.848 Z-1.063
X24.117
X24.088 Y-65.845 Z-1.066
X24.059 Y-65.834 Z-1.076
X24.052 Y-65.81 Z-1.07
X24.05 Y-65.785 Z-1.067
Y-64.844
X24.054 Y-64.813 Z-1.071
X24.064 Y-64.781 Z-1.082
X24.101 Z-1.064
X24.117 Z-1.062
X25.595
X25.645 Y-64.843 Z-1.001
X25.595 Y-64.781 Z-1.062
X25.669 Y-64.72 Z-1.001
X25.595 Y-64.781 Z-1.062
X24.117
X24.101 Z-1.064
X24.064 Z-1.082
X24.054 Y-64.75 Z-1.071
X24.05 Y-64.719 Z-1.067
Y-63.788
X24.052 Y-63.763 Z-1.07
X24.059 Y-63.739 Z-1.076
X23.983 Y-63.664 Z-1.001
X24.059 Y-63.739 Z-1.076
X24.088 Y-63.729 Z-1.066
X24.117 Y-63.725 Z-1.062
X25.608
X25.669 Y-63.664 Z-1.001
X25.608 Y-63.725 Z-1.062
X25.669 Y-63.787 Z-1.001
G0 Z5
X26.866 Y-65.914
Z4
G1 Z-1.001 F1000
X26.932 Y-65.847 Z-1.067
X26.999 Y-65.914 Z-1.001
X26.932 Y-65.847 Z-1.067
X26.931 Y-65.128 Z-1.066
X26.935 Y-65.096 Z-1.07
X26.946 Y-65.064 Z-1.081
X26.981 Y-65.065 Z-1.065
X27 Z-1.062
X28.004
X28.033 Y-65.069 Z-1.066
X28.061 Y-65.078 Z-1.075
X28.09 Y-65.092 Z-1.089
X28.097 Y-65.121 Z-1.074
X28.108 Y-65.147 Z-1.066
X28.123 Y-65.169 Z-1.063
X28.717 Y-65.846 Z-1.068
X28.686 Y-65.914 Z-1.001
X28.717 Y-65.846 Z-1.068
X28.868 Y-65.914 Z-1
X28.717 Y-65.846 Z-1.068
X28.123 Y-65.169 Z-1.063
X28.108 Y-65.147 Z-1.066
X28.097 Y-65.121 Z-1.074
X28.09 Y-65.092 Z-1.089
X28.125 Y-65.074 Z-1.071
X28.146 Y-65.068 Z-1.065
X28.168 Y-65.065 Z-1.063
X28.293 Y-65.059 Z-1.062
X28.34 Y-65.053 Z-1.063
X28.434 Y-65.035 Z-1.062
X28.466 Y-65.025 Z-1.065
X28.544 Y-64.991 Z-1.063
X28.559 Y-64.982 Z-1.065
X28.632 Y-64.925 Z-1.064
X28.637 Y-64.919 Z-1.065
X28.701 Y-64.838 Z-1.066
X28.745 Y-64.734 Z-1.067
X28.759 Y-64.67 Z-1.066
X28.77 Y-64.599 Z-1.068
X28.776 Y-64.518
X28.778 Y-64.343
X28.776 Y-64.254
X28.769 Y-64.179
X28.742 Y-64.045 Z-1.066
X28.701 Y-63.951 Z-1.065
X28.691 Y-63.937 Z-1.064
X28.63 Y-63.863 Z-1.063
X28.619 Y-63.853 Z-1.062
X28.558 Y-63.806 Z-1.063
X28.527 Y-63.789 Z-1.06
X28.459 Y-63.761 Z-1.062
X28.42 Y-63.75 Z-1.06
X28.332 Y-63.734 Z-1.062
X28.29 Y-63.73 Z-1.06
X28.169 Y-63.724 Z-1.061
X28.124 Z-1.06
X27
X26.97 Y-63.727 Z-1.064
X26.94 Y-63.738 Z-1.075
X26.866 Y-63.664 Z-1.001
X26.94 Y-63.738 Z-1.075
X26.934 Y-63.761 Z-1.069
X26.932 Y-63.784 Z-1.067
Y-65.003
X26.936 Y-65.034 Z-1.071
X26.946 Y-65.064 Z-1.081
G0 Z5
X29.725 Y-65.914
Z4
G1 Z-1.001 F1000
X29.83 Y-65.85 Z-1.064
X29.868 Y-65.914 Z-1.001
X29.83 Y-65.85 Z-1.064
X30.225 Y-65.098 Z-1.063
X30.237 Y-65.08 Z-1.065
X30.252 Y-65.063 Z-1.071
X30.271 Y-65.048 Z-1.08
X30.272 Y-65.022 Z-1.069
X30.277 Y-64.998 Z-1.062
X30.286 Y-64.976 Z-1.059
X30.939 Y-63.733 Z-1.058
X30.952 Y-63.718 Z-1.063
X30.915 Y-63.657 Z-1.001
X30.952 Y-63.718 Z-1.063
X30.979 Y-63.715 Z-1.059
X30.995 Y-63.716 Z-1.061
X31.011 Y-63.719 Z-1.064
X31.048 Y-63.657 Z-1.001
X31.011 Y-63.719 Z-1.064
X31.022 Y-63.733 Z-1.06
X31.675 Y-64.975 Z-1.061
X31.684 Y-64.997 Z-1.064
X31.689 Y-65.02 Z-1.07
X31.69 Y-65.046 Z-1.082
X31.709 Y-65.062 Z-1.071
X31.725 Y-65.079 Z-1.065
X31.738 Y-65.099 Z-1.063
X32.13 Y-65.848 Z-1.066
X32.091 Y-65.914 Z-1.001
X32.13 Y-65.848 Z-1.066
X32.239 Y-65.914 Z-1.001
X32.13 Y-65.848 Z-1.066
X31.738 Y-65.099 Z-1.063
X31.725 Y-65.079 Z-1.065
X31.709 Y-65.062 Z-1.071
X31.69 Y-65.046 Z-1.082
X31.682 Y-65.05 Z-1.077
X31.651 Y-65.062 Z-1.066
X31.621 Y-65.065 Z-1.062
X30.338
X30.309 Y-65.062 Z-1.066
X30.271 Y-65.048 Z-1.08
G0 Z5
X33.035 Y-65.914
Z4
G1 Z-1.001 F1000
X33.116 Y-65.833 Z-1.081
X33.139 Y-65.843 Z-1.071
X33.161 Y-65.85 Z-1.065
X33.184 Y-65.852 Z-1.063
X34.727
X34.789 Y-65.914 Z-1.001
X34.727 Y-65.852 Z-1.063
X34.789 Y-65.79 Z-1.001
X34.727 Y-65.852 Z-1.063
X33.184
X33.161 Y-65.85 Z-1.065
X33.139 Y-65.843 Z-1.071
X33.116 Y-65.833 Z-1.081
X33.112 Y-65.816 Z-1.077
X33.036 Y-65.789 Z-1.001
X33.112 Y-65.816 Z-1.077
X33.117 Y-65.792 Z-1.067
X33.126 Y-65.771 Z-1.06
X33.138 Y-65.753 Z-1.058
X34.683 Y-63.824
X34.695 Y-63.806 Z-1.06
X34.704 Y-63.784 Z-1.067
X34.71 Y-63.761 Z-1.077
X34.786 Y-63.787 Z-1.001
X34.71 Y-63.761 Z-1.077
X34.706 Y-63.744 Z-1.081
X34.786 Y-63.664 Z-1.001
X34.706 Y-63.744 Z-1.081
X34.683 Y-63.734 Z-1.071
X34.66 Y-63.727 Z-1.064
X34.638 Y-63.725 Z-1.062
X33.129
X33.077 Y-63.664 Z-1.001
X33.129 Y-63.725 Z-1.062
X33.056 Y-63.787 Z-1.001
G0 Z5
X35.782 Y-65.914
Z4
G1 Z-1.001 F1000
X35.873 Y-65.823 Z-1.092
X35.964 Y-65.914 Z-1.001
X35.873 Y-65.823 Z-1.092
Y-65.78
X35.964 Y-65.689 Z-1.001
X35.873 Y-65.78 Z-1.092
X35.782 Y-65.689 Z-1.001
G0 Z5
X38.888 Y-64.273
Z4
G1 Z-1.001 F1000
X38.947 Y-64.195 Z-1.067
X39.021 Y-64.25 Z-1.001
X38.947 Y-64.195 Z-1.067
X38.94 Y-64.141 Z-1.066
X38.914 Y-64.033
X38.871 Y-63.942
X38.814 Y-63.872 Z-1.065
X38.808 Y-63.866 Z-1.064
X38.732 Y-63.808 Z-1.066
X38.634 Y-63.765 Z-1.067
X38.616 Y-63.759 Z-1.065
X38.508 Y-63.738 Z-1.066
X38.394 Y-63.729 Z-1.063
X37.762 Y-63.726
X37.718 Y-63.727 Z-1.064
X37.596 Y-63.733 Z-1.063
X37.554 Y-63.737 Z-1.065
X37.467 Y-63.753 Z-1.063
X37.427 Y-63.764 Z-1.066
X37.359 Y-63.792 Z-1.064
X37.328 Y-63.809 Z-1.066
X37.266 Y-63.855 Z-1.065
X37.254 Y-63.866
X37.193 Y-63.939
X37.183 Y-63.952 Z-1.066
X37.142 Y-64.048 Z-1.067
X37.126 Y-64.118 Z-1.066
X37.117 Y-64.177 Z-1.068
X37.111 Y-64.252
X37.108 Y-65.219 Z-1.067
X37.11 Y-65.309
X37.115 Y-65.389
X37.138 Y-65.52 Z-1.065
X37.182 Y-65.626
X37.245 Y-65.707 Z-1.064
X37.255 Y-65.717 Z-1.062
X37.326 Y-65.771 Z-1.063
X37.346 Y-65.783 Z-1.061
X37.426 Y-65.817 Z-1.062
X37.455 Y-65.826 Z-1.059
X37.554 Y-65.844 Z-1.061
X37.59 Y-65.848 Z-1.059
X37.672 Y-65.853
X38.301 Y-65.855
X38.345 Z-1.06
X38.469 Y-65.848 Z-1.059
X38.509 Y-65.844 Z-1.061
X38.599 Y-65.828 Z-1.059
X38.635 Y-65.818 Z-1.061
X38.706 Y-65.788 Z-1.059
X38.734 Y-65.773 Z-1.062
X38.795 Y-65.726 Z-1.061
X38.806 Y-65.717
X38.864 Y-65.65 Z-1.063
X38.911 Y-65.562 Z-1.065
X38.938 Y-65.459 Z-1.066
X38.947 Y-65.385
X39.021 Y-65.328 Z-1.001
X38.947 Y-65.385 Z-1.066
X38.888 Y-65.312 Z-1.001
G0 Z5
X39.85 Y-65.914
Z4
G1 Z-1.001 F1000
X39.955 Y-65.85 Z-1.064
X39.993 Y-65.914 Z-1.001
X39.955 Y-65.85 Z-1.064
X40.35 Y-65.098 Z-1.063
X40.363 Y-65.079 Z-1.065
X40.379 Y-65.062 Z-1.071
X40.398 Y-65.047 Z-1.081
X40.406 Y-65.051 Z-1.077
X40.436 Y-65.062 Z-1.066
X40.466 Y-65.065 Z-1.062
X41.749
X41.779 Y-65.062 Z-1.066
X41.818 Y-65.046 Z-1.082
X41.838 Y-65.062 Z-1.071
X41.854 Y-65.079 Z-1.065
X41.866 Y-65.098 Z-1.063
X42.26 Y-65.849 Z-1.066
X42.369 Y-65.914 Z-1.001
X42.26 Y-65.849 Z-1.066
X42.221 Y-65.914 Z-1.001
X42.26 Y-65.849 Z-1.066
X41.866 Y-65.098 Z-1.063
X41.854 Y-65.079 Z-1.065
X41.838 Y-65.062 Z-1.071
X41.818 Y-65.046 Z-1.082
X41.817 Y-65.02 Z-1.07
X41.812 Y-64.997 Z-1.064
X41.803 Y-64.975 Z-1.061
X41.158 Y-63.748 Z-1.057
X41.149 Y-63.733 Z-1.059
X41.136 Y-63.719 Z-1.063
X41.174 Y-63.657 Z-1.001
X41.136 Y-63.719 Z-1.063
X41.107 Y-63.715 Z-1.059
X41.078 Y-63.719 Z-1.063
X41.04 Y-63.657 Z-1.001
X41.078 Y-63.719 Z-1.063
X41.066 Y-63.733 Z-1.059
X40.413 Y-64.975 Z-1.061
X40.404 Y-64.997 Z-1.063
X40.399 Y-65.021 Z-1.07
X40.398 Y-65.047 Z-1.081
G0 Z15
M9
G28 G91 Z0
G90
G28 G91 X0 Y0
G90
M5
M30
