(1001)
(T2  D=6.35 CR=0 TAPER=45deg - ZMIN=-1.092 - chamfer mill)
G90 G94
G17
G21
G28 G91 Z0
G90

(Engrave9)
T2
S5000 M3
G54
M8
G0 X17.616 Y-71.471
Z15
Z4
G1 Z-1.001 F100
X17.691 Y-71.528 Z-1.068
X17.75 Y-71.451 Z-1.001
X17.691 Y-71.528 Z-1.068
X17.696 Y-71.581 Z-1.067
X17.722 Y-71.688
X17.765 Y-71.781
X17.82 Y-71.848 Z-1.065
X17.83 Y-71.858 Z-1.064
X17.903 Y-71.914
X17.914 Y-71.92 Z-1.063
X18.003 Y-71.958 Z-1.064
X18.023 Y-71.964 Z-1.063
X18.13 Y-71.985 Z-1.064
X18.245 Y-71.994 Z-1.061
X18.886 Y-71.997
X18.977 Y-71.994
X19.058 Y-71.989
X19.184 Y-71.968 Z-1.06
X19.289 Y-71.93 Z-1.061
X19.303 Y-71.923 Z-1.062
X19.382 Y-71.869 Z-1.064
X19.401 Y-71.85
X19.438 Y-71.808 Z-1.065
X19.457 Y-71.779
X19.484 Y-71.729 Z-1.064
X19.5 Y-71.686 Z-1.063
X19.515 Y-71.631
X19.522 Y-71.587
X19.526 Y-71.531 Z-1.064
Y-71.439 Z-1.066
X19.525 Y-71.378 Z-1.063
X19.52 Y-71.322 Z-1.064
X19.511 Y-71.277
X19.494 Y-71.221 Z-1.065
X19.475 Y-71.181
X19.447 Y-71.131 Z-1.067
X19.426 Y-71.104 Z-1.066
X19.391 Y-71.065 Z-1.065
X19.304 Y-71.003 Z-1.064
X19.202 Y-70.963 Z-1.063
X19.078 Y-70.939 Z-1.064
X18.976 Y-70.932 Z-1.063
X18.361 Y-70.93 Z-1.064
X18.32
X18.193 Y-70.924 Z-1.063
X18.063 Y-70.902 Z-1.062
X17.956 Y-70.863
X17.943 Y-70.858 Z-1.063
X17.864 Y-70.802 Z-1.066
X17.845 Y-70.783 Z-1.065
X17.807 Y-70.74 Z-1.067
X17.788 Y-70.71 Z-1.066
X17.761 Y-70.659
X17.745 Y-70.616 Z-1.064
X17.729 Y-70.56 Z-1.063
X17.724 Y-70.526
X17.72 Y-70.467
X17.719 Y-70.376 Z-1.065
X17.721 Y-70.321 Z-1.063
X17.726 Y-70.263
X17.736 Y-70.218
X17.752 Y-70.163 Z-1.064
X17.766 Y-70.131
X17.794 Y-70.08 Z-1.065
X17.815 Y-70.052
X17.853 Y-70.009 Z-1.064
X17.942 Y-69.944 Z-1.062
X18.045 Y-69.904 Z-1.061
X18.171 Y-69.879 Z-1.062
X18.271 Y-69.872 Z-1.06
X18.86 Y-69.87 Z-1.061
X18.904 Y-69.871
X19.029 Y-69.878 Z-1.062
X19.067 Y-69.882 Z-1.064
X19.162 Y-69.9 Z-1.063
X19.194 Y-69.909 Z-1.065
X19.268 Y-69.94 Z-1.063
X19.282 Y-69.947
X19.354 Y-69.998
X19.366 Y-70.008
X19.421 Y-70.07 Z-1.065
X19.431 Y-70.084 Z-1.066
X19.47 Y-70.161 Z-1.067
X19.497 Y-70.264
X19.506 Y-70.339
X19.58 Y-70.396 Z-1.001
X19.506 Y-70.339 Z-1.067
X19.447 Y-70.415 Z-1.001
G0 Z5
X20.783 Y-72.055
Z4
G1 Z-1.001 F100
X20.852 Y-71.987 Z-1.069
X20.92 Y-72.055 Z-1.001
X20.852 Y-71.987 Z-1.069
Y-70.989
X20.855 Y-70.958 Z-1.073
X20.866 Y-70.926 Z-1.083
X20.854 Y-70.894 Z-1.071
X20.85 Y-70.861 Z-1.067
Y-69.872
X20.783 Y-69.805 Z-1.001
X20.85 Y-69.872 Z-1.067
X20.916 Y-69.805 Z-1.001
X20.85 Y-69.872 Z-1.067
Y-70.861
X20.854 Y-70.894 Z-1.071
X20.866 Y-70.926 Z-1.083
X20.887 Z-1.071
X20.901 Y-70.925 Z-1.067
X22.633 Z-1.064
X22.649 Z-1.066
X22.685 Z-1.083
X22.696 Y-70.893 Z-1.071
X22.7 Y-70.861 Z-1.067
Y-69.872
X22.766 Y-69.805 Z-1.001
X22.7 Y-69.872 Z-1.067
X22.633 Y-69.805 Z-1.001
X22.7 Y-69.872 Z-1.067
Y-70.861
X22.696 Y-70.893 Z-1.071
X22.685 Y-70.925 Z-1.083
X22.696 Y-70.957 Z-1.071
X22.7 Y-70.989 Z-1.067
Y-71.989
X22.766 Y-72.055 Z-1.001
X22.7 Y-71.989 Z-1.067
X22.633 Y-72.055 Z-1.001
G0 Z5
X23.983 Y-72.052
Z4
G1 Z-1.001 F100
X24.059 Y-71.976 Z-1.076
X24.088 Y-71.986 Z-1.066
X24.117 Y-71.99 Z-1.063
X25.699
X25.761 Y-72.052 Z-1.001
X25.699 Y-71.99 Z-1.063
X25.761 Y-71.928 Z-1.001
X25.699 Y-71.99 Z-1.063
X24.117
X24.088 Y-71.986 Z-1.066
X24.059 Y-71.976 Z-1.076
X24.052 Y-71.951 Z-1.07
X24.05 Y-71.927 Z-1.067
Y-70.985
X24.054 Y-70.954 Z-1.071
X24.064 Y-70.923 Z-1.082
X24.101 Z-1.064
X24.117 Z-1.062
X25.594
X25.669 Y-70.861 Z-1.001
X25.594 Y-70.923 Z-1.062
X25.645 Y-70.985 Z-1.001
X25.594 Y-70.923 Z-1.062
X24.117
X24.101 Z-1.064
X24.064 Z-1.082
X24.054 Y-70.892 Z-1.071
X24.05 Y-70.861 Z-1.067
Y-69.929
X24.052 Y-69.905 Z-1.07
X24.059 Y-69.881 Z-1.076
X23.983 Y-69.805 Z-1.001
X24.059 Y-69.881 Z-1.076
X24.088 Y-69.87 Z-1.066
X24.117 Y-69.867 Z-1.062
X25.608
X25.669 Y-69.805 Z-1.001
X25.608 Y-69.867 Z-1.062
X25.669 Y-69.929 Z-1.001
G0 Z5
X26.866 Y-72.055
Z4
G1 Z-1.001 F100
X26.932 Y-71.989 Z-1.067
X26.999 Y-72.055 Z-1.001
X26.932 Y-71.989 Z-1.067
X26.931 Y-71.269 Z-1.066
X26.935 Y-71.238 Z-1.07
X26.946 Y-71.206 Z-1.081
X26.936 Y-71.175 Z-1.071
X26.932 Y-71.145 Z-1.067
Y-69.926
X26.934 Y-69.903 Z-1.069
X26.94 Y-69.88 Z-1.075
X26.866 Y-69.805 Z-1.001
X26.94 Y-69.88 Z-1.075
X26.97 Y-69.869 Z-1.064
X27 Y-69.865 Z-1.06
X28.214 Y-69.867
X28.296 Y-69.872
X28.332 Y-69.875 Z-1.062
X28.432 Y-69.894 Z-1.06
X28.459 Y-69.902 Z-1.062
X28.542 Y-69.938 Z-1.061
X28.558 Y-69.947 Z-1.063
X28.63 Y-70.005
X28.638 Y-70.012 Z-1.064
X28.702 Y-70.094 Z-1.065
X28.746 Y-70.2 Z-1.066
X28.771 Y-70.331 Z-1.068
X28.776 Y-70.412
X28.778 Y-70.59
X28.775 Y-70.678 Z-1.069
X28.769 Y-70.754 Z-1.068
X28.758 Y-70.818 Z-1.066
X28.742 Y-70.887 Z-1.067
X28.701 Y-70.98 Z-1.066
X28.691 Y-70.995 Z-1.065
X28.632 Y-71.067 Z-1.064
X28.619 Y-71.078
X28.559 Y-71.124 Z-1.065
X28.529 Y-71.141 Z-1.063
X28.466 Y-71.167 Z-1.065
X28.422 Y-71.179 Z-1.062
X28.34 Y-71.195 Z-1.063
X28.262 Y-71.203
X28.168 Y-71.207
X28.146 Y-71.209 Z-1.065
X28.124 Y-71.216 Z-1.071
X28.09 Y-71.233 Z-1.089
X28.061 Y-71.22 Z-1.075
X28.033 Y-71.21 Z-1.066
X28.004 Y-71.207 Z-1.062
X27
X26.981 Z-1.065
X26.946 Y-71.206 Z-1.081
X26.981 Y-71.207 Z-1.065
X27 Z-1.062
X28.004
X28.033 Y-71.21 Z-1.066
X28.061 Y-71.22 Z-1.075
X28.09 Y-71.233 Z-1.089
X28.097 Y-71.263 Z-1.074
X28.108 Y-71.288 Z-1.066
X28.123 Y-71.311 Z-1.063
X28.717 Y-71.988 Z-1.068
X28.686 Y-72.055 Z-1.001
X28.717 Y-71.988 Z-1.068
X28.868 Y-72.056 Z-1
G0 Z5
X29.725
Z4
G1 Z-1.001 F100
X29.83 Y-71.992 Z-1.064
X29.868 Y-72.055 Z-1.001
X29.83 Y-71.992 Z-1.064
X30.225 Y-71.24 Z-1.063
X30.237 Y-71.221 Z-1.065
X30.252 Y-71.204 Z-1.071
X30.271 Y-71.189 Z-1.08
X30.281 Y-71.194 Z-1.076
X30.309 Y-71.204 Z-1.066
X30.338 Y-71.207 Z-1.062
X31.621
X31.651 Y-71.203 Z-1.066
X31.69 Y-71.188 Z-1.082
X31.709 Y-71.203 Z-1.071
X31.725 Y-71.221 Z-1.065
X31.738 Y-71.24 Z-1.063
X32.13 Y-71.99 Z-1.066
X32.239 Y-72.056 Z-1.001
X32.13 Y-71.99 Z-1.066
X32.091 Y-72.055 Z-1.001
X32.13 Y-71.99 Z-1.066
X31.738 Y-71.24 Z-1.063
X31.725 Y-71.221 Z-1.065
X31.709 Y-71.203 Z-1.071
X31.69 Y-71.188 Z-1.082
X31.689 Y-71.162 Z-1.07
X31.684 Y-71.138 Z-1.064
X31.675 Y-71.116 Z-1.061
X31.031 Y-69.889 Z-1.059
X31.022 Y-69.875 Z-1.06
X31.011 Y-69.861 Z-1.064
X31.048 Y-69.798 Z-1.001
X31.011 Y-69.861 Z-1.064
X30.995 Y-69.858 Z-1.061
X30.979 Y-69.857 Z-1.06
X30.952 Y-69.86 Z-1.063
X30.915 Y-69.798 Z-1.001
X30.952 Y-69.86 Z-1.063
X30.939 Y-69.874 Z-1.058
X30.286 Y-71.117 Z-1.059
X30.277 Y-71.139 Z-1.062
X30.272 Y-71.163 Z-1.069
X30.271 Y-71.189 Z-1.08
G0 Z5
X33.035 Y-72.055
Z4
G1 Z-1.001 F100
X33.116 Y-71.975 Z-1.081
X33.139 Y-71.985 Z-1.071
X33.161 Y-71.991 Z-1.065
X33.184 Y-71.993 Z-1.063
X34.727
X34.789 Y-72.055 Z-1.001
X34.727 Y-71.993 Z-1.063
X34.789 Y-71.931 Z-1.001
X34.727 Y-71.993 Z-1.063
X33.184
X33.161 Y-71.991 Z-1.065
X33.139 Y-71.985 Z-1.071
X33.116 Y-71.975 Z-1.081
X33.112 Y-71.958 Z-1.077
X33.036 Y-71.931 Z-1.001
X33.112 Y-71.958 Z-1.077
X33.117 Y-71.934 Z-1.067
X33.126 Y-71.913 Z-1.06
X33.138 Y-71.894 Z-1.058
X34.683 Y-69.966
X34.695 Y-69.947 Z-1.06
X34.704 Y-69.926 Z-1.067
X34.71 Y-69.902 Z-1.077
X34.786 Y-69.929 Z-1.001
X34.71 Y-69.902 Z-1.077
X34.706 Y-69.886 Z-1.081
X34.786 Y-69.805 Z-1.001
X34.706 Y-69.886 Z-1.081
X34.683 Y-69.875 Z-1.071
X34.66 Y-69.869 Z-1.064
X34.638 Y-69.867 Z-1.062
X33.129
X33.077 Y-69.805 Z-1.001
X33.129 Y-69.867 Z-1.062
X33.056 Y-69.929 Z-1.001
G0 Z5
X35.782 Y-72.055
Z4
G1 Z-1.001 F100
X35.873 Y-71.965 Z-1.092
X35.964 Y-72.055 Z-1.001
X35.873 Y-71.965 Z-1.092
Y-71.921
X35.782 Y-71.831 Z-1.001
X35.873 Y-71.921 Z-1.092
X35.964 Y-71.831 Z-1.001
G0 Z5
X38.888 Y-70.415
Z4
G1 Z-1.001 F100
X38.947 Y-70.337 Z-1.067
X39.021 Y-70.391 Z-1.001
X38.947 Y-70.337 Z-1.067
X38.94 Y-70.283 Z-1.066
X38.914 Y-70.174
X38.871 Y-70.083
X38.814 Y-70.014 Z-1.065
X38.808 Y-70.008 Z-1.064
X38.732 Y-69.949 Z-1.066
X38.634 Y-69.906 Z-1.067
X38.617 Y-69.901 Z-1.065
X38.508 Y-69.879 Z-1.066
X38.394 Y-69.87 Z-1.063
X37.762 Y-69.868
X37.718 Z-1.064
X37.596 Y-69.874 Z-1.063
X37.554 Y-69.879 Z-1.065
X37.467 Y-69.895 Z-1.063
X37.427 Y-69.906 Z-1.066
X37.359 Y-69.934 Z-1.064
X37.328 Y-69.951 Z-1.066
X37.266 Y-69.997 Z-1.065
X37.254 Y-70.007
X37.193 Y-70.08
X37.183 Y-70.094 Z-1.066
X37.142 Y-70.189 Z-1.067
X37.126 Y-70.259 Z-1.066
X37.117 Y-70.319 Z-1.068
X37.111 Y-70.393
X37.108 Y-71.361 Z-1.067
X37.11 Y-71.451
X37.115 Y-71.53
X37.138 Y-71.661 Z-1.065
X37.182 Y-71.768
X37.245 Y-71.848 Z-1.064
X37.255 Y-71.858 Z-1.063
X37.326 Y-71.913
X37.346 Y-71.925 Z-1.061
X37.426 Y-71.959 Z-1.062
X37.455 Y-71.968 Z-1.059
X37.554 Y-71.986 Z-1.061
X37.59 Y-71.99 Z-1.059
X37.671 Y-71.995
X38.301 Y-71.997 Z-1.06
X38.345 Y-71.996
X38.469 Y-71.99 Z-1.059
X38.508 Y-71.986 Z-1.061
X38.599 Y-71.969 Z-1.059
X38.635 Y-71.959 Z-1.061
X38.706 Y-71.93 Z-1.059
X38.734 Y-71.914 Z-1.062
X38.795 Y-71.868 Z-1.061
X38.806 Y-71.858
X38.864 Y-71.791 Z-1.063
X38.911 Y-71.703 Z-1.065
X38.938 Y-71.601 Z-1.066
X38.947 Y-71.527
X39.021 Y-71.47 Z-1.001
X38.947 Y-71.527 Z-1.066
X38.888 Y-71.453 Z-1.001
G0 Z5
X39.85 Y-72.056
Z4
G1 Z-1.001 F100
X39.955 Y-71.992 Z-1.064
X39.993 Y-72.055 Z-1.001
X39.955 Y-71.992 Z-1.064
X40.35 Y-71.24 Z-1.063
X40.363 Y-71.221 Z-1.065
X40.379 Y-71.204 Z-1.071
X40.398 Y-71.189 Z-1.081
X40.399 Y-71.162 Z-1.07
X40.404 Y-71.139 Z-1.063
X40.413 Y-71.117 Z-1.061
X41.066 Y-69.874 Z-1.059
X41.078 Y-69.861 Z-1.063
X41.04 Y-69.798 Z-1.001
X41.078 Y-69.861 Z-1.063
X41.107 Y-69.857 Z-1.06
X41.136 Y-69.86 Z-1.063
X41.174 Y-69.798 Z-1.001
X41.136 Y-69.86 Z-1.063
X41.149 Y-69.874 Z-1.059
X41.803 Y-71.116 Z-1.061
X41.812 Y-71.138 Z-1.064
X41.817 Y-71.162 Z-1.07
X41.818 Y-71.188 Z-1.082
X41.838 Y-71.203 Z-1.071
X41.854 Y-71.221 Z-1.065
X41.866 Y-71.24 Z-1.063
X42.26 Y-71.99 Z-1.066
X42.369 Y-72.056 Z-1.001
X42.26 Y-71.99 Z-1.066
X42.221 Y-72.055 Z-1.001
X42.26 Y-71.99 Z-1.066
X41.866 Y-71.24 Z-1.063
X41.854 Y-71.221 Z-1.065
X41.838 Y-71.203 Z-1.071
X41.818 Y-71.188 Z-1.082
X41.81 Y-71.192 Z-1.077
X41.779 Y-71.203 Z-1.066
X41.749 Y-71.207 Z-1.062
X40.466
X40.436 Y-71.203 Z-1.066
X40.398 Y-71.189 Z-1.081
G0 Z15
M9
G28 G91 Z0
G90
G28 G91 X0 Y0
G90
M5
M30
